%
(Header)
(Generated by gcodetools from Inkscape.)
(Using default header. To add your own header create file "header" in the output dir.)
M3
(Header end.)
G21 (All units in mm)
 
G00 Z5

G00 X240 Y120
G01 Z-1 F1000
G03 X240 Y240 Z-1 I0 J60 F1000
G01 X240 Y120
G03 X240 Y240 Z-10 I60 J60 F1000
G00 Z5

G00 X120 Y120
G01 Z-1 F1000
G02 X120 Y240 Z-1 I0 J60 F1000
G01 X120 Y120
G02 X120 Y240 Z-10 I-60 J60 F1000
G00 Z5


(Footer)
M5
G00 X0 Y0
M2
(Using default footer. To add your own footer create file "footer" in the output dir.)
(end)
%
