( This gcode generated by /Applications/EAGLE/ulp/pcb-gcode.ulp )
( Copyright 2005 by John Johnson. See readme.txt for licensing terms. )

( This file generated from the board /Users/matt/Documents/eagle/LightDrums/buttonlcdboard.brd )
( This file generated 9/06/11 8:56 PM )

G21

G90
G00 Z12.7000 
G00 X0 Y0
M03
G04 P3.000000
G00 Z0.5080 
G00 X89.4433 Y52.3517 
G01 Z-0.2540 F254.00 
G01 X88.9205 Y52.3517 
G01 X88.7698 Y52.5024 
G01 X88.7698 Y52.8745 
G01 X88.9205 Y53.0252 
G01 X89.4433 Y53.0252 
G01 X89.4433 Y52.3517 
G00 Z0.5080 
G00 X84.8049 Y52.3517 
G01 Z-0.2540 F254.00 
G01 X84.2821 Y52.3517 
G01 X84.1314 Y52.5024 
G01 X84.1314 Y52.8745 
G01 X84.2821 Y53.0252 
G01 X84.8049 Y53.0252 
G01 X84.8049 Y52.3517 
G00 Z0.5080 
G00 X78.1287 Y52.8744 
G01 Z-0.2540 F254.00 
G01 X78.2794 Y53.0252 
G01 X78.6514 Y53.0252 
G01 X78.8022 Y52.8744 
G01 X78.8022 Y52.5024 
G01 X78.6515 Y52.3517 
G01 X78.2793 Y52.3517 
G01 X78.1287 Y52.5024 
G01 X78.1287 Y52.8744 
G00 Z0.5080 
G00 X73.3452 Y52.8744 
G01 Z-0.2540 F254.00 
G01 X73.3452 Y52.5024 
G01 X73.1945 Y52.3517 
G01 X72.6717 Y52.3517 
G01 X72.6717 Y53.0252 
G01 X73.1944 Y53.0252 
G01 X73.3452 Y52.8744 
G00 Z0.5080 
G00 X61.0730 Y53.4168 
G01 Z-0.2540 F254.00 
G01 X61.2237 Y53.5675 
G01 X61.5958 Y53.5675 
G01 X61.6614 Y53.5019 
G01 X61.0730 Y52.9134 
G01 X61.0730 Y53.4168 
G00 Z0.5080 
G00 X61.7465 Y52.5024 
G01 Z-0.2540 F254.00 
G01 X61.5958 Y52.3517 
G01 X61.2237 Y52.3517 
G01 X61.1581 Y52.4173 
G01 X61.7465 Y53.0058 
G01 X61.7465 Y52.5024 
G00 Z0.5080 
G00 X64.3472 Y53.4168 
G01 Z-0.2540 F254.00 
G01 X64.4979 Y53.5675 
G01 X64.8700 Y53.5675 
G01 X64.9356 Y53.5019 
G01 X64.3472 Y52.9135 
G01 X64.3472 Y53.4168 
G00 Z0.5080 
G00 X65.0207 Y52.5024 
G01 Z-0.2540 F254.00 
G01 X64.8700 Y52.3517 
G01 X64.4979 Y52.3517 
G01 X64.4323 Y52.4173 
G01 X65.0207 Y53.0057 
G01 X65.0207 Y52.5024 
G00 Z0.5080 
G00 X65.9843 Y53.4168 
G01 Z-0.2540 F254.00 
G01 X66.1350 Y53.5675 
G01 X66.5071 Y53.5675 
G01 X66.5727 Y53.5019 
G01 X65.9843 Y52.9134 
G01 X65.9843 Y53.4168 
G00 Z0.5080 
G00 X66.6578 Y52.5023 
G01 Z-0.2540 F254.00 
G01 X66.5071 Y52.3517 
G01 X66.1350 Y52.3517 
G01 X66.0693 Y52.4173 
G01 X66.6578 Y53.0058 
G01 X66.6578 Y52.5023 
G00 Z0.5080 
G00 X67.6214 Y53.3158 
G01 Z-0.2540 F254.00 
G01 X67.6214 Y53.4168 
G01 X67.7721 Y53.5675 
G01 X68.1442 Y53.5675 
G01 X68.2949 Y53.4168 
G01 X68.2949 Y53.1651 
G01 X67.7721 Y53.1651 
G01 X67.6214 Y53.3158 
G00 Z0.5080 
G00 X86.4420 Y52.8744 
G01 Z-0.2540 F254.00 
G01 X86.4420 Y52.5024 
G01 X86.2913 Y52.3517 
G01 X85.7685 Y52.3517 
G01 X85.7685 Y53.0252 
G01 X86.2912 Y53.0252 
G01 X86.4420 Y52.8744 
G00 Z0.5080 
G00 X36.9664 Y69.3987 
G01 Z-0.2540 F254.00 
G01 X36.9436 Y69.3811 
G01 X36.9189 Y69.3669 
G01 X36.8986 Y69.3466 
G01 X36.8758 Y69.3291 
G01 X36.8584 Y69.3063 
G01 X36.8380 Y69.2860 
G01 X36.8236 Y69.2610 
G01 X36.8062 Y69.2384 
G01 X36.7953 Y69.2120 
G01 X36.7809 Y69.1871 
G01 X36.7734 Y69.1591 
G01 X36.7625 Y69.1328 
G01 X36.7588 Y69.1047 
G01 X36.7513 Y69.0767 
G01 X36.7513 Y69.0474 
G01 X36.7476 Y69.0193 
G01 X36.7513 Y68.9913 
G01 X36.7513 Y68.6370 
G01 X36.7809 Y68.5266 
G01 X36.8380 Y68.4277 
G01 X36.9189 Y68.3468 
G01 X37.0178 Y68.2897 
G01 X37.1282 Y68.2601 
G01 X37.2427 Y68.2601 
G01 X37.3531 Y68.2897 
G01 X37.4520 Y68.3468 
G01 X37.5329 Y68.4277 
G01 X37.5329 Y68.4278 
G01 X38.2738 Y69.1687 
G01 X38.3712 Y69.2661 
G01 X38.3942 Y69.2837 
G01 X38.4116 Y69.3064 
G01 X38.4317 Y69.3265 
G01 X38.4462 Y69.3516 
G01 X38.4637 Y69.3744 
G01 X38.4746 Y69.4007 
G01 X38.4889 Y69.4254 
G01 X38.4964 Y69.4532 
G01 X38.5075 Y69.4800 
G01 X38.5112 Y69.5083 
G01 X38.5186 Y69.5358 
G01 X38.5186 Y69.5650 
G01 X38.5223 Y69.5934 
G01 X38.5186 Y69.6215 
G01 X38.5186 Y69.6502 
G01 X38.5112 Y69.6779 
G01 X38.5074 Y69.7067 
G01 X38.4964 Y69.7331 
G01 X38.4891 Y69.7606 
G01 X38.4746 Y69.7857 
G01 X38.4636 Y69.8123 
G01 X38.4464 Y69.8347 
G01 X38.4320 Y69.8597 
G01 X38.4115 Y69.8802 
G01 X38.3940 Y69.9030 
G01 X38.3713 Y69.9203 
G01 X38.3512 Y69.9405 
G01 X38.3261 Y69.9550 
G01 X38.3033 Y69.9725 
G01 X38.2771 Y69.9833 
G01 X38.2523 Y69.9977 
G01 X38.2312 Y70.0034 
G01 X38.1136 Y70.1211 
G01 X38.0146 Y70.1783 
G01 X37.9042 Y70.2079 
G01 X37.8452 Y70.2079 
G01 X37.8171 Y70.2116 
G01 X37.7889 Y70.2079 
G01 X37.7598 Y70.2079 
G01 X37.7319 Y70.2004 
G01 X37.7037 Y70.1967 
G01 X37.6774 Y70.1858 
G01 X37.6494 Y70.1783 
G01 X37.6245 Y70.1639 
G01 X37.5981 Y70.1530 
G01 X37.5754 Y70.1355 
G01 X37.5505 Y70.1212 
G01 X37.5302 Y70.1008 
G01 X37.5074 Y70.0834 
G01 X37.4900 Y70.0606 
G01 X37.4696 Y70.0403 
G01 X37.4553 Y70.0154 
G01 X37.4378 Y69.9927 
G01 X37.4269 Y69.9662 
G01 X37.4125 Y69.9414 
G01 X37.4051 Y69.9136 
G01 X37.3115 Y69.6877 
G01 X37.0622 Y69.4383 
G01 X37.0454 Y69.4314 
G01 X37.0178 Y69.4240 
G01 X36.9932 Y69.4097 
G01 X36.9664 Y69.3987 
G00 Z0.5080 
G00 X82.0809 Y74.4469 
G01 Z-0.2540 F254.00 
G01 X82.0545 Y74.4359 
G01 X82.0267 Y74.4285 
G01 X82.0018 Y74.4140 
G01 X81.6588 Y74.2719 
G01 X80.8036 Y74.2719 
G01 X80.6932 Y74.2423 
G01 X80.5943 Y74.1852 
G01 X80.5134 Y74.1043 
G01 X80.4563 Y74.0054 
G01 X80.4267 Y73.8950 
G01 X80.4267 Y73.7805 
G01 X80.4563 Y73.6701 
G01 X80.5134 Y73.5712 
G01 X80.5943 Y73.4903 
G01 X80.5944 Y73.4903 
G01 X80.9501 Y73.1346 
G01 X80.9523 Y73.1334 
G01 X81.0490 Y73.0775 
G01 X81.1594 Y73.0479 
G01 X81.1595 Y73.0479 
G01 X81.2739 Y73.0479 
G01 X81.6587 Y73.0479 
G01 X82.0018 Y72.9058 
G01 X82.0267 Y72.8913 
G01 X82.0545 Y72.8839 
G01 X82.0809 Y72.8729 
G01 X82.1093 Y72.8692 
G01 X82.1371 Y72.8617 
G01 X82.1661 Y72.8617 
G01 X82.1943 Y72.8580 
G01 X82.2224 Y72.8617 
G01 X82.2516 Y72.8617 
G01 X82.2796 Y72.8693 
G01 X82.3076 Y72.8729 
G01 X82.3338 Y72.8838 
G01 X82.3620 Y72.8913 
G01 X82.3869 Y72.9057 
G01 X82.4133 Y72.9166 
G01 X82.4360 Y72.9341 
G01 X82.4609 Y72.9484 
G01 X82.4811 Y72.9687 
G01 X82.5039 Y72.9861 
G01 X82.5213 Y73.0089 
G01 X82.5418 Y73.0293 
G01 X82.5562 Y73.0543 
G01 X82.5735 Y73.0768 
G01 X82.5844 Y73.1032 
G01 X82.5989 Y73.1282 
G01 X82.6063 Y73.1561 
G01 X82.6173 Y73.1824 
G01 X82.6210 Y73.2108 
G01 X82.6285 Y73.2386 
G01 X82.6285 Y73.2676 
G01 X82.6322 Y73.2958 
G01 X82.6285 Y73.3239 
G01 X82.6285 Y73.9959 
G01 X82.6322 Y74.0241 
G01 X82.6285 Y74.0522 
G01 X82.6285 Y74.0812 
G01 X82.6210 Y74.1090 
G01 X82.6173 Y74.1374 
G01 X82.6063 Y74.1637 
G01 X82.5989 Y74.1916 
G01 X82.5844 Y74.2167 
G01 X82.5735 Y74.2430 
G01 X82.5562 Y74.2654 
G01 X82.5418 Y74.2905 
G01 X82.5213 Y74.3109 
G01 X82.5039 Y74.3337 
G01 X82.4811 Y74.3511 
G01 X82.4609 Y74.3714 
G01 X82.4360 Y74.3857 
G01 X82.4133 Y74.4032 
G01 X82.3869 Y74.4140 
G01 X82.3620 Y74.4285 
G01 X82.3338 Y74.4360 
G01 X82.3076 Y74.4469 
G01 X82.2796 Y74.4505 
G01 X82.2516 Y74.4581 
G01 X82.2224 Y74.4581 
G01 X82.1943 Y74.4618 
G01 X82.1661 Y74.4581 
G01 X82.1371 Y74.4581 
G01 X82.1093 Y74.4506 
G01 X82.0809 Y74.4469 
G00 Z0.5080 
G00 X98.2241 Y56.9726 
G01 Z-0.2540 F254.00 
G01 X98.2241 Y57.0017 
G01 X98.2278 Y57.0301 
G01 X98.2241 Y57.0582 
G01 X98.2241 Y57.9528 
G01 X98.2277 Y57.9751 
G01 X98.2241 Y58.0102 
G01 X98.2241 Y58.0448 
G01 X98.2183 Y58.0663 
G01 X98.2160 Y58.0889 
G01 X98.2034 Y58.1218 
G01 X98.1945 Y58.1552 
G01 X98.1834 Y58.1743 
G01 X98.1753 Y58.1957 
G01 X98.1545 Y58.2243 
G01 X98.1374 Y58.2541 
G01 X98.1216 Y58.2698 
G01 X98.1083 Y58.2883 
G01 X98.0810 Y58.3104 
G01 X98.0565 Y58.3350 
G01 X98.0370 Y58.3462 
G01 X98.0196 Y58.3604 
G01 X97.9879 Y58.3745 
G01 X97.9576 Y58.3921 
G01 X97.9356 Y58.3979 
G01 X97.9153 Y58.4071 
G01 X97.8810 Y58.4126 
G01 X97.8472 Y58.4217 
G01 X97.8247 Y58.4217 
G01 X97.8024 Y58.4253 
G01 X97.7673 Y58.4217 
G01 X97.7327 Y58.4217 
G01 X97.7112 Y58.4159 
G01 X97.6886 Y58.4136 
G01 X97.6557 Y58.4010 
G01 X97.6223 Y58.3921 
G01 X97.6032 Y58.3810 
G01 X97.5818 Y58.3729 
G01 X97.5532 Y58.3521 
G01 X97.5234 Y58.3350 
G01 X97.5077 Y58.3192 
G01 X97.4892 Y58.3059 
G01 X97.4670 Y58.2785 
G01 X97.4425 Y58.2541 
G01 X97.4314 Y58.2347 
G01 X97.0455 Y57.7603 
G01 X97.0207 Y57.7356 
G01 X97.0095 Y57.7161 
G01 X96.9953 Y57.6987 
G01 X96.9811 Y57.6667 
G01 X96.9636 Y57.6366 
G01 X96.9578 Y57.6149 
G01 X96.9486 Y57.5944 
G01 X96.9431 Y57.5599 
G01 X96.9340 Y57.5262 
G01 X96.9340 Y57.5038 
G01 X96.9304 Y57.4815 
G01 X96.9340 Y57.4465 
G01 X96.9340 Y57.4118 
G01 X96.9398 Y57.3903 
G01 X96.9421 Y57.3677 
G01 X96.9547 Y57.3348 
G01 X96.9636 Y57.3014 
G01 X96.9747 Y57.2823 
G01 X96.9828 Y57.2609 
G01 X97.0037 Y57.2321 
G01 X97.0208 Y57.2024 
G01 X97.0365 Y57.1868 
G01 X97.0498 Y57.1683 
G01 X97.0772 Y57.1461 
G01 X97.4096 Y56.8138 
G01 X97.4108 Y56.8107 
G01 X97.4283 Y56.7880 
G01 X97.4425 Y56.7633 
G01 X97.4629 Y56.7430 
G01 X97.4804 Y56.7201 
G01 X97.5032 Y56.7027 
G01 X97.5234 Y56.6824 
G01 X97.5482 Y56.6682 
G01 X97.5711 Y56.6505 
G01 X97.5978 Y56.6395 
G01 X97.6223 Y56.6253 
G01 X97.6501 Y56.6179 
G01 X97.6768 Y56.6068 
G01 X97.7051 Y56.6032 
G01 X97.7327 Y56.5957 
G01 X97.7618 Y56.5957 
G01 X97.7902 Y56.5920 
G01 X97.8183 Y56.5957 
G01 X97.8472 Y56.5957 
G01 X97.8749 Y56.6032 
G01 X97.9035 Y56.6069 
G01 X97.9300 Y56.6180 
G01 X97.9576 Y56.6253 
G01 X97.9824 Y56.6397 
G01 X98.0091 Y56.6507 
G01 X98.0318 Y56.6682 
G01 X98.0565 Y56.6824 
G01 X98.0768 Y56.7028 
G01 X98.0997 Y56.7203 
G01 X98.1171 Y56.7431 
G01 X98.1374 Y56.7633 
G01 X98.1516 Y56.7881 
G01 X98.1693 Y56.8110 
G01 X98.1803 Y56.8377 
G01 X98.1945 Y56.8622 
G01 X98.2019 Y56.8900 
G01 X98.2130 Y56.9167 
G01 X98.2166 Y56.9450 
G01 X98.2241 Y56.9726 
G00 Z0.5080 
G00 X11.7373 Y75.6547 
G01 Z-0.2540 F254.00 
G01 X11.7617 Y75.7002 
G01 X11.7642 Y75.7044 
G01 X11.8561 Y75.7793 
G01 X11.8756 Y75.7905 
G01 X11.9005 Y75.8155 
G01 X11.9275 Y75.8374 
G01 X11.9406 Y75.8555 
G01 X13.0156 Y76.9305 
G01 X13.3233 Y77.0580 
G01 X13.3511 Y77.0654 
G01 X13.3759 Y77.0798 
G01 X13.4024 Y77.0907 
G01 X13.4251 Y77.1082 
G01 X13.4500 Y77.1225 
G01 X13.4703 Y77.1428 
G01 X13.4931 Y77.1603 
G01 X13.5106 Y77.1831 
G01 X13.5309 Y77.2034 
G01 X13.5452 Y77.2283 
G01 X13.5627 Y77.2510 
G01 X13.5736 Y77.2774 
G01 X13.5880 Y77.3023 
G01 X13.5955 Y77.3303 
G01 X13.6064 Y77.3566 
G01 X13.6101 Y77.3848 
G01 X13.6176 Y77.4127 
G01 X13.6176 Y77.4418 
G01 X13.6213 Y77.4700 
G01 X13.6176 Y77.4981 
G01 X13.6176 Y77.5272 
G01 X13.6101 Y77.5551 
G01 X13.6064 Y77.5833 
G01 X13.5955 Y77.6096 
G01 X13.5880 Y77.6376 
G01 X13.5736 Y77.6625 
G01 X13.5627 Y77.6889 
G01 X13.5452 Y77.7116 
G01 X13.5309 Y77.7365 
G01 X13.5106 Y77.7568 
G01 X13.4931 Y77.7796 
G01 X13.4703 Y77.7971 
G01 X13.4500 Y77.8174 
G01 X13.4251 Y77.8317 
G01 X13.4024 Y77.8492 
G01 X13.3760 Y77.8601 
G01 X13.3511 Y77.8745 
G01 X13.3231 Y77.8820 
G01 X13.2968 Y77.8929 
G01 X13.2686 Y77.8966 
G01 X13.2407 Y77.9041 
G01 X13.2116 Y77.9041 
G01 X13.1835 Y77.9078 
G01 X13.1553 Y77.9041 
G01 X8.8327 Y77.9041 
G01 X8.7223 Y77.8745 
G01 X8.6234 Y77.8174 
G01 X8.5425 Y77.7365 
G01 X8.4854 Y77.6376 
G01 X8.4558 Y77.5272 
G01 X8.4558 Y77.4127 
G01 X8.4558 Y63.9976 
G01 X8.4547 Y63.9452 
G01 X8.4558 Y63.9407 
G01 X8.4558 Y63.9357 
G01 X8.4695 Y63.8848 
G01 X8.4818 Y63.8342 
G01 X8.4842 Y63.8299 
G01 X8.4854 Y63.8253 
G01 X8.5115 Y63.7801 
G01 X8.5368 Y63.7340 
G01 X8.5401 Y63.7306 
G01 X8.5425 Y63.7264 
G01 X8.5798 Y63.6892 
G01 X8.6159 Y63.6514 
G01 X8.6200 Y63.6490 
G01 X8.6234 Y63.6455 
G01 X8.6690 Y63.6192 
G01 X8.7136 Y63.5921 
G01 X8.7183 Y63.5908 
G01 X8.7223 Y63.5884 
G01 X8.7717 Y63.5752 
G01 X8.8233 Y63.5601 
G01 X8.8283 Y63.5600 
G01 X8.8327 Y63.5588 
G01 X8.8853 Y63.5588 
G01 X8.9377 Y63.5577 
G01 X8.9422 Y63.5588 
G01 X8.9472 Y63.5588 
G01 X8.9981 Y63.5725 
G01 X9.0487 Y63.5848 
G01 X9.0530 Y63.5872 
G01 X9.0576 Y63.5884 
G01 X9.1028 Y63.6145 
G01 X9.1489 Y63.6398 
G01 X9.1523 Y63.6431 
G01 X9.1565 Y63.6455 
G01 X9.1937 Y63.6828 
G01 X9.2315 Y63.7189 
G01 X9.2339 Y63.7230 
G01 X9.2374 Y63.7264 
G01 X9.2579 Y63.7619 
G01 X10.1402 Y64.5860 
G01 X10.2762 Y64.6565 
G01 X10.3124 Y64.6714 
G01 X10.3275 Y64.6830 
G01 X10.3439 Y64.6915 
G01 X10.3723 Y64.7175 
G01 X10.4030 Y64.7410 
G01 X10.4143 Y64.7558 
G01 X10.4283 Y64.7685 
G01 X10.4493 Y64.8014 
G01 X10.4726 Y64.8317 
G01 X10.4797 Y64.8489 
G01 X10.4899 Y64.8648 
G01 X10.5017 Y64.9022 
G01 X10.5163 Y64.9373 
G01 X10.5187 Y64.9556 
G01 X10.5245 Y64.9738 
G01 X10.5262 Y65.0130 
G01 X10.5312 Y65.0506 
G01 X10.5287 Y65.0692 
G01 X10.5296 Y65.0881 
G01 X10.5213 Y65.1257 
G01 X10.5163 Y65.1641 
G01 X10.5091 Y65.1814 
G01 X10.5051 Y65.1997 
G01 X10.4874 Y65.2338 
G01 X10.2893 Y65.7120 
G01 X10.2893 Y66.3679 
G01 X10.5402 Y66.9736 
G01 X10.6070 Y67.0405 
G01 X10.6097 Y67.0431 
G01 X10.6099 Y67.0433 
G01 X10.6573 Y67.1255 
G01 X10.6669 Y67.1420 
G01 X10.6669 Y67.1421 
G01 X10.6670 Y67.1422 
G01 X10.6803 Y67.1920 
G01 X10.6966 Y67.2524 
G01 X10.6966 Y67.3668 
G01 X10.6966 Y67.3671 
G01 X10.6732 Y67.4543 
G01 X10.6671 Y67.4772 
G01 X10.6670 Y67.4772 
G01 X10.6670 Y67.4775 
G01 X10.6315 Y67.5389 
G01 X10.6100 Y67.5763 
G01 X10.5402 Y67.6460 
G01 X10.2893 Y68.2519 
G01 X10.2893 Y68.9079 
G01 X10.5402 Y69.5136 
G01 X10.6070 Y69.5805 
G01 X10.6097 Y69.5831 
G01 X10.6099 Y69.5833 
G01 X10.6573 Y69.6655 
G01 X10.6669 Y69.6820 
G01 X10.6669 Y69.6821 
G01 X10.6670 Y69.6822 
G01 X10.6803 Y69.7320 
G01 X10.6966 Y69.7924 
G01 X10.6966 Y69.9068 
G01 X10.6966 Y69.9071 
G01 X10.6732 Y69.9943 
G01 X10.6671 Y70.0172 
G01 X10.6670 Y70.0172 
G01 X10.6670 Y70.0175 
G01 X10.6315 Y70.0789 
G01 X10.6100 Y70.1163 
G01 X10.5402 Y70.1860 
G01 X10.2893 Y70.7919 
G01 X10.2893 Y71.4479 
G01 X10.5402 Y72.0538 
G01 X10.7966 Y72.3101 
G01 X10.8537 Y72.4090 
G01 X10.8833 Y72.5194 
G01 X10.8833 Y72.6339 
G01 X10.8833 Y74.7362 
G01 X11.0183 Y75.0622 
G01 X11.2676 Y75.3115 
G01 X11.3813 Y75.3586 
G01 X11.4096 Y75.3661 
G01 X11.4348 Y75.3807 
G01 X11.4607 Y75.3914 
G01 X11.4831 Y75.4086 
G01 X11.5086 Y75.4233 
G01 X11.5290 Y75.4438 
G01 X11.5514 Y75.4609 
G01 X11.5687 Y75.4835 
G01 X11.6535 Y75.5684 
G01 X11.6588 Y75.5716 
G01 X11.6940 Y75.6090 
G01 X11.7298 Y75.6447 
G01 X11.7328 Y75.6500 
G01 X11.7373 Y75.6547 
G00 Z0.5080 
G00 X83.3364 Y77.9078 
G01 Z-0.2540 F254.00 
G01 X83.3082 Y77.9041 
G01 X83.2791 Y77.9041 
G01 X83.2512 Y77.8966 
G01 X83.2230 Y77.8929 
G01 X83.1967 Y77.8820 
G01 X83.1687 Y77.8745 
G01 X83.1438 Y77.8601 
G01 X83.1174 Y77.8492 
G01 X83.0947 Y77.8317 
G01 X83.0698 Y77.8174 
G01 X83.0495 Y77.7971 
G01 X83.0267 Y77.7796 
G01 X83.0092 Y77.7568 
G01 X82.9889 Y77.7365 
G01 X82.9746 Y77.7116 
G01 X82.9571 Y77.6889 
G01 X82.9462 Y77.6625 
G01 X82.9318 Y77.6376 
G01 X82.9243 Y77.6096 
G01 X82.9134 Y77.5833 
G01 X82.9097 Y77.5551 
G01 X82.9022 Y77.5272 
G01 X82.9022 Y77.4981 
G01 X82.8985 Y77.4700 
G01 X82.9022 Y77.4418 
G01 X82.9022 Y77.4127 
G01 X82.9097 Y77.3848 
G01 X82.9134 Y77.3566 
G01 X82.9243 Y77.3303 
G01 X82.9318 Y77.3023 
G01 X82.9462 Y77.2774 
G01 X82.9571 Y77.2510 
G01 X82.9746 Y77.2283 
G01 X82.9889 Y77.2034 
G01 X83.0092 Y77.1831 
G01 X83.0267 Y77.1603 
G01 X83.0495 Y77.1428 
G01 X83.0698 Y77.1225 
G01 X83.0947 Y77.1082 
G01 X83.1174 Y77.0907 
G01 X83.1439 Y77.0798 
G01 X83.1687 Y77.0654 
G01 X83.1965 Y77.0580 
G01 X83.5042 Y76.9306 
G01 X84.0419 Y76.3927 
G01 X84.0595 Y76.3698 
G01 X84.0823 Y76.3523 
G01 X84.1025 Y76.3321 
G01 X84.1273 Y76.3178 
G01 X84.1502 Y76.3002 
G01 X84.1767 Y76.2893 
G01 X84.2015 Y76.2749 
G01 X84.2295 Y76.2674 
G01 X84.2558 Y76.2565 
G01 X84.2840 Y76.2528 
G01 X84.3119 Y76.2453 
G01 X84.3410 Y76.2453 
G01 X84.3691 Y76.2416 
G01 X84.3973 Y76.2453 
G01 X84.4263 Y76.2453 
G01 X84.4541 Y76.2528 
G01 X84.4826 Y76.2565 
G01 X84.5093 Y76.2676 
G01 X84.5367 Y76.2749 
G01 X84.5611 Y76.2890 
G01 X84.5882 Y76.3002 
G01 X84.6112 Y76.3179 
G01 X84.6357 Y76.3320 
G01 X84.6559 Y76.3523 
G01 X84.6788 Y76.3698 
G01 X84.6963 Y76.3926 
G01 X84.7165 Y76.4128 
G01 X84.7308 Y76.4376 
G01 X84.7484 Y76.4605 
G01 X84.7594 Y76.4870 
G01 X84.7737 Y76.5118 
G01 X84.7811 Y76.5397 
G01 X84.9115 Y76.8544 
G01 X85.1796 Y77.1225 
G01 X85.2605 Y77.2034 
G01 X85.3176 Y77.3023 
G01 X85.3472 Y77.4127 
G01 X85.3472 Y77.5272 
G01 X85.3176 Y77.6376 
G01 X85.2605 Y77.7365 
G01 X85.1796 Y77.8174 
G01 X85.0807 Y77.8745 
G01 X84.9703 Y77.9041 
G01 X83.3645 Y77.9041 
G01 X83.3364 Y77.9078 
G00 Z0.5080 
G00 X85.9811 Y69.7507 
G01 Z-0.2540 F254.00 
G01 X85.3753 Y70.0016 
G01 X85.2284 Y70.1485 
G01 X85.2284 Y70.1486 
G01 X85.1527 Y70.2242 
G01 X85.1476 Y70.2294 
G01 X85.1475 Y70.2295 
G01 X85.0515 Y70.2849 
G01 X85.0486 Y70.2866 
G01 X84.9382 Y70.3162 
G01 X84.8238 Y70.3162 
G01 X84.8237 Y70.3162 
G01 X84.7955 Y70.3086 
G01 X84.7134 Y70.2867 
G01 X84.6144 Y70.2295 
G01 X84.5336 Y70.1487 
G01 X83.5805 Y69.1956 
G01 X83.2248 Y68.8399 
G01 X82.9042 Y68.7071 
G01 X82.9041 Y68.7071 
G01 X82.7985 Y68.6634 
G01 X82.7096 Y68.5950 
G01 X82.7079 Y68.5938 
G01 X82.6383 Y68.5031 
G01 X82.5946 Y68.3975 
G01 X82.5797 Y68.2842 
G01 X82.5810 Y68.2746 
G01 X82.5946 Y68.1707 
G01 X82.6697 Y67.9894 
G01 X82.6697 Y66.6303 
G01 X82.5783 Y66.4098 
G01 X82.5639 Y66.3849 
G01 X82.5565 Y66.3571 
G01 X82.5455 Y66.3307 
G01 X82.5418 Y66.3023 
G01 X82.5343 Y66.2745 
G01 X82.5343 Y66.2455 
G01 X82.5306 Y66.2174 
G01 X82.5343 Y66.1892 
G01 X82.5343 Y66.1600 
G01 X82.5418 Y66.1320 
G01 X82.5455 Y66.1040 
G01 X82.5564 Y66.0779 
G01 X82.5639 Y66.0496 
G01 X82.5784 Y66.0245 
G01 X82.5892 Y65.9984 
G01 X82.6065 Y65.9759 
G01 X82.6210 Y65.9507 
G01 X82.6413 Y65.9304 
G01 X82.6587 Y65.9077 
G01 X82.6815 Y65.8902 
G01 X82.7019 Y65.8698 
G01 X82.7269 Y65.8554 
G01 X82.7494 Y65.8381 
G01 X82.7757 Y65.8272 
G01 X82.8008 Y65.8127 
G01 X82.8287 Y65.8053 
G01 X82.8550 Y65.7943 
G01 X82.8834 Y65.7906 
G01 X82.9112 Y65.7831 
G01 X82.9402 Y65.7831 
G01 X82.9684 Y65.7794 
G01 X82.9965 Y65.7831 
G01 X83.0257 Y65.7831 
G01 X83.0537 Y65.7906 
G01 X83.0817 Y65.7943 
G01 X83.1078 Y65.8052 
G01 X83.1361 Y65.8127 
G01 X83.1612 Y65.8272 
G01 X83.1873 Y65.8380 
G01 X83.2098 Y65.8553 
G01 X83.2350 Y65.8698 
G01 X83.2553 Y65.8901 
G01 X83.2780 Y65.9075 
G01 X83.2955 Y65.9303 
G01 X86.4152 Y69.0500 
G01 X86.4723 Y69.1489 
G01 X86.5019 Y69.2593 
G01 X86.5019 Y69.3738 
G01 X86.4723 Y69.4842 
G01 X86.4152 Y69.5831 
G01 X86.3343 Y69.6640 
G01 X86.2354 Y69.7211 
G01 X86.1250 Y69.7507 
G01 X86.0105 Y69.7507 
G01 X85.9811 Y69.7507 
G00 Z0.5080 
G00 X94.4001 Y52.4486 
G01 Z-0.2540 F254.00 
G01 X96.0998 Y52.4486 
G01 X96.2720 Y52.4829 
G01 X96.4342 Y52.5500 
G01 X96.5802 Y52.6476 
G01 X96.7043 Y52.7717 
G01 X96.8019 Y52.9177 
G01 X96.8690 Y53.0799 
G01 X96.9033 Y53.2521 
G01 X96.9033 Y53.4278 
G01 X96.8690 Y53.6000 
G01 X96.8019 Y53.7622 
G01 X96.7043 Y53.9082 
G01 X96.5802 Y54.0323 
G01 X96.4342 Y54.1299 
G01 X96.2720 Y54.1970 
G01 X96.0998 Y54.2313 
G01 X94.4001 Y54.2313 
G01 X94.2279 Y54.1970 
G01 X94.0657 Y54.1299 
G01 X93.9197 Y54.0323 
G01 X93.7956 Y53.9082 
G01 X93.7060 Y53.7741 
G01 X91.6198 Y53.7741 
G01 X89.1665 Y56.2274 
G01 X89.0676 Y56.2845 
G01 X88.9572 Y56.3141 
G01 X88.8427 Y56.3141 
G01 X76.3798 Y56.3141 
G01 X75.3641 Y57.3298 
G01 X75.3641 Y58.4772 
G01 X75.3345 Y58.5876 
G01 X75.2774 Y58.6865 
G01 X75.1965 Y58.7674 
G01 X74.5615 Y59.4024 
G01 X74.4626 Y59.4595 
G01 X74.3522 Y59.4891 
G01 X74.2377 Y59.4891 
G01 X72.9515 Y59.4891 
G01 X72.9458 Y59.4948 
G01 X72.8983 Y59.5145 
G01 X70.8148 Y59.5145 
G01 X70.7673 Y59.4948 
G01 X70.7309 Y59.4584 
G01 X70.7112 Y59.4109 
G01 X70.7112 Y58.6990 
G01 X70.7309 Y58.6515 
G01 X70.7673 Y58.6151 
G01 X70.8148 Y58.5954 
G01 X72.8983 Y58.5954 
G01 X72.9458 Y58.6151 
G01 X72.9515 Y58.6208 
G01 X74.1151 Y58.6208 
G01 X74.4958 Y58.2401 
G01 X74.4958 Y57.2072 
G01 X74.4958 Y57.0927 
G01 X74.5254 Y56.9823 
G01 X74.5825 Y56.8834 
G01 X75.8525 Y55.6134 
G01 X75.9334 Y55.5325 
G01 X76.0323 Y55.4754 
G01 X76.1427 Y55.4458 
G01 X88.7201 Y55.4458 
G01 X91.0925 Y53.0734 
G01 X91.1734 Y52.9925 
G01 X91.2723 Y52.9354 
G01 X91.3827 Y52.9058 
G01 X93.7060 Y52.9058 
G01 X93.7956 Y52.7717 
G01 X93.9197 Y52.6476 
G01 X94.0657 Y52.5500 
G01 X94.2279 Y52.4829 
G01 X94.4001 Y52.4486 
G00 Z0.5080 
G00 X94.4001 Y71.4986 
G01 Z-0.2540 F254.00 
G01 X96.0998 Y71.4986 
G01 X96.2720 Y71.5329 
G01 X96.4342 Y71.6000 
G01 X96.5802 Y71.6976 
G01 X96.7043 Y71.8217 
G01 X96.8019 Y71.9677 
G01 X96.8690 Y72.1299 
G01 X96.9033 Y72.3021 
G01 X96.9033 Y72.4778 
G01 X96.8690 Y72.6500 
G01 X96.8019 Y72.8122 
G01 X96.7043 Y72.9582 
G01 X96.5802 Y73.0823 
G01 X96.4342 Y73.1799 
G01 X96.2720 Y73.2470 
G01 X96.0998 Y73.2813 
G01 X94.4001 Y73.2813 
G01 X94.2279 Y73.2470 
G01 X94.0657 Y73.1799 
G01 X93.9197 Y73.0823 
G01 X93.7956 Y72.9582 
G01 X93.6980 Y72.8122 
G01 X93.6344 Y72.6583 
G01 X93.6325 Y72.6565 
G01 X93.6325 Y72.6564 
G01 X84.2751 Y63.2991 
G01 X79.0983 Y63.2991 
G01 X79.0926 Y63.3048 
G01 X79.0451 Y63.3245 
G01 X76.9616 Y63.3245 
G01 X76.9141 Y63.3048 
G01 X76.8777 Y63.2684 
G01 X76.8580 Y63.2209 
G01 X76.8580 Y62.5090 
G01 X76.8777 Y62.4615 
G01 X76.9141 Y62.4251 
G01 X76.9616 Y62.4054 
G01 X79.0451 Y62.4054 
G01 X79.0926 Y62.4251 
G01 X79.0983 Y62.4308 
G01 X84.3977 Y62.4308 
G01 X84.5122 Y62.4308 
G01 X84.6226 Y62.4604 
G01 X84.7215 Y62.5175 
G01 X93.9106 Y71.7067 
G01 X93.9197 Y71.6976 
G01 X94.0657 Y71.6000 
G01 X94.2279 Y71.5329 
G01 X94.4001 Y71.4986 
G00 Z0.5080 
G00 X94.4001 Y66.4186 
G01 Z-0.2540 F254.00 
G01 X96.0998 Y66.4186 
G01 X96.2720 Y66.4529 
G01 X96.4342 Y66.5200 
G01 X96.5802 Y66.6176 
G01 X96.7043 Y66.7417 
G01 X96.8019 Y66.8877 
G01 X96.8690 Y67.0499 
G01 X96.9033 Y67.2221 
G01 X96.9033 Y67.3978 
G01 X96.8690 Y67.5700 
G01 X96.8019 Y67.7322 
G01 X96.7043 Y67.8782 
G01 X96.5802 Y68.0023 
G01 X96.4342 Y68.0999 
G01 X96.2720 Y68.1670 
G01 X96.0998 Y68.2013 
G01 X94.4001 Y68.2013 
G01 X94.2279 Y68.1670 
G01 X94.0657 Y68.0999 
G01 X93.9197 Y68.0023 
G01 X93.7956 Y67.8782 
G01 X93.6980 Y67.7322 
G01 X93.6344 Y67.5783 
G01 X93.6325 Y67.5765 
G01 X86.8151 Y60.7591 
G01 X79.0983 Y60.7591 
G01 X79.0926 Y60.7648 
G01 X79.0451 Y60.7845 
G01 X76.9616 Y60.7845 
G01 X76.9141 Y60.7648 
G01 X76.8777 Y60.7284 
G01 X76.8580 Y60.6809 
G01 X76.8580 Y59.9690 
G01 X76.8777 Y59.9215 
G01 X76.9141 Y59.8851 
G01 X76.9616 Y59.8654 
G01 X79.0451 Y59.8654 
G01 X79.0926 Y59.8851 
G01 X79.0983 Y59.8908 
G01 X86.9377 Y59.8908 
G01 X87.0522 Y59.8908 
G01 X87.1626 Y59.9204 
G01 X87.2615 Y59.9775 
G01 X93.9107 Y66.6267 
G01 X93.9197 Y66.6176 
G01 X94.0657 Y66.5200 
G01 X94.2279 Y66.4529 
G01 X94.4001 Y66.4186 
G00 Z0.5080 
G00 X16.7542 Y64.9806 
G01 Z-0.2540 F254.00 
G01 X18.2253 Y64.9806 
G01 X19.4184 Y63.7875 
G01 X19.5173 Y63.7304 
G01 X19.6277 Y63.7008 
G01 X19.7422 Y63.7008 
G01 X23.7717 Y63.7008 
G01 X23.7773 Y63.6951 
G01 X23.8248 Y63.6754 
G01 X25.9083 Y63.6754 
G01 X25.9558 Y63.6951 
G01 X25.9922 Y63.7315 
G01 X26.0119 Y63.7790 
G01 X26.0119 Y64.4909 
G01 X25.9922 Y64.5384 
G01 X25.9558 Y64.5748 
G01 X25.9083 Y64.5945 
G01 X23.8248 Y64.5945 
G01 X23.7773 Y64.5748 
G01 X23.7717 Y64.5691 
G01 X19.8648 Y64.5691 
G01 X18.9093 Y65.5246 
G01 X18.9093 Y66.7357 
G01 X18.8896 Y66.7832 
G01 X18.8532 Y66.8196 
G01 X18.8057 Y66.8393 
G01 X16.7542 Y66.8393 
G01 X16.7067 Y66.8196 
G01 X16.6703 Y66.7832 
G01 X16.6506 Y66.7357 
G01 X16.6506 Y66.5132 
G01 X14.3155 Y68.8484 
G01 X14.2519 Y69.0022 
G01 X14.1543 Y69.1482 
G01 X14.0302 Y69.2723 
G01 X13.8842 Y69.3699 
G01 X13.7220 Y69.4370 
G01 X13.5498 Y69.4713 
G01 X11.8501 Y69.4713 
G01 X11.6779 Y69.4370 
G01 X11.5157 Y69.3699 
G01 X11.3697 Y69.2723 
G01 X11.2456 Y69.1482 
G01 X11.1480 Y69.0022 
G01 X11.0809 Y68.8400 
G01 X11.0466 Y68.6678 
G01 X11.0466 Y68.4921 
G01 X11.0809 Y68.3199 
G01 X11.1480 Y68.1577 
G01 X11.2456 Y68.0117 
G01 X11.3697 Y67.8876 
G01 X11.5157 Y67.7900 
G01 X11.6779 Y67.7229 
G01 X11.8501 Y67.6886 
G01 X13.5498 Y67.6886 
G01 X13.7220 Y67.7229 
G01 X13.8842 Y67.7900 
G01 X14.0302 Y67.8876 
G01 X14.0392 Y67.8967 
G01 X16.1625 Y65.7734 
G01 X16.2434 Y65.6925 
G01 X16.3423 Y65.6354 
G01 X16.4527 Y65.6058 
G01 X16.6506 Y65.6058 
G01 X16.6506 Y65.0842 
G01 X16.6703 Y65.0367 
G01 X16.7067 Y65.0003 
G01 X16.7542 Y64.9806 
G00 Z0.5080 
G00 X55.4093 Y72.6342 
G01 Z-0.2540 F254.00 
G01 X55.4093 Y73.2077 
G01 X55.4257 Y73.2171 
G01 X55.5066 Y73.2980 
G01 X55.5637 Y73.3969 
G01 X55.5933 Y73.5073 
G01 X55.5933 Y73.6218 
G01 X55.5933 Y73.8124 
G01 X55.5637 Y73.9228 
G01 X55.5066 Y74.0217 
G01 X55.4257 Y74.1026 
G01 X55.4093 Y74.1120 
G01 X55.4093 Y74.6857 
G01 X55.3896 Y74.7332 
G01 X55.3532 Y74.7696 
G01 X55.3057 Y74.7893 
G01 X53.6542 Y74.7893 
G01 X53.6067 Y74.7696 
G01 X53.5703 Y74.7332 
G01 X53.5506 Y74.6857 
G01 X53.5506 Y74.3696 
G01 X53.5257 Y74.4626 
G01 X53.4686 Y74.5615 
G01 X53.3877 Y74.6424 
G01 X53.2888 Y74.6995 
G01 X53.1784 Y74.7291 
G01 X53.0639 Y74.7291 
G01 X52.3014 Y74.7291 
G01 X52.1910 Y74.6995 
G01 X52.0921 Y74.6424 
G01 X52.0112 Y74.5615 
G01 X51.9541 Y74.4626 
G01 X51.9293 Y74.3699 
G01 X51.9293 Y74.6157 
G01 X51.9096 Y74.6632 
G01 X51.8732 Y74.6996 
G01 X51.8257 Y74.7193 
G01 X49.7742 Y74.7193 
G01 X49.7267 Y74.6996 
G01 X49.6903 Y74.6632 
G01 X49.6706 Y74.6157 
G01 X49.6706 Y74.3695 
G01 X49.6457 Y74.4626 
G01 X49.5886 Y74.5615 
G01 X49.5077 Y74.6424 
G01 X49.4088 Y74.6995 
G01 X49.2984 Y74.7291 
G01 X49.1839 Y74.7291 
G01 X48.4558 Y74.7291 
G01 X48.3454 Y74.6995 
G01 X48.2465 Y74.6424 
G01 X48.1656 Y74.5615 
G01 X48.1270 Y74.5228 
G01 X47.5211 Y74.2719 
G01 X45.3411 Y74.2719 
G01 X44.7354 Y74.5228 
G01 X44.6160 Y74.6423 
G01 X44.5170 Y74.6995 
G01 X44.4066 Y74.7291 
G01 X44.2922 Y74.7291 
G01 X41.9533 Y74.7291 
G01 X41.9532 Y74.7291 
G01 X41.8428 Y74.6995 
G01 X41.7438 Y74.6423 
G01 X41.6244 Y74.5228 
G01 X41.0187 Y74.2719 
G01 X38.8387 Y74.2719 
G01 X38.2329 Y74.5228 
G01 X38.1136 Y74.6423 
G01 X38.0146 Y74.6995 
G01 X37.9042 Y74.7291 
G01 X37.7898 Y74.7291 
G01 X37.0614 Y74.7291 
G01 X36.9510 Y74.6995 
G01 X36.8521 Y74.6424 
G01 X36.7712 Y74.5615 
G01 X36.7141 Y74.4626 
G01 X36.6893 Y74.3699 
G01 X36.6893 Y74.6157 
G01 X36.6696 Y74.6632 
G01 X36.6332 Y74.6996 
G01 X36.5857 Y74.7193 
G01 X34.5342 Y74.7193 
G01 X34.4867 Y74.6996 
G01 X34.4503 Y74.6632 
G01 X34.4306 Y74.6157 
G01 X34.4306 Y74.3695 
G01 X34.4057 Y74.4626 
G01 X34.3486 Y74.5615 
G01 X34.2677 Y74.6424 
G01 X34.1688 Y74.6995 
G01 X34.0584 Y74.7291 
G01 X33.9439 Y74.7291 
G01 X33.2514 Y74.7291 
G01 X33.1410 Y74.6995 
G01 X33.0421 Y74.6424 
G01 X32.9612 Y74.5615 
G01 X32.9041 Y74.4626 
G01 X32.8793 Y74.3697 
G01 X32.8793 Y74.6157 
G01 X32.8596 Y74.6632 
G01 X32.8232 Y74.6996 
G01 X32.7757 Y74.7193 
G01 X30.7242 Y74.7193 
G01 X30.6767 Y74.6996 
G01 X30.6403 Y74.6632 
G01 X30.6206 Y74.6157 
G01 X30.6206 Y74.3693 
G01 X30.5957 Y74.4626 
G01 X30.5386 Y74.5615 
G01 X30.4577 Y74.6424 
G01 X30.3588 Y74.6995 
G01 X30.2484 Y74.7291 
G01 X30.1339 Y74.7291 
G01 X28.1357 Y74.7291 
G01 X28.1356 Y74.7291 
G01 X28.0252 Y74.6995 
G01 X27.9262 Y74.6423 
G01 X27.8069 Y74.5228 
G01 X27.2011 Y74.2719 
G01 X25.0211 Y74.2719 
G01 X24.4154 Y74.5227 
G01 X24.2960 Y74.6423 
G01 X24.1970 Y74.6995 
G01 X24.0866 Y74.7291 
G01 X23.9722 Y74.7291 
G01 X21.6333 Y74.7291 
G01 X21.6332 Y74.7291 
G01 X21.5228 Y74.6995 
G01 X21.4238 Y74.6423 
G01 X21.3044 Y74.5228 
G01 X20.6987 Y74.2719 
G01 X18.5187 Y74.2719 
G01 X17.9130 Y74.5228 
G01 X17.7936 Y74.6423 
G01 X17.6946 Y74.6995 
G01 X17.5842 Y74.7291 
G01 X17.4698 Y74.7291 
G01 X16.6714 Y74.7291 
G01 X16.5610 Y74.6995 
G01 X16.4621 Y74.6424 
G01 X16.3812 Y74.5615 
G01 X16.3241 Y74.4626 
G01 X16.2993 Y74.3699 
G01 X16.2993 Y74.5857 
G01 X16.2796 Y74.6332 
G01 X16.2432 Y74.6696 
G01 X16.1957 Y74.6893 
G01 X14.5442 Y74.6893 
G01 X14.4967 Y74.6696 
G01 X14.4603 Y74.6332 
G01 X14.4406 Y74.5857 
G01 X14.4406 Y74.1121 
G01 X14.4241 Y74.1026 
G01 X14.3432 Y74.0217 
G01 X14.2861 Y73.9228 
G01 X14.2565 Y73.8124 
G01 X14.2565 Y73.6979 
G01 X14.2565 Y73.6218 
G01 X14.2565 Y73.5073 
G01 X14.2861 Y73.3969 
G01 X14.3432 Y73.2980 
G01 X14.4241 Y73.2171 
G01 X14.4406 Y73.2076 
G01 X14.4406 Y72.7342 
G01 X14.4603 Y72.6867 
G01 X14.4967 Y72.6503 
G01 X14.5442 Y72.6306 
G01 X14.8404 Y72.6306 
G01 X14.8404 Y72.2815 
G01 X14.8342 Y72.2584 
G01 X14.8342 Y72.2293 
G01 X14.8305 Y72.2012 
G01 X14.8342 Y72.1730 
G01 X14.8342 Y72.1439 
G01 X14.8417 Y72.1160 
G01 X14.8454 Y72.0877 
G01 X14.8564 Y72.0613 
G01 X14.8638 Y72.0335 
G01 X14.8782 Y72.0087 
G01 X15.1105 Y71.4478 
G01 X15.1105 Y70.7919 
G01 X14.8596 Y70.1860 
G01 X14.7899 Y70.1164 
G01 X14.7898 Y70.1163 
G01 X14.7696 Y70.0811 
G01 X14.7328 Y70.0175 
G01 X14.7328 Y70.0172 
G01 X14.7327 Y70.0172 
G01 X14.7273 Y69.9968 
G01 X14.7032 Y69.9071 
G01 X14.7032 Y69.7926 
G01 X14.7032 Y69.7924 
G01 X14.7188 Y69.7345 
G01 X14.7328 Y69.6822 
G01 X14.7329 Y69.6821 
G01 X14.7329 Y69.6820 
G01 X14.7411 Y69.6680 
G01 X14.7899 Y69.5833 
G01 X14.8596 Y69.5137 
G01 X14.9136 Y69.3833 
G01 X14.9210 Y69.3554 
G01 X14.9354 Y69.3305 
G01 X14.9463 Y69.3041 
G01 X14.9637 Y69.2815 
G01 X14.9781 Y69.2564 
G01 X14.9984 Y69.2361 
G01 X15.0158 Y69.2134 
G01 X15.0387 Y69.1959 
G01 X15.9676 Y68.2671 
G01 X15.9698 Y68.2659 
G01 X16.0665 Y68.2100 
G01 X16.1769 Y68.1804 
G01 X16.1770 Y68.1804 
G01 X16.2914 Y68.1804 
G01 X16.6506 Y68.1804 
G01 X16.6506 Y67.8842 
G01 X16.6703 Y67.8367 
G01 X16.7067 Y67.8003 
G01 X16.7542 Y67.7806 
G01 X17.3276 Y67.7806 
G01 X17.3371 Y67.7641 
G01 X17.4180 Y67.6832 
G01 X17.5169 Y67.6261 
G01 X17.6273 Y67.5965 
G01 X17.7418 Y67.5965 
G01 X17.9324 Y67.5965 
G01 X18.0428 Y67.6261 
G01 X18.1417 Y67.6832 
G01 X18.2226 Y67.7641 
G01 X18.2321 Y67.7806 
G01 X18.8057 Y67.7806 
G01 X18.8532 Y67.8003 
G01 X18.8896 Y67.8367 
G01 X18.9045 Y67.8729 
G01 X18.9045 Y67.8507 
G01 X18.9120 Y67.8229 
G01 X18.9157 Y67.7945 
G01 X18.9267 Y67.7682 
G01 X18.9341 Y67.7403 
G01 X18.9486 Y67.7152 
G01 X18.9595 Y67.6889 
G01 X18.9768 Y67.6664 
G01 X18.9912 Y67.6414 
G01 X19.0117 Y67.6210 
G01 X19.0291 Y67.5982 
G01 X19.0518 Y67.5809 
G01 X19.0721 Y67.5605 
G01 X19.0973 Y67.5460 
G01 X19.1198 Y67.5287 
G01 X19.1460 Y67.5179 
G01 X19.1710 Y67.5034 
G01 X19.1990 Y67.4959 
G01 X19.2822 Y67.4615 
G01 X19.5314 Y67.2123 
G01 X19.5562 Y67.1523 
G01 X19.5636 Y67.1246 
G01 X19.5778 Y67.1000 
G01 X19.5888 Y67.0734 
G01 X19.6064 Y67.0506 
G01 X19.6207 Y67.0257 
G01 X19.6410 Y67.0054 
G01 X19.6584 Y66.9827 
G01 X19.6812 Y66.9652 
G01 X19.7016 Y66.9448 
G01 X19.7264 Y66.9305 
G01 X19.7490 Y66.9131 
G01 X19.7756 Y66.9021 
G01 X19.8005 Y66.8877 
G01 X19.8282 Y66.8803 
G01 X19.8546 Y66.8693 
G01 X19.8831 Y66.8656 
G01 X19.9109 Y66.8581 
G01 X19.9399 Y66.8581 
G01 X19.9679 Y66.8544 
G01 X19.9962 Y66.8581 
G01 X20.0254 Y66.8581 
G01 X20.0530 Y66.8655 
G01 X20.0814 Y66.8692 
G01 X20.1081 Y66.8803 
G01 X20.1358 Y66.8877 
G01 X20.1604 Y66.9019 
G01 X20.1870 Y66.9129 
G01 X20.2098 Y66.9305 
G01 X20.2347 Y66.9448 
G01 X20.2550 Y66.9651 
G01 X20.2777 Y66.9825 
G01 X20.2952 Y67.0053 
G01 X20.3332 Y67.0433 
G01 X20.3903 Y67.1422 
G01 X20.4199 Y67.2526 
G01 X20.4199 Y67.3671 
G01 X20.3903 Y67.4775 
G01 X20.3372 Y67.5695 
G01 X20.2001 Y67.9004 
G01 X20.2001 Y69.3738 
G01 X20.1705 Y69.4842 
G01 X20.1134 Y69.5831 
G01 X20.0325 Y69.6640 
G01 X19.9336 Y69.7211 
G01 X19.8232 Y69.7507 
G01 X19.7087 Y69.7507 
G01 X19.2814 Y69.7507 
G01 X19.1710 Y69.7211 
G01 X19.0721 Y69.6640 
G01 X18.9912 Y69.5831 
G01 X18.9341 Y69.4842 
G01 X18.9093 Y69.3914 
G01 X18.9093 Y69.5357 
G01 X18.8896 Y69.5832 
G01 X18.8532 Y69.6196 
G01 X18.8057 Y69.6393 
G01 X17.3346 Y69.6393 
G01 X17.3287 Y69.6451 
G01 X17.3997 Y69.6641 
G01 X17.4987 Y69.7213 
G01 X17.5782 Y69.8010 
G01 X17.5794 Y69.8021 
G01 X17.5795 Y69.8022 
G01 X17.6200 Y69.8725 
G01 X17.6365 Y69.9010 
G01 X17.6365 Y69.9011 
G01 X17.6366 Y69.9012 
G01 X17.6499 Y69.9512 
G01 X17.6661 Y70.0114 
G01 X17.6661 Y70.1259 
G01 X17.6661 Y70.1260 
G01 X17.6365 Y70.2364 
G01 X17.5793 Y70.3354 
G01 X17.4490 Y70.4656 
G01 X17.1981 Y71.0713 
G01 X17.1981 Y71.7273 
G01 X17.4490 Y72.3332 
G01 X17.9128 Y72.7970 
G01 X18.5187 Y73.0479 
G01 X20.6987 Y73.0479 
G01 X21.3046 Y72.7970 
G01 X21.7684 Y72.3332 
G01 X22.0193 Y71.7273 
G01 X22.0193 Y71.0714 
G01 X21.8225 Y70.5963 
G01 X21.8081 Y70.5715 
G01 X21.8007 Y70.5437 
G01 X21.7897 Y70.5173 
G01 X21.7860 Y70.4889 
G01 X21.7785 Y70.4611 
G01 X21.7785 Y70.4321 
G01 X21.7748 Y70.4040 
G01 X21.7785 Y70.3758 
G01 X21.7785 Y70.3466 
G01 X21.7860 Y70.3186 
G01 X21.7897 Y70.2905 
G01 X21.8006 Y70.2642 
G01 X21.8081 Y70.2362 
G01 X21.8225 Y70.2114 
G01 X21.8334 Y70.1849 
G01 X21.8509 Y70.1622 
G01 X21.8652 Y70.1373 
G01 X21.8855 Y70.1170 
G01 X21.9030 Y70.0942 
G01 X21.9259 Y70.0767 
G01 X21.9461 Y70.0564 
G01 X21.9707 Y70.0422 
G01 X21.9936 Y70.0246 
G01 X22.0204 Y70.0136 
G01 X22.0450 Y69.9993 
G01 X22.0727 Y69.9919 
G01 X22.0992 Y69.9809 
G01 X22.1276 Y69.9772 
G01 X22.1554 Y69.9697 
G01 X22.1844 Y69.9697 
G01 X22.2125 Y69.9660 
G01 X22.2407 Y69.9697 
G01 X22.2694 Y69.9697 
G01 X22.4258 Y69.9049 
G01 X22.4258 Y69.7927 
G01 X22.4554 Y69.6823 
G01 X22.5125 Y69.5834 
G01 X22.5934 Y69.5025 
G01 X22.9797 Y69.1162 
G01 X22.9797 Y68.9976 
G01 X23.0093 Y68.8872 
G01 X23.0664 Y68.7883 
G01 X23.1473 Y68.7074 
G01 X23.3570 Y68.4978 
G01 X23.3571 Y68.4975 
G01 X23.4380 Y68.4166 
G01 X23.8762 Y67.9784 
G01 X23.9751 Y67.9213 
G01 X24.0855 Y67.8917 
G01 X24.2000 Y67.8917 
G01 X26.0588 Y67.8917 
G01 X26.3848 Y67.7567 
G01 X26.6341 Y67.5074 
G01 X26.7691 Y67.1814 
G01 X26.7691 Y66.1688 
G01 X26.7630 Y66.1542 
G01 X26.7630 Y66.1535 
G01 X26.7626 Y66.1528 
G01 X26.7548 Y66.0926 
G01 X26.7479 Y66.0409 
G01 X26.7480 Y66.0401 
G01 X26.7479 Y66.0394 
G01 X26.7549 Y65.9869 
G01 X26.7625 Y65.9275 
G01 X26.7628 Y65.9268 
G01 X26.7629 Y65.9260 
G01 X26.7691 Y65.9111 
G01 X26.7691 Y64.8988 
G01 X26.7630 Y64.8842 
G01 X26.7630 Y64.8835 
G01 X26.7626 Y64.8828 
G01 X26.7548 Y64.8226 
G01 X26.7479 Y64.7709 
G01 X26.7480 Y64.7701 
G01 X26.7479 Y64.7694 
G01 X26.7549 Y64.7169 
G01 X26.7625 Y64.6575 
G01 X26.7628 Y64.6568 
G01 X26.7629 Y64.6560 
G01 X26.7691 Y64.6411 
G01 X26.7691 Y63.6288 
G01 X26.7630 Y63.6142 
G01 X26.7630 Y63.6137 
G01 X26.7626 Y63.6128 
G01 X26.7533 Y63.5413 
G01 X26.7479 Y63.5009 
G01 X26.7480 Y63.5003 
G01 X26.7479 Y63.4994 
G01 X26.7564 Y63.4352 
G01 X26.7625 Y63.3875 
G01 X26.7628 Y63.3870 
G01 X26.7629 Y63.3860 
G01 X26.7691 Y63.3711 
G01 X26.7691 Y62.3588 
G01 X26.7630 Y62.3442 
G01 X26.7629 Y62.3435 
G01 X26.7626 Y62.3428 
G01 X26.7548 Y62.2826 
G01 X26.7479 Y62.2309 
G01 X26.7480 Y62.2301 
G01 X26.7479 Y62.2294 
G01 X26.7549 Y62.1769 
G01 X26.7625 Y62.1175 
G01 X26.7628 Y62.1168 
G01 X26.7629 Y62.1160 
G01 X26.7691 Y62.1011 
G01 X26.7691 Y61.0888 
G01 X26.7630 Y61.0742 
G01 X26.7629 Y61.0735 
G01 X26.7626 Y61.0728 
G01 X26.7548 Y61.0126 
G01 X26.7479 Y60.9609 
G01 X26.7480 Y60.9601 
G01 X26.7479 Y60.9594 
G01 X26.7549 Y60.9069 
G01 X26.7625 Y60.8475 
G01 X26.7628 Y60.8468 
G01 X26.7629 Y60.8460 
G01 X26.7691 Y60.8311 
G01 X26.7691 Y59.8188 
G01 X26.7630 Y59.8042 
G01 X26.7629 Y59.8035 
G01 X26.7626 Y59.8028 
G01 X26.7548 Y59.7426 
G01 X26.7479 Y59.6909 
G01 X26.7480 Y59.6901 
G01 X26.7479 Y59.6894 
G01 X26.7549 Y59.6369 
G01 X26.7625 Y59.5775 
G01 X26.7628 Y59.5768 
G01 X26.7629 Y59.5760 
G01 X26.7691 Y59.5611 
G01 X26.7691 Y58.5484 
G01 X26.6341 Y58.2224 
G01 X26.6307 Y58.2191 
G01 X25.9615 Y58.2191 
G01 X25.9558 Y58.2248 
G01 X25.9083 Y58.2445 
G01 X23.8248 Y58.2445 
G01 X23.7773 Y58.2248 
G01 X23.7716 Y58.2191 
G01 X23.1022 Y58.2191 
G01 X23.0989 Y58.2224 
G01 X22.9639 Y58.5484 
G01 X22.9639 Y59.5611 
G01 X22.9701 Y59.5760 
G01 X22.9702 Y59.5768 
G01 X22.9705 Y59.5775 
G01 X22.9780 Y59.6363 
G01 X22.9851 Y59.6894 
G01 X22.9850 Y59.6902 
G01 X22.9851 Y59.6909 
G01 X22.9782 Y59.7420 
G01 X22.9704 Y59.8028 
G01 X22.9700 Y59.8035 
G01 X22.9700 Y59.8042 
G01 X22.9639 Y59.8188 
G01 X22.9639 Y60.8311 
G01 X22.9701 Y60.8460 
G01 X22.9702 Y60.8468 
G01 X22.9705 Y60.8475 
G01 X22.9780 Y60.9063 
G01 X22.9851 Y60.9594 
G01 X22.9850 Y60.9602 
G01 X22.9851 Y60.9609 
G01 X22.9782 Y61.0120 
G01 X22.9704 Y61.0728 
G01 X22.9700 Y61.0735 
G01 X22.9700 Y61.0742 
G01 X22.9639 Y61.0888 
G01 X22.9639 Y61.2966 
G01 X22.9343 Y61.4070 
G01 X22.8772 Y61.5059 
G01 X22.7963 Y61.5868 
G01 X22.6974 Y61.6439 
G01 X22.5870 Y61.6735 
G01 X22.4725 Y61.6735 
G01 X21.3134 Y61.6735 
G01 X21.2030 Y61.6439 
G01 X21.1041 Y61.5868 
G01 X21.0232 Y61.5059 
G01 X20.9661 Y61.4070 
G01 X20.9365 Y61.2966 
G01 X20.9365 Y61.1821 
G01 X20.9365 Y60.1136 
G01 X20.8015 Y59.7876 
G01 X20.5522 Y59.5383 
G01 X20.4690 Y59.5039 
G01 X20.4410 Y59.4964 
G01 X20.4160 Y59.4819 
G01 X20.3898 Y59.4711 
G01 X20.3673 Y59.4538 
G01 X20.3421 Y59.4393 
G01 X20.3218 Y59.4189 
G01 X20.2991 Y59.4016 
G01 X20.2817 Y59.3788 
G01 X20.2612 Y59.3584 
G01 X20.2468 Y59.3334 
G01 X20.2295 Y59.3109 
G01 X20.2186 Y59.2845 
G01 X20.2041 Y59.2595 
G01 X20.1967 Y59.2316 
G01 X20.1857 Y59.2053 
G01 X20.1820 Y59.1769 
G01 X20.1745 Y59.1491 
G01 X20.1745 Y59.1270 
G01 X20.1596 Y59.1632 
G01 X20.1232 Y59.1996 
G01 X20.0757 Y59.2193 
G01 X19.5020 Y59.2193 
G01 X19.4926 Y59.2357 
G01 X19.4117 Y59.3166 
G01 X19.3128 Y59.3737 
G01 X19.2024 Y59.4033 
G01 X19.0879 Y59.4033 
G01 X18.8973 Y59.4033 
G01 X18.7869 Y59.3737 
G01 X18.6880 Y59.3166 
G01 X18.6071 Y59.2357 
G01 X18.5977 Y59.2193 
G01 X18.0242 Y59.2193 
G01 X17.9767 Y59.1996 
G01 X17.9403 Y59.1632 
G01 X17.9253 Y59.1268 
G01 X17.9253 Y59.1491 
G01 X17.9178 Y59.1769 
G01 X17.9141 Y59.2053 
G01 X17.9031 Y59.2316 
G01 X17.8957 Y59.2595 
G01 X17.8812 Y59.2846 
G01 X17.8703 Y59.3109 
G01 X17.8530 Y59.3334 
G01 X17.8386 Y59.3584 
G01 X17.8181 Y59.3788 
G01 X17.8007 Y59.4016 
G01 X17.7780 Y59.4189 
G01 X17.7577 Y59.4393 
G01 X17.7325 Y59.4538 
G01 X17.7100 Y59.4711 
G01 X17.6838 Y59.4819 
G01 X17.6588 Y59.4964 
G01 X17.6308 Y59.5039 
G01 X17.5501 Y59.5373 
G01 X17.5388 Y59.5526 
G01 X17.5133 Y59.5728 
G01 X17.4907 Y59.5955 
G01 X17.4690 Y59.6080 
G01 X17.4493 Y59.6237 
G01 X17.4195 Y59.6366 
G01 X17.3917 Y59.6527 
G01 X17.3675 Y59.6592 
G01 X17.3445 Y59.6692 
G01 X17.3127 Y59.6739 
G01 X17.2813 Y59.6824 
G01 X17.2561 Y59.6824 
G01 X17.2314 Y59.6861 
G01 X17.1990 Y59.6824 
G01 X17.1669 Y59.6824 
G01 X17.1429 Y59.6759 
G01 X17.1177 Y59.6731 
G01 X17.0875 Y59.6611 
G01 X17.0565 Y59.6529 
G01 X17.0351 Y59.6405 
G01 X17.0114 Y59.6312 
G01 X16.9850 Y59.6116 
G01 X16.9575 Y59.5958 
G01 X16.9401 Y59.5784 
G01 X16.9195 Y59.5632 
G01 X16.8992 Y59.5376 
G01 X16.8766 Y59.5151 
G01 X16.8641 Y59.4934 
G01 X16.8484 Y59.4737 
G01 X16.8355 Y59.4438 
G01 X16.8194 Y59.4161 
G01 X16.8130 Y59.3920 
G01 X16.4922 Y58.6536 
G01 X15.7294 Y57.7160 
G01 X14.7421 Y57.0191 
G01 X13.6030 Y56.6142 
G01 X12.3970 Y56.5317 
G01 X11.2135 Y56.7776 
G01 X10.1401 Y57.3338 
G01 X9.2578 Y58.1580 
G01 X9.2374 Y58.1934 
G01 X9.2340 Y58.1968 
G01 X9.2315 Y58.2009 
G01 X9.1937 Y58.2371 
G01 X9.1565 Y58.2743 
G01 X9.1523 Y58.2767 
G01 X9.1489 Y58.2800 
G01 X9.1027 Y58.3053 
G01 X9.0576 Y58.3314 
G01 X9.0530 Y58.3326 
G01 X9.0487 Y58.3350 
G01 X8.9980 Y58.3474 
G01 X8.9472 Y58.3610 
G01 X8.9422 Y58.3610 
G01 X8.9377 Y58.3621 
G01 X8.8852 Y58.3610 
G01 X8.8327 Y58.3610 
G01 X8.8283 Y58.3598 
G01 X8.8233 Y58.3597 
G01 X8.7716 Y58.3446 
G01 X8.7223 Y58.3314 
G01 X8.7183 Y58.3290 
G01 X8.7136 Y58.3277 
G01 X8.6689 Y58.3005 
G01 X8.6234 Y58.2743 
G01 X8.6200 Y58.2709 
G01 X8.6159 Y58.2684 
G01 X8.5797 Y58.2306 
G01 X8.5425 Y58.1934 
G01 X8.5401 Y58.1892 
G01 X8.5368 Y58.1858 
G01 X8.5115 Y58.1396 
G01 X8.4854 Y58.0945 
G01 X8.4842 Y58.0899 
G01 X8.4818 Y58.0856 
G01 X8.4694 Y58.0349 
G01 X8.4558 Y57.9841 
G01 X8.4558 Y57.9791 
G01 X8.4547 Y57.9746 
G01 X8.4558 Y57.9221 
G01 X8.4558 Y52.0127 
G01 X8.4854 Y51.9023 
G01 X8.5425 Y51.8034 
G01 X8.6234 Y51.7225 
G01 X8.7223 Y51.6654 
G01 X8.8327 Y51.6358 
G01 X8.9472 Y51.6358 
G01 X24.2223 Y51.6358 
G01 X24.2511 Y51.6321 
G01 X24.2788 Y51.6358 
G01 X24.3072 Y51.6358 
G01 X24.3352 Y51.6433 
G01 X24.3643 Y51.6472 
G01 X24.3905 Y51.6582 
G01 X24.4176 Y51.6654 
G01 X24.4427 Y51.6799 
G01 X24.4698 Y51.6912 
G01 X24.4922 Y51.7085 
G01 X24.5165 Y51.7225 
G01 X24.5369 Y51.7429 
G01 X24.5604 Y51.7610 
G01 X24.5777 Y51.7837 
G01 X24.5974 Y51.8034 
G01 X24.6120 Y51.8287 
G01 X24.6297 Y51.8519 
G01 X24.6403 Y51.8779 
G01 X24.6545 Y51.9023 
G01 X24.6621 Y51.9306 
G01 X24.6732 Y51.9576 
G01 X24.6768 Y51.9854 
G01 X24.6841 Y52.0127 
G01 X24.6841 Y52.0423 
G01 X24.6878 Y52.0711 
G01 X24.6841 Y52.0988 
G01 X24.6841 Y52.1272 
G01 X24.6766 Y52.1552 
G01 X24.6727 Y52.1843 
G01 X24.6617 Y52.2105 
G01 X24.6545 Y52.2376 
G01 X24.6400 Y52.2627 
G01 X24.6287 Y52.2898 
G01 X24.6114 Y52.3122 
G01 X24.5974 Y52.3365 
G01 X24.5770 Y52.3569 
G01 X24.5589 Y52.3804 
G01 X24.5362 Y52.3977 
G01 X24.5165 Y52.4174 
G01 X24.4912 Y52.4320 
G01 X24.4680 Y52.4497 
G01 X24.4656 Y52.4507 
G01 X24.0023 Y52.9139 
G01 X23.9839 Y52.9619 
G01 X23.9806 Y52.9664 
G01 X23.9785 Y52.9715 
G01 X23.9471 Y53.0123 
G01 X23.9166 Y53.0543 
G01 X23.9123 Y53.0578 
G01 X23.9089 Y53.0622 
G01 X23.8684 Y53.0932 
G01 X23.8277 Y53.1262 
G01 X23.8224 Y53.1285 
G01 X23.8182 Y53.1318 
G01 X23.7724 Y53.1507 
G01 X23.7232 Y53.1726 
G01 X23.7174 Y53.1735 
G01 X23.7126 Y53.1755 
G01 X23.6635 Y53.1819 
G01 X23.6103 Y53.1903 
G01 X23.6046 Y53.1897 
G01 X23.5993 Y53.1904 
G01 X23.5486 Y53.1837 
G01 X23.4965 Y53.1782 
G01 X23.4914 Y53.1762 
G01 X23.4859 Y53.1755 
G01 X23.4388 Y53.1560 
G01 X23.4150 Y53.1468 
G01 X23.4282 Y53.1556 
G01 X23.5523 Y53.2797 
G01 X23.6499 Y53.4257 
G01 X23.7170 Y53.5879 
G01 X23.7513 Y53.7601 
G01 X23.7513 Y55.4598 
G01 X23.7170 Y55.6320 
G01 X23.6499 Y55.7942 
G01 X23.5523 Y55.9402 
G01 X23.4282 Y56.0643 
G01 X23.4153 Y56.0729 
G01 X23.4388 Y56.0638 
G01 X23.4859 Y56.0443 
G01 X23.4914 Y56.0436 
G01 X23.4965 Y56.0416 
G01 X23.5486 Y56.0361 
G01 X23.5993 Y56.0294 
G01 X23.6046 Y56.0301 
G01 X23.6103 Y56.0295 
G01 X23.6636 Y56.0379 
G01 X23.7126 Y56.0443 
G01 X23.7174 Y56.0463 
G01 X23.7232 Y56.0472 
G01 X23.7724 Y56.0691 
G01 X23.8182 Y56.0880 
G01 X23.8224 Y56.0913 
G01 X23.8277 Y56.0936 
G01 X23.8685 Y56.1267 
G01 X23.9089 Y56.1576 
G01 X23.9122 Y56.1620 
G01 X23.9166 Y56.1655 
G01 X23.9472 Y56.2076 
G01 X23.9785 Y56.2483 
G01 X23.9806 Y56.2534 
G01 X23.9839 Y56.2579 
G01 X24.0023 Y56.3058 
G01 X24.2450 Y56.5485 
G01 X24.2451 Y56.5485 
G01 X24.3192 Y56.6227 
G01 X24.3259 Y56.6293 
G01 X24.3260 Y56.6294 
G01 X24.3814 Y56.7254 
G01 X24.3831 Y56.7283 
G01 X24.4127 Y56.8387 
G01 X24.4127 Y56.9531 
G01 X24.4127 Y56.9532 
G01 X24.3831 Y57.0636 
G01 X24.3272 Y57.1603 
G01 X24.3260 Y57.1625 
G01 X24.2452 Y57.2433 
G01 X24.2451 Y57.2434 
G01 X24.1491 Y57.2988 
G01 X24.1462 Y57.3005 
G01 X24.0531 Y57.3254 
G01 X25.9083 Y57.3254 
G01 X25.9558 Y57.3451 
G01 X25.9615 Y57.3508 
G01 X25.9759 Y57.3508 
G01 X25.9670 Y57.3295 
G01 X25.9633 Y57.3014 
G01 X25.9559 Y57.2739 
G01 X25.9559 Y57.2446 
G01 X25.9521 Y57.2162 
G01 X25.9558 Y57.1884 
G01 X25.9557 Y57.1595 
G01 X25.9633 Y57.1312 
G01 X25.9670 Y57.1027 
G01 X25.9779 Y57.0764 
G01 X25.9852 Y57.0490 
G01 X25.9995 Y57.0242 
G01 X26.0107 Y56.9971 
G01 X26.0282 Y56.9744 
G01 X26.0422 Y56.9500 
G01 X26.0626 Y56.9296 
G01 X26.0803 Y56.9065 
G01 X26.1029 Y56.8892 
G01 X26.1229 Y56.8691 
G01 X26.1479 Y56.8547 
G01 X26.1710 Y56.8369 
G01 X26.1975 Y56.8260 
G01 X26.2219 Y56.8118 
G01 X26.2498 Y56.8043 
G01 X26.3338 Y56.7695 
G01 X26.7975 Y56.3058 
G01 X26.8088 Y56.2787 
G01 X26.8162 Y56.2508 
G01 X26.8306 Y56.2260 
G01 X26.8415 Y56.1995 
G01 X26.8591 Y56.1766 
G01 X26.8734 Y56.1518 
G01 X26.8936 Y56.1316 
G01 X26.9111 Y56.1088 
G01 X26.9340 Y56.0913 
G01 X26.9542 Y56.0710 
G01 X26.9787 Y56.0569 
G01 X27.0017 Y56.0392 
G01 X27.0288 Y56.0280 
G01 X27.0532 Y56.0139 
G01 X27.0806 Y56.0066 
G01 X27.1073 Y55.9955 
G01 X27.1358 Y55.9918 
G01 X27.1636 Y55.9843 
G01 X27.1926 Y55.9843 
G01 X27.2208 Y55.9806 
G01 X27.2489 Y55.9843 
G01 X27.2780 Y55.9843 
G01 X27.3059 Y55.9918 
G01 X27.3341 Y55.9955 
G01 X27.3604 Y56.0064 
G01 X27.3884 Y56.0139 
G01 X27.4132 Y56.0283 
G01 X27.4397 Y56.0392 
G01 X27.4626 Y56.0568 
G01 X27.4874 Y56.0711 
G01 X27.5076 Y56.0913 
G01 X27.5304 Y56.1088 
G01 X27.5480 Y56.1318 
G01 X27.7777 Y56.3615 
G01 X28.1036 Y56.4965 
G01 X28.7566 Y56.4965 
G01 X28.7850 Y56.4928 
G01 X28.8131 Y56.4965 
G01 X28.8421 Y56.4965 
G01 X28.8699 Y56.5040 
G01 X28.8983 Y56.5077 
G01 X28.9246 Y56.5187 
G01 X28.9525 Y56.5261 
G01 X28.9776 Y56.5406 
G01 X29.0039 Y56.5515 
G01 X29.0264 Y56.5688 
G01 X29.0514 Y56.5832 
G01 X29.0718 Y56.6037 
G01 X29.0946 Y56.6211 
G01 X29.1119 Y56.6438 
G01 X29.1323 Y56.6641 
G01 X29.1468 Y56.6893 
G01 X29.1641 Y56.7118 
G01 X29.1749 Y56.7380 
G01 X29.1894 Y56.7630 
G01 X29.1968 Y56.7908 
G01 X29.2079 Y56.8174 
G01 X29.2116 Y56.8459 
G01 X29.2190 Y56.8734 
G01 X29.2190 Y56.9024 
G01 X29.2227 Y56.9308 
G01 X29.2190 Y56.9589 
G01 X29.2190 Y56.9879 
G01 X29.2115 Y57.0157 
G01 X29.2078 Y57.0441 
G01 X29.1968 Y57.0705 
G01 X29.1894 Y57.0983 
G01 X29.1749 Y57.1233 
G01 X29.1107 Y57.2783 
G01 X29.1107 Y58.2914 
G01 X29.2457 Y58.6173 
G01 X29.2492 Y58.6208 
G01 X29.9184 Y58.6208 
G01 X29.9241 Y58.6151 
G01 X29.9716 Y58.5954 
G01 X32.0551 Y58.5954 
G01 X32.1026 Y58.6151 
G01 X32.1083 Y58.6208 
G01 X37.1509 Y58.6208 
G01 X37.1747 Y58.5317 
G01 X37.2318 Y58.4328 
G01 X37.3127 Y58.3519 
G01 X37.3128 Y58.3519 
G01 X38.9716 Y56.6931 
G01 X38.9717 Y56.6929 
G01 X39.0526 Y56.6120 
G01 X39.1515 Y56.5549 
G01 X39.2619 Y56.5253 
G01 X39.3764 Y56.5253 
G01 X39.4868 Y56.5549 
G01 X39.5857 Y56.6120 
G01 X39.6666 Y56.6929 
G01 X39.6794 Y56.7152 
G01 X39.7486 Y56.7152 
G01 X39.7486 Y56.3001 
G01 X39.7829 Y56.1279 
G01 X39.8500 Y55.9657 
G01 X39.9476 Y55.8197 
G01 X40.0717 Y55.6956 
G01 X40.2177 Y55.5980 
G01 X40.3799 Y55.5309 
G01 X40.5521 Y55.4966 
G01 X40.7278 Y55.4966 
G01 X40.9000 Y55.5309 
G01 X41.0622 Y55.5980 
G01 X41.2082 Y55.6956 
G01 X41.3323 Y55.8197 
G01 X41.4299 Y55.9657 
G01 X41.4970 Y56.1279 
G01 X41.5313 Y56.3001 
G01 X41.5313 Y57.9998 
G01 X41.4970 Y58.1720 
G01 X41.4299 Y58.3342 
G01 X41.3323 Y58.4802 
G01 X41.2082 Y58.6043 
G01 X41.1953 Y58.6129 
G01 X41.2162 Y58.6048 
G01 X41.2652 Y58.5844 
G01 X41.2714 Y58.5836 
G01 X41.2765 Y58.5816 
G01 X41.3268 Y58.5763 
G01 X41.3785 Y58.5694 
G01 X41.3842 Y58.5702 
G01 X41.3903 Y58.5695 
G01 X41.4425 Y58.5777 
G01 X41.4920 Y58.5841 
G01 X41.4972 Y58.5863 
G01 X41.5032 Y58.5872 
G01 X41.5514 Y58.6087 
G01 X41.5977 Y58.6277 
G01 X41.6022 Y58.6312 
G01 X41.6077 Y58.6336 
G01 X41.6479 Y58.6661 
G01 X41.6884 Y58.6971 
G01 X41.6920 Y58.7018 
G01 X41.6966 Y58.7055 
G01 X41.7265 Y58.7467 
G01 X41.7582 Y58.7877 
G01 X41.7605 Y58.7933 
G01 X41.7639 Y58.7979 
G01 X41.7803 Y58.8407 
G01 X41.7949 Y58.8760 
G01 X41.8219 Y58.9408 
G01 X41.8220 Y58.9416 
G01 X41.8221 Y58.9418 
G01 X41.8275 Y58.9833 
G01 X41.8369 Y59.0541 
G01 X41.8368 Y59.0546 
G01 X41.8369 Y59.0552 
G01 X41.8304 Y59.1041 
G01 X41.8222 Y59.1676 
G01 X41.8219 Y59.1682 
G01 X41.8219 Y59.1685 
G01 X41.8084 Y59.2008 
G01 X41.7808 Y59.2678 
G01 X41.7639 Y59.3119 
G01 X41.7604 Y59.3166 
G01 X41.7583 Y59.3218 
G01 X41.7272 Y59.3622 
G01 X41.6966 Y59.4043 
G01 X41.6921 Y59.4078 
G01 X41.6887 Y59.4124 
G01 X41.6481 Y59.4434 
G01 X41.6077 Y59.4762 
G01 X41.6024 Y59.4785 
G01 X41.5979 Y59.4820 
G01 X41.5513 Y59.5012 
G01 X41.5032 Y59.5226 
G01 X41.4973 Y59.5235 
G01 X41.4923 Y59.5256 
G01 X41.4428 Y59.5320 
G01 X41.3903 Y59.5403 
G01 X41.3844 Y59.5397 
G01 X41.3789 Y59.5404 
G01 X41.3288 Y59.5337 
G01 X41.2765 Y59.5282 
G01 X41.2712 Y59.5261 
G01 X41.2656 Y59.5254 
G01 X41.2194 Y59.5062 
G01 X41.1950 Y59.4968 
G01 X41.2082 Y59.5056 
G01 X41.3323 Y59.6297 
G01 X41.4299 Y59.7757 
G01 X41.4970 Y59.9379 
G01 X41.5313 Y60.1101 
G01 X41.5313 Y61.8098 
G01 X41.4970 Y61.9820 
G01 X41.4299 Y62.1442 
G01 X41.3323 Y62.2902 
G01 X41.2082 Y62.4143 
G01 X41.1953 Y62.4229 
G01 X41.2189 Y62.4138 
G01 X41.2659 Y62.3943 
G01 X41.2714 Y62.3936 
G01 X41.2765 Y62.3916 
G01 X41.3286 Y62.3861 
G01 X41.3793 Y62.3794 
G01 X41.3846 Y62.3801 
G01 X41.3903 Y62.3795 
G01 X41.4436 Y62.3879 
G01 X41.4926 Y62.3943 
G01 X41.4974 Y62.3963 
G01 X41.5032 Y62.3972 
G01 X41.5524 Y62.4191 
G01 X41.5982 Y62.4380 
G01 X41.6024 Y62.4413 
G01 X41.6077 Y62.4436 
G01 X41.6485 Y62.4767 
G01 X41.6889 Y62.5076 
G01 X41.6922 Y62.5121 
G01 X41.6966 Y62.5155 
G01 X41.7272 Y62.5576 
G01 X41.7585 Y62.5983 
G01 X41.7605 Y62.6034 
G01 X41.7639 Y62.6079 
G01 X41.7823 Y62.6559 
G01 X41.9018 Y62.7753 
G01 X41.9589 Y62.8742 
G01 X41.9885 Y62.9846 
G01 X41.9885 Y63.0991 
G01 X41.9885 Y65.0067 
G01 X42.1894 Y65.4919 
G01 X42.2038 Y65.5167 
G01 X42.2112 Y65.5445 
G01 X42.2222 Y65.5709 
G01 X42.2259 Y65.5992 
G01 X42.2334 Y65.6271 
G01 X42.2334 Y65.6562 
G01 X42.2371 Y65.6844 
G01 X42.2334 Y65.7125 
G01 X42.2334 Y65.7416 
G01 X42.2259 Y65.7695 
G01 X42.2222 Y65.7977 
G01 X42.2113 Y65.8240 
G01 X42.2038 Y65.8520 
G01 X42.1894 Y65.8768 
G01 X42.1785 Y65.9033 
G01 X42.1610 Y65.9260 
G01 X42.1467 Y65.9509 
G01 X42.1264 Y65.9712 
G01 X42.1089 Y65.9940 
G01 X42.0860 Y66.0115 
G01 X42.0658 Y66.0318 
G01 X42.0412 Y66.0460 
G01 X42.0183 Y66.0636 
G01 X41.9915 Y66.0746 
G01 X41.9669 Y66.0889 
G01 X41.9392 Y66.0963 
G01 X41.9127 Y66.1073 
G01 X41.8844 Y66.1110 
G01 X41.8565 Y66.1185 
G01 X41.8274 Y66.1185 
G01 X41.7992 Y66.1222 
G01 X41.7711 Y66.1185 
G01 X41.2559 Y66.1185 
G01 X41.1455 Y66.0889 
G01 X41.1434 Y66.0876 
G01 X41.0465 Y66.0318 
G01 X40.4173 Y65.4025 
G01 X40.1110 Y65.4025 
G01 X40.0635 Y65.3828 
G01 X40.0271 Y65.3464 
G01 X40.0074 Y65.2989 
G01 X40.0074 Y64.9925 
G01 X39.3780 Y64.3631 
G01 X39.3768 Y64.3609 
G01 X39.3209 Y64.2642 
G01 X39.2913 Y64.1538 
G01 X39.2913 Y64.1537 
G01 X39.2913 Y64.0393 
G01 X39.2913 Y62.7323 
G01 X39.2912 Y62.7320 
G01 X39.2913 Y62.6754 
G01 X39.2913 Y62.6180 
G01 X39.2914 Y62.6177 
G01 X39.2914 Y62.6176 
G01 X39.2982 Y62.5925 
G01 X39.3209 Y62.5076 
G01 X39.3210 Y62.5076 
G01 X39.3210 Y62.5073 
G01 X39.3500 Y62.4573 
G01 X39.3780 Y62.4087 
G01 X39.3782 Y62.4086 
G01 X39.3783 Y62.4083 
G01 X39.4182 Y62.3686 
G01 X39.4589 Y62.3278 
G01 X39.4592 Y62.3277 
G01 X39.4592 Y62.3276 
G01 X39.5030 Y62.3024 
G01 X39.5578 Y62.2707 
G01 X39.5579 Y62.2707 
G01 X39.5582 Y62.2705 
G01 X39.6381 Y62.2492 
G01 X39.6682 Y62.2411 
G01 X39.6684 Y62.2411 
G01 X39.6687 Y62.2410 
G01 X39.7253 Y62.2411 
G01 X39.7827 Y62.2411 
G01 X39.7830 Y62.2412 
G01 X39.7831 Y62.2412 
G01 X39.8082 Y62.2480 
G01 X39.8931 Y62.2707 
G01 X39.8931 Y62.2708 
G01 X39.8934 Y62.2708 
G01 X39.9434 Y62.2998 
G01 X39.9762 Y62.3187 
G01 X39.9476 Y62.2902 
G01 X39.8500 Y62.1442 
G01 X39.7829 Y61.9820 
G01 X39.7486 Y61.8098 
G01 X39.7486 Y60.1101 
G01 X39.7603 Y60.0516 
G01 X39.7589 Y60.0547 
G01 X39.7529 Y60.0772 
G01 X39.7357 Y60.1069 
G01 X39.7220 Y60.1379 
G01 X39.7076 Y60.1557 
G01 X39.6958 Y60.1762 
G01 X39.6713 Y60.2006 
G01 X39.6502 Y60.2268 
G01 X39.6315 Y60.2404 
G01 X39.6149 Y60.2570 
G01 X39.5853 Y60.2740 
G01 X39.5578 Y60.2941 
G01 X39.5360 Y60.3024 
G01 X39.5159 Y60.3141 
G01 X39.4829 Y60.3229 
G01 X39.4511 Y60.3352 
G01 X39.4280 Y60.3376 
G01 X39.4055 Y60.3437 
G01 X39.3713 Y60.3437 
G01 X39.3374 Y60.3473 
G01 X39.3145 Y60.3437 
G01 X39.2911 Y60.3437 
G01 X39.2583 Y60.3349 
G01 X39.2245 Y60.3296 
G01 X39.2032 Y60.3201 
G01 X39.1807 Y60.3141 
G01 X39.1510 Y60.2969 
G01 X39.1200 Y60.2832 
G01 X39.1022 Y60.2688 
G01 X39.0817 Y60.2570 
G01 X39.0572 Y60.2324 
G01 X39.0311 Y60.2114 
G01 X39.0177 Y60.1929 
G01 X38.3140 Y59.4891 
G01 X32.1083 Y59.4891 
G01 X32.1026 Y59.4948 
G01 X32.0551 Y59.5145 
G01 X29.9716 Y59.5145 
G01 X29.9241 Y59.4948 
G01 X29.9184 Y59.4891 
G01 X29.2490 Y59.4891 
G01 X29.2457 Y59.4924 
G01 X29.1107 Y59.8184 
G01 X29.1107 Y60.8311 
G01 X29.1169 Y60.8460 
G01 X29.1170 Y60.8468 
G01 X29.1173 Y60.8475 
G01 X29.1248 Y60.9063 
G01 X29.1319 Y60.9594 
G01 X29.1318 Y60.9602 
G01 X29.1319 Y60.9609 
G01 X29.1250 Y61.0120 
G01 X29.1172 Y61.0728 
G01 X29.1168 Y61.0735 
G01 X29.1168 Y61.0742 
G01 X29.1107 Y61.0888 
G01 X29.1107 Y62.1011 
G01 X29.1169 Y62.1160 
G01 X29.1170 Y62.1168 
G01 X29.1173 Y62.1175 
G01 X29.1248 Y62.1763 
G01 X29.1319 Y62.2294 
G01 X29.1318 Y62.2302 
G01 X29.1319 Y62.2309 
G01 X29.1250 Y62.2820 
G01 X29.1172 Y62.3428 
G01 X29.1168 Y62.3435 
G01 X29.1168 Y62.3442 
G01 X29.1107 Y62.3588 
G01 X29.1107 Y63.3710 
G01 X29.1169 Y63.3860 
G01 X29.1170 Y63.3868 
G01 X29.1173 Y63.3875 
G01 X29.1249 Y63.4463 
G01 X29.1319 Y63.4994 
G01 X29.1318 Y63.5002 
G01 X29.1319 Y63.5009 
G01 X29.1251 Y63.5520 
G01 X29.1172 Y63.6128 
G01 X29.1169 Y63.6135 
G01 X29.1168 Y63.6142 
G01 X29.1107 Y63.6288 
G01 X29.1107 Y64.6414 
G01 X29.2457 Y64.9674 
G01 X29.2492 Y64.9708 
G01 X29.9185 Y64.9708 
G01 X29.9241 Y64.9651 
G01 X29.9716 Y64.9454 
G01 X32.0551 Y64.9454 
G01 X32.1026 Y64.9651 
G01 X32.1390 Y65.0015 
G01 X32.1587 Y65.0490 
G01 X32.1587 Y65.7609 
G01 X32.1390 Y65.8084 
G01 X32.1026 Y65.8448 
G01 X32.0551 Y65.8645 
G01 X29.9716 Y65.8645 
G01 X29.9241 Y65.8448 
G01 X29.9185 Y65.8391 
G01 X29.2491 Y65.8391 
G01 X29.2457 Y65.8425 
G01 X29.1107 Y66.1684 
G01 X29.1107 Y67.1814 
G01 X29.2456 Y67.5071 
G01 X29.2900 Y67.5514 
G01 X29.2901 Y67.5517 
G01 X29.2902 Y67.5517 
G01 X29.3151 Y67.5949 
G01 X29.3472 Y67.6503 
G01 X29.3472 Y67.6504 
G01 X29.3474 Y67.6507 
G01 X29.3592 Y67.6952 
G01 X29.3769 Y67.7607 
G01 X29.3769 Y67.8751 
G01 X29.3769 Y67.8756 
G01 X29.3473 Y67.9860 
G01 X29.3134 Y68.0445 
G01 X29.2904 Y68.0846 
G01 X29.2096 Y68.1655 
G01 X29.2093 Y68.1657 
G01 X29.0015 Y68.3734 
G01 X28.9025 Y68.4306 
G01 X28.8377 Y68.4479 
G01 X28.7922 Y68.4601 
G01 X28.7920 Y68.4601 
G01 X28.6776 Y68.4601 
G01 X28.5304 Y68.4601 
G01 X28.2044 Y68.5951 
G01 X27.9551 Y68.8444 
G01 X27.8201 Y69.1704 
G01 X27.8201 Y69.3295 
G01 X27.8238 Y69.3579 
G01 X27.8201 Y69.3858 
G01 X27.8201 Y69.4147 
G01 X27.8125 Y69.4428 
G01 X27.8088 Y69.4712 
G01 X27.7979 Y69.4974 
G01 X27.7905 Y69.5251 
G01 X27.7761 Y69.5500 
G01 X27.7650 Y69.5768 
G01 X27.7475 Y69.5994 
G01 X27.7334 Y69.6240 
G01 X27.7129 Y69.6444 
G01 X27.6953 Y69.6674 
G01 X27.6726 Y69.6847 
G01 X27.6525 Y69.7049 
G01 X27.6276 Y69.7193 
G01 X27.6046 Y69.7369 
G01 X27.5782 Y69.7478 
G01 X27.5536 Y69.7620 
G01 X27.5256 Y69.7695 
G01 X27.4990 Y69.7805 
G01 X27.4709 Y69.7841 
G01 X27.4432 Y69.7916 
G01 X27.4139 Y69.7916 
G01 X27.3855 Y69.7953 
G01 X27.3576 Y69.7916 
G01 X27.3287 Y69.7916 
G01 X27.3006 Y69.7840 
G01 X27.2722 Y69.7803 
G01 X27.2460 Y69.7694 
G01 X27.2183 Y69.7620 
G01 X27.1988 Y69.7507 
G01 X25.0211 Y69.7507 
G01 X24.4152 Y70.0016 
G01 X23.9514 Y70.4654 
G01 X23.7005 Y71.0713 
G01 X23.7005 Y71.7273 
G01 X23.9514 Y72.3332 
G01 X24.4152 Y72.7970 
G01 X25.0211 Y73.0479 
G01 X27.2011 Y73.0479 
G01 X27.8070 Y72.7970 
G01 X27.9265 Y72.6774 
G01 X28.0254 Y72.6203 
G01 X28.1358 Y72.5907 
G01 X28.2503 Y72.5907 
G01 X30.2484 Y72.5907 
G01 X30.3588 Y72.6203 
G01 X30.4577 Y72.6774 
G01 X30.5386 Y72.7583 
G01 X30.5957 Y72.8572 
G01 X30.6229 Y72.9588 
G01 X30.6403 Y72.9167 
G01 X30.6767 Y72.8803 
G01 X30.7242 Y72.8606 
G01 X31.2976 Y72.8606 
G01 X31.3071 Y72.8441 
G01 X31.3880 Y72.7632 
G01 X31.4869 Y72.7061 
G01 X31.5973 Y72.6765 
G01 X31.7118 Y72.6765 
G01 X31.9024 Y72.6765 
G01 X32.0128 Y72.7061 
G01 X32.1117 Y72.7632 
G01 X32.1926 Y72.8441 
G01 X32.2021 Y72.8606 
G01 X32.7757 Y72.8606 
G01 X32.8232 Y72.8803 
G01 X32.8596 Y72.9167 
G01 X32.8745 Y72.9529 
G01 X32.8745 Y72.9307 
G01 X32.8820 Y72.9029 
G01 X32.8857 Y72.8745 
G01 X32.8967 Y72.8482 
G01 X32.9041 Y72.8203 
G01 X32.9186 Y72.7952 
G01 X32.9295 Y72.7689 
G01 X32.9468 Y72.7465 
G01 X32.9612 Y72.7214 
G01 X32.9817 Y72.7010 
G01 X32.9991 Y72.6782 
G01 X33.0218 Y72.6609 
G01 X33.0421 Y72.6405 
G01 X33.0673 Y72.6260 
G01 X33.0898 Y72.6087 
G01 X33.1160 Y72.5979 
G01 X33.1410 Y72.5834 
G01 X33.1691 Y72.5759 
G01 X33.2521 Y72.5416 
G01 X33.3881 Y72.4053 
G01 X33.4871 Y72.3481 
G01 X33.5975 Y72.3185 
G01 X33.7119 Y72.3185 
G01 X33.7121 Y72.3185 
G01 X33.7698 Y72.3340 
G01 X33.8223 Y72.3480 
G01 X33.8224 Y72.3481 
G01 X33.8225 Y72.3481 
G01 X33.8466 Y72.3621 
G01 X33.9213 Y72.4051 
G01 X34.0022 Y72.4859 
G01 X34.0023 Y72.4862 
G01 X34.0576 Y72.5415 
G01 X34.1408 Y72.5759 
G01 X34.1688 Y72.5834 
G01 X34.1938 Y72.5979 
G01 X34.2200 Y72.6087 
G01 X34.2425 Y72.6260 
G01 X34.2677 Y72.6405 
G01 X34.2880 Y72.6609 
G01 X34.3107 Y72.6782 
G01 X34.3281 Y72.7010 
G01 X34.3486 Y72.7214 
G01 X34.3630 Y72.7464 
G01 X34.3803 Y72.7689 
G01 X34.3912 Y72.7953 
G01 X34.4057 Y72.8203 
G01 X34.4131 Y72.8482 
G01 X34.4241 Y72.8745 
G01 X34.4278 Y72.9029 
G01 X34.4353 Y72.9307 
G01 X34.4353 Y72.9531 
G01 X34.4503 Y72.9167 
G01 X34.4867 Y72.8803 
G01 X34.5342 Y72.8606 
G01 X35.1076 Y72.8606 
G01 X35.1171 Y72.8441 
G01 X35.1980 Y72.7632 
G01 X35.2969 Y72.7061 
G01 X35.4073 Y72.6765 
G01 X35.5218 Y72.6765 
G01 X35.7124 Y72.6765 
G01 X35.8228 Y72.7061 
G01 X35.9217 Y72.7632 
G01 X36.0026 Y72.8441 
G01 X36.0121 Y72.8606 
G01 X36.5857 Y72.8606 
G01 X36.6332 Y72.8803 
G01 X36.6696 Y72.9167 
G01 X36.6870 Y72.9586 
G01 X36.7141 Y72.8572 
G01 X36.7712 Y72.7583 
G01 X36.8521 Y72.6774 
G01 X36.9510 Y72.6203 
G01 X37.0614 Y72.5907 
G01 X37.1759 Y72.5907 
G01 X37.4899 Y72.5907 
G01 X37.7897 Y72.5907 
G01 X37.7898 Y72.5907 
G01 X37.9042 Y72.5907 
G01 X38.0146 Y72.6203 
G01 X38.1136 Y72.6775 
G01 X38.2330 Y72.7970 
G01 X38.8387 Y73.0479 
G01 X41.0187 Y73.0479 
G01 X41.6246 Y72.7970 
G01 X42.0884 Y72.3332 
G01 X42.3393 Y71.7273 
G01 X42.3393 Y71.0713 
G01 X42.0815 Y70.4488 
G01 X42.0647 Y70.4197 
G01 X42.0383 Y70.3745 
G01 X42.0382 Y70.3738 
G01 X42.0377 Y70.3731 
G01 X42.0226 Y70.3167 
G01 X42.0083 Y70.2642 
G01 X42.0083 Y70.2634 
G01 X42.0081 Y70.2627 
G01 X42.0081 Y70.2073 
G01 X42.0079 Y70.1498 
G01 X42.0081 Y70.1491 
G01 X42.0081 Y70.1482 
G01 X42.0235 Y70.0909 
G01 X42.0371 Y70.0393 
G01 X42.0375 Y70.0387 
G01 X42.0377 Y70.0378 
G01 X42.0689 Y69.9838 
G01 X42.0939 Y69.9401 
G01 X42.0944 Y69.9396 
G01 X42.0948 Y69.9389 
G01 X42.1340 Y69.8998 
G01 X42.1744 Y69.8590 
G01 X42.1752 Y69.8586 
G01 X42.1757 Y69.8580 
G01 X42.2280 Y69.8279 
G01 X42.2732 Y69.8015 
G01 X42.2739 Y69.8014 
G01 X42.2746 Y69.8009 
G01 X42.3310 Y69.7858 
G01 X42.3835 Y69.7715 
G01 X42.3843 Y69.7715 
G01 X42.3850 Y69.7713 
G01 X42.4404 Y69.7713 
G01 X42.4979 Y69.7711 
G01 X42.4986 Y69.7713 
G01 X43.8610 Y69.7713 
G01 X43.8619 Y69.7711 
G01 X43.9301 Y69.7713 
G01 X43.9748 Y69.7713 
G01 X43.9753 Y69.7715 
G01 X43.9763 Y69.7715 
G01 X44.0388 Y69.7885 
G01 X44.0852 Y69.8009 
G01 X44.0857 Y69.8013 
G01 X44.0866 Y69.8015 
G01 X44.1411 Y69.8333 
G01 X44.1841 Y69.8580 
G01 X44.1845 Y69.8585 
G01 X44.1854 Y69.8590 
G01 X44.2329 Y69.9069 
G01 X44.2650 Y69.9389 
G01 X44.2653 Y69.9395 
G01 X44.2659 Y69.9401 
G01 X44.2961 Y69.9929 
G01 X44.3221 Y70.0378 
G01 X44.3222 Y70.0386 
G01 X44.3227 Y70.0393 
G01 X44.3390 Y70.1009 
G01 X44.3517 Y70.1482 
G01 X44.3517 Y70.1489 
G01 X44.3519 Y70.1498 
G01 X44.3517 Y70.2180 
G01 X44.3517 Y70.2627 
G01 X44.3515 Y70.2632 
G01 X44.3515 Y70.2642 
G01 X44.3345 Y70.3267 
G01 X44.3221 Y70.3731 
G01 X44.3217 Y70.3736 
G01 X44.3215 Y70.3745 
G01 X44.2897 Y70.4290 
G01 X44.2783 Y70.4487 
G01 X44.0205 Y71.0713 
G01 X44.0205 Y71.7273 
G01 X44.2714 Y72.3332 
G01 X44.7352 Y72.7970 
G01 X45.3411 Y73.0479 
G01 X47.5211 Y73.0479 
G01 X48.1270 Y72.7970 
G01 X48.4927 Y72.4312 
G01 X48.4927 Y72.4311 
G01 X48.5649 Y72.3590 
G01 X48.5734 Y72.3504 
G01 X48.5735 Y72.3503 
G01 X48.6725 Y72.2931 
G01 X48.7353 Y72.2764 
G01 X48.7828 Y72.2636 
G01 X48.8972 Y72.2636 
G01 X48.8974 Y72.2636 
G01 X49.0078 Y72.2932 
G01 X49.0793 Y72.3346 
G01 X49.1066 Y72.3503 
G01 X49.1874 Y72.4311 
G01 X49.1874 Y72.4312 
G01 X49.2977 Y72.5415 
G01 X49.3808 Y72.5759 
G01 X49.4088 Y72.5834 
G01 X49.4338 Y72.5979 
G01 X49.4600 Y72.6087 
G01 X49.4825 Y72.6260 
G01 X49.5077 Y72.6405 
G01 X49.5280 Y72.6608 
G01 X49.5507 Y72.6782 
G01 X49.5682 Y72.7010 
G01 X49.5886 Y72.7214 
G01 X49.6030 Y72.7464 
G01 X49.6203 Y72.7689 
G01 X49.6312 Y72.7952 
G01 X49.6457 Y72.8203 
G01 X49.6531 Y72.8482 
G01 X49.6641 Y72.8745 
G01 X49.6678 Y72.9029 
G01 X49.6753 Y72.9307 
G01 X49.6753 Y72.9530 
G01 X49.6903 Y72.9167 
G01 X49.7267 Y72.8803 
G01 X49.7742 Y72.8606 
G01 X51.8257 Y72.8606 
G01 X51.8732 Y72.8803 
G01 X51.9096 Y72.9167 
G01 X51.9245 Y72.9528 
G01 X51.9245 Y72.9307 
G01 X51.9320 Y72.9029 
G01 X51.9357 Y72.8745 
G01 X51.9467 Y72.8482 
G01 X51.9541 Y72.8203 
G01 X51.9686 Y72.7952 
G01 X51.9795 Y72.7689 
G01 X51.9968 Y72.7464 
G01 X52.0112 Y72.7214 
G01 X52.0317 Y72.7010 
G01 X52.0491 Y72.6782 
G01 X52.0718 Y72.6609 
G01 X52.0921 Y72.6405 
G01 X52.1173 Y72.6260 
G01 X52.1398 Y72.6087 
G01 X52.1659 Y72.5979 
G01 X52.1910 Y72.5834 
G01 X52.2190 Y72.5759 
G01 X52.3022 Y72.5414 
G01 X52.5756 Y72.2680 
G01 X52.6745 Y72.2109 
G01 X52.7849 Y72.1813 
G01 X52.8994 Y72.1813 
G01 X53.1784 Y72.1813 
G01 X53.2888 Y72.2109 
G01 X53.3877 Y72.2680 
G01 X53.4686 Y72.3489 
G01 X53.5257 Y72.4478 
G01 X53.5553 Y72.5582 
G01 X53.5553 Y72.6231 
G01 X53.5703 Y72.5867 
G01 X53.6067 Y72.5503 
G01 X53.6542 Y72.5306 
G01 X55.3057 Y72.5306 
G01 X55.3532 Y72.5503 
G01 X55.3896 Y72.5867 
G01 X55.4093 Y72.6342 
G00 Z0.5080 
G00 X49.1513 Y56.3001 
G01 Z-0.2540 F254.00 
G01 X49.1513 Y57.9998 
G01 X49.1170 Y58.1720 
G01 X49.0499 Y58.3342 
G01 X48.9523 Y58.4802 
G01 X48.8282 Y58.6043 
G01 X48.6941 Y58.6939 
G01 X48.6941 Y60.7801 
G01 X49.7965 Y61.8825 
G01 X49.8774 Y61.9634 
G01 X50.9798 Y63.0658 
G01 X58.2401 Y63.0658 
G01 X58.7884 Y62.5175 
G01 X58.8873 Y62.4604 
G01 X58.9977 Y62.4308 
G01 X59.1122 Y62.4308 
G01 X70.7617 Y62.4308 
G01 X70.7673 Y62.4251 
G01 X70.8148 Y62.4054 
G01 X72.8983 Y62.4054 
G01 X72.9458 Y62.4251 
G01 X72.9822 Y62.4615 
G01 X73.0019 Y62.5090 
G01 X73.0019 Y63.2209 
G01 X72.9822 Y63.2684 
G01 X72.9458 Y63.3048 
G01 X72.8983 Y63.3245 
G01 X70.8148 Y63.3245 
G01 X70.7673 Y63.3048 
G01 X70.7617 Y63.2991 
G01 X59.2348 Y63.2991 
G01 X58.7674 Y63.7665 
G01 X58.6865 Y63.8474 
G01 X58.5876 Y63.9045 
G01 X58.4772 Y63.9341 
G01 X50.7427 Y63.9341 
G01 X50.6323 Y63.9045 
G01 X50.5334 Y63.8474 
G01 X50.4525 Y63.7665 
G01 X49.3501 Y62.6641 
G01 X48.8925 Y62.6641 
G01 X48.8925 Y62.7589 
G01 X48.8728 Y62.8064 
G01 X48.8364 Y62.8428 
G01 X48.7889 Y62.8625 
G01 X47.7310 Y62.8625 
G01 X47.6835 Y62.8428 
G01 X47.6471 Y62.8064 
G01 X47.6274 Y62.7589 
G01 X47.6274 Y61.7010 
G01 X47.6471 Y61.6535 
G01 X47.6835 Y61.6171 
G01 X47.7310 Y61.5974 
G01 X48.2835 Y61.5974 
G01 X47.9125 Y61.2265 
G01 X47.8554 Y61.1276 
G01 X47.8258 Y61.0172 
G01 X47.8258 Y60.9027 
G01 X47.8258 Y58.6939 
G01 X47.6917 Y58.6043 
G01 X47.5676 Y58.4802 
G01 X47.4700 Y58.3342 
G01 X47.4029 Y58.1720 
G01 X47.3686 Y57.9998 
G01 X47.3686 Y56.3001 
G01 X47.4029 Y56.1279 
G01 X47.4700 Y55.9657 
G01 X47.5676 Y55.8197 
G01 X47.6917 Y55.6956 
G01 X47.8377 Y55.5980 
G01 X47.9999 Y55.5309 
G01 X48.1721 Y55.4966 
G01 X48.3478 Y55.4966 
G01 X48.5200 Y55.5309 
G01 X48.6822 Y55.5980 
G01 X48.8282 Y55.6956 
G01 X48.9523 Y55.8197 
G01 X49.0499 Y55.9657 
G01 X49.1170 Y56.1279 
G01 X49.1513 Y56.3001 
G00 Z0.5080 
G00 X26.2913 Y53.7601 
G01 Z-0.2540 F254.00 
G01 X26.2913 Y54.1758 
G01 X28.1506 Y54.1758 
G01 X28.1506 Y53.5842 
G01 X28.1703 Y53.5367 
G01 X28.2067 Y53.5003 
G01 X28.2542 Y53.4806 
G01 X29.9057 Y53.4806 
G01 X29.9532 Y53.5003 
G01 X29.9896 Y53.5367 
G01 X30.0093 Y53.5842 
G01 X30.0093 Y55.6357 
G01 X29.9896 Y55.6832 
G01 X29.9532 Y55.7196 
G01 X29.9057 Y55.7393 
G01 X28.2542 Y55.7393 
G01 X28.2067 Y55.7196 
G01 X28.1703 Y55.6832 
G01 X28.1506 Y55.6357 
G01 X28.1506 Y55.0441 
G01 X26.2913 Y55.0441 
G01 X26.2913 Y55.4598 
G01 X26.2570 Y55.6320 
G01 X26.1899 Y55.7942 
G01 X26.0923 Y55.9402 
G01 X25.9682 Y56.0643 
G01 X25.8222 Y56.1619 
G01 X25.6600 Y56.2290 
G01 X25.4878 Y56.2633 
G01 X25.3121 Y56.2633 
G01 X25.1399 Y56.2290 
G01 X24.9777 Y56.1619 
G01 X24.8317 Y56.0643 
G01 X24.7076 Y55.9402 
G01 X24.6100 Y55.7942 
G01 X24.5429 Y55.6320 
G01 X24.5086 Y55.4598 
G01 X24.5086 Y53.7601 
G01 X24.5429 Y53.5879 
G01 X24.6100 Y53.4257 
G01 X24.7076 Y53.2797 
G01 X24.8317 Y53.1556 
G01 X24.9777 Y53.0580 
G01 X25.1399 Y52.9909 
G01 X25.3121 Y52.9566 
G01 X25.4878 Y52.9566 
G01 X25.6600 Y52.9909 
G01 X25.8222 Y53.0580 
G01 X25.9682 Y53.1556 
G01 X26.0923 Y53.2797 
G01 X26.1899 Y53.4257 
G01 X26.2570 Y53.5879 
G01 X26.2913 Y53.7601 
G00 Z0.5080 
G00 X11.8501 Y65.1486 
G01 Z-0.2540 F254.00 
G01 X13.5498 Y65.1486 
G01 X13.7220 Y65.1829 
G01 X13.8842 Y65.2500 
G01 X14.0302 Y65.3476 
G01 X14.0392 Y65.3567 
G01 X16.7975 Y62.5984 
G01 X16.8784 Y62.5175 
G01 X16.9773 Y62.4604 
G01 X17.0877 Y62.4308 
G01 X18.2351 Y62.4308 
G01 X18.6158 Y62.0501 
G01 X18.6158 Y62.0193 
G01 X18.0242 Y62.0193 
G01 X17.9767 Y61.9996 
G01 X17.9403 Y61.9632 
G01 X17.9206 Y61.9157 
G01 X17.9206 Y60.2642 
G01 X17.9403 Y60.2167 
G01 X17.9767 Y60.1803 
G01 X18.0242 Y60.1606 
G01 X20.0757 Y60.1606 
G01 X20.1232 Y60.1803 
G01 X20.1596 Y60.2167 
G01 X20.1793 Y60.2642 
G01 X20.1793 Y61.9157 
G01 X20.1596 Y61.9632 
G01 X20.1232 Y61.9996 
G01 X20.0757 Y62.0193 
G01 X19.4841 Y62.0193 
G01 X19.4841 Y62.2872 
G01 X19.4545 Y62.3976 
G01 X19.4353 Y62.4308 
G01 X23.7716 Y62.4308 
G01 X23.7773 Y62.4251 
G01 X23.8248 Y62.4054 
G01 X25.9083 Y62.4054 
G01 X25.9558 Y62.4251 
G01 X25.9922 Y62.4615 
G01 X26.0119 Y62.5090 
G01 X26.0119 Y63.2209 
G01 X25.9922 Y63.2684 
G01 X25.9558 Y63.3048 
G01 X25.9083 Y63.3245 
G01 X23.8248 Y63.3245 
G01 X23.7773 Y63.3048 
G01 X23.7716 Y63.2991 
G01 X18.4722 Y63.2991 
G01 X18.3577 Y63.2991 
G01 X17.3248 Y63.2991 
G01 X14.3155 Y66.3083 
G01 X14.2519 Y66.4622 
G01 X14.1543 Y66.6082 
G01 X14.0302 Y66.7323 
G01 X13.8842 Y66.8299 
G01 X13.7220 Y66.8970 
G01 X13.5498 Y66.9313 
G01 X11.8501 Y66.9313 
G01 X11.6779 Y66.8970 
G01 X11.5157 Y66.8299 
G01 X11.3697 Y66.7323 
G01 X11.2456 Y66.6082 
G01 X11.1480 Y66.4622 
G01 X11.0809 Y66.3000 
G01 X11.0466 Y66.1278 
G01 X11.0466 Y65.9521 
G01 X11.0809 Y65.7799 
G01 X11.1480 Y65.6177 
G01 X11.2456 Y65.4717 
G01 X11.3697 Y65.3476 
G01 X11.5157 Y65.2500 
G01 X11.6779 Y65.1829 
G01 X11.8501 Y65.1486 
G00 Z0.5080 
G00 X74.0042 Y67.5206 
G01 Z-0.2540 F254.00 
G01 X74.1188 Y67.5206 
G01 X74.0256 Y67.4957 
G01 X73.9267 Y67.4386 
G01 X73.8458 Y67.3577 
G01 X73.7887 Y67.2588 
G01 X73.7591 Y67.1484 
G01 X73.7591 Y67.0339 
G01 X73.7591 Y66.1687 
G01 X73.7529 Y66.1538 
G01 X73.7528 Y66.1530 
G01 X73.7525 Y66.1523 
G01 X73.7450 Y66.0935 
G01 X73.7379 Y66.0404 
G01 X73.7380 Y66.0396 
G01 X73.7379 Y66.0389 
G01 X73.7448 Y65.9878 
G01 X73.7526 Y65.9270 
G01 X73.7530 Y65.9263 
G01 X73.7530 Y65.9256 
G01 X73.7591 Y65.9110 
G01 X73.7591 Y64.8987 
G01 X73.7529 Y64.8838 
G01 X73.7529 Y64.8831 
G01 X73.7525 Y64.8823 
G01 X73.7434 Y64.8118 
G01 X73.7379 Y64.7704 
G01 X73.7380 Y64.7698 
G01 X73.7379 Y64.7689 
G01 X73.7462 Y64.7065 
G01 X73.7526 Y64.6570 
G01 X73.7529 Y64.6564 
G01 X73.7530 Y64.6556 
G01 X73.7591 Y64.6410 
G01 X73.7591 Y63.6287 
G01 X73.7529 Y63.6138 
G01 X73.7528 Y63.6130 
G01 X73.7525 Y63.6123 
G01 X73.7449 Y63.5535 
G01 X73.7379 Y63.5004 
G01 X73.7380 Y63.4996 
G01 X73.7379 Y63.4989 
G01 X73.7447 Y63.4478 
G01 X73.7526 Y63.3870 
G01 X73.7529 Y63.3863 
G01 X73.7530 Y63.3856 
G01 X73.7591 Y63.3710 
G01 X73.7591 Y62.3584 
G01 X73.6241 Y62.0324 
G01 X73.6207 Y62.0291 
G01 X72.9514 Y62.0291 
G01 X72.9458 Y62.0348 
G01 X72.8983 Y62.0545 
G01 X70.8148 Y62.0545 
G01 X70.7673 Y62.0348 
G01 X70.7617 Y62.0291 
G01 X54.1548 Y62.0291 
G01 X53.9725 Y62.2114 
G01 X53.9725 Y62.7589 
G01 X53.9528 Y62.8064 
G01 X53.9164 Y62.8428 
G01 X53.8689 Y62.8625 
G01 X52.8110 Y62.8625 
G01 X52.7635 Y62.8428 
G01 X52.7271 Y62.8064 
G01 X52.7074 Y62.7589 
G01 X52.7074 Y61.7010 
G01 X52.7271 Y61.6535 
G01 X52.7635 Y61.6171 
G01 X52.8110 Y61.5974 
G01 X53.3585 Y61.5974 
G01 X53.7084 Y61.2475 
G01 X53.8073 Y61.1904 
G01 X53.9177 Y61.1608 
G01 X54.0322 Y61.1608 
G01 X70.7617 Y61.1608 
G01 X70.7673 Y61.1551 
G01 X70.8148 Y61.1354 
G01 X72.8983 Y61.1354 
G01 X72.9458 Y61.1551 
G01 X72.9514 Y61.1608 
G01 X73.6206 Y61.1608 
G01 X73.6241 Y61.1573 
G01 X73.7591 Y60.8314 
G01 X73.7591 Y60.6232 
G01 X73.7887 Y60.5128 
G01 X73.8458 Y60.4139 
G01 X73.9267 Y60.3330 
G01 X74.0256 Y60.2759 
G01 X74.1360 Y60.2463 
G01 X74.2505 Y60.2463 
G01 X74.5319 Y60.2463 
G01 X74.9698 Y60.0650 
G01 X75.3191 Y59.7156 
G01 X75.3191 Y59.7155 
G01 X75.3916 Y59.6430 
G01 X75.3999 Y59.6347 
G01 X75.4000 Y59.6346 
G01 X75.4960 Y59.5792 
G01 X75.4989 Y59.5775 
G01 X75.6093 Y59.5479 
G01 X75.7237 Y59.5479 
G01 X75.7238 Y59.5479 
G01 X75.8342 Y59.5775 
G01 X75.9309 Y59.6334 
G01 X75.9331 Y59.6346 
G01 X76.0139 Y59.7154 
G01 X76.0140 Y59.7155 
G01 X76.0694 Y59.8115 
G01 X76.0711 Y59.8144 
G01 X76.1007 Y59.9248 
G01 X76.1007 Y60.0392 
G01 X76.1007 Y60.8310 
G01 X76.1068 Y60.8456 
G01 X76.1069 Y60.8463 
G01 X76.1072 Y60.8470 
G01 X76.1150 Y60.9072 
G01 X76.1219 Y60.9589 
G01 X76.1218 Y60.9597 
G01 X76.1219 Y60.9604 
G01 X76.1149 Y61.0129 
G01 X76.1073 Y61.0723 
G01 X76.1070 Y61.0730 
G01 X76.1069 Y61.0738 
G01 X76.1007 Y61.0887 
G01 X76.1007 Y62.1010 
G01 X76.1068 Y62.1156 
G01 X76.1069 Y62.1163 
G01 X76.1072 Y62.1170 
G01 X76.1150 Y62.1772 
G01 X76.1219 Y62.2289 
G01 X76.1218 Y62.2297 
G01 X76.1219 Y62.2304 
G01 X76.1149 Y62.2829 
G01 X76.1073 Y62.3423 
G01 X76.1070 Y62.3430 
G01 X76.1069 Y62.3438 
G01 X76.1007 Y62.3587 
G01 X76.1007 Y63.3710 
G01 X76.1068 Y63.3856 
G01 X76.1069 Y63.3863 
G01 X76.1072 Y63.3870 
G01 X76.1150 Y63.4472 
G01 X76.1219 Y63.4989 
G01 X76.1218 Y63.4997 
G01 X76.1219 Y63.5004 
G01 X76.1149 Y63.5529 
G01 X76.1073 Y63.6123 
G01 X76.1070 Y63.6130 
G01 X76.1069 Y63.6138 
G01 X76.1007 Y63.6287 
G01 X76.1007 Y64.6410 
G01 X76.1068 Y64.6556 
G01 X76.1068 Y64.6563 
G01 X76.1072 Y64.6570 
G01 X76.1150 Y64.7172 
G01 X76.1219 Y64.7689 
G01 X76.1218 Y64.7697 
G01 X76.1219 Y64.7704 
G01 X76.1149 Y64.8229 
G01 X76.1073 Y64.8823 
G01 X76.1070 Y64.8830 
G01 X76.1069 Y64.8838 
G01 X76.1007 Y64.8987 
G01 X76.1007 Y65.9114 
G01 X76.2357 Y66.2374 
G01 X76.2391 Y66.2408 
G01 X76.9085 Y66.2408 
G01 X76.9141 Y66.2351 
G01 X76.9616 Y66.2154 
G01 X79.0451 Y66.2154 
G01 X79.0926 Y66.2351 
G01 X79.1290 Y66.2715 
G01 X79.1487 Y66.3190 
G01 X79.1487 Y67.0309 
G01 X79.1290 Y67.0784 
G01 X79.0931 Y67.1142 
G01 X79.1474 Y67.0996 
G01 X79.2618 Y67.0996 
G01 X79.2622 Y67.0996 
G01 X79.3542 Y67.1243 
G01 X79.3723 Y67.1291 
G01 X79.3723 Y67.1292 
G01 X79.3726 Y67.1292 
G01 X79.4079 Y67.1497 
G01 X79.4713 Y67.1861 
G01 X79.5522 Y67.2669 
G01 X79.5523 Y67.2672 
G01 X79.8034 Y67.5183 
G01 X79.8606 Y67.6173 
G01 X79.8825 Y67.6994 
G01 X79.8901 Y67.7276 
G01 X79.8901 Y67.7277 
G01 X79.8901 Y67.8421 
G01 X79.8901 Y67.9893 
G01 X79.9077 Y68.0319 
G01 X79.9221 Y68.0567 
G01 X79.9295 Y68.0843 
G01 X79.9405 Y68.1108 
G01 X79.9442 Y68.1394 
G01 X79.9517 Y68.1671 
G01 X79.9517 Y68.1960 
G01 X79.9554 Y68.2241 
G01 X79.9517 Y68.2525 
G01 X79.9517 Y68.2816 
G01 X79.9443 Y68.3092 
G01 X79.9406 Y68.3375 
G01 X79.9295 Y68.3641 
G01 X79.9221 Y68.3920 
G01 X79.9078 Y68.4167 
G01 X79.8969 Y68.4431 
G01 X79.8794 Y68.4658 
G01 X79.8650 Y68.4909 
G01 X79.8448 Y68.5111 
G01 X79.8274 Y68.5338 
G01 X79.8045 Y68.5514 
G01 X79.7841 Y68.5718 
G01 X79.7593 Y68.5860 
G01 X79.7367 Y68.6035 
G01 X79.7100 Y68.6145 
G01 X79.6852 Y68.6289 
G01 X79.6576 Y68.6363 
G01 X79.6311 Y68.6473 
G01 X79.6025 Y68.6510 
G01 X79.5748 Y68.6585 
G01 X79.5459 Y68.6585 
G01 X79.5178 Y68.6622 
G01 X79.4894 Y68.6585 
G01 X79.0060 Y68.6585 
G01 X78.5029 Y68.6585 
G01 X78.0650 Y68.8398 
G01 X77.0631 Y69.8418 
G01 X76.9642 Y69.8989 
G01 X76.8538 Y69.9285 
G01 X76.7393 Y69.9285 
G01 X76.6849 Y69.9285 
G01 X76.5745 Y69.8989 
G01 X76.4756 Y69.8418 
G01 X76.3947 Y69.7609 
G01 X76.3321 Y69.6982 
G01 X76.2490 Y69.6638 
G01 X76.2210 Y69.6563 
G01 X76.1959 Y69.6418 
G01 X76.1696 Y69.6309 
G01 X76.1471 Y69.6136 
G01 X76.1221 Y69.5992 
G01 X76.1017 Y69.5788 
G01 X76.0789 Y69.5613 
G01 X76.0616 Y69.5386 
G01 X76.0412 Y69.5183 
G01 X76.0267 Y69.4931 
G01 X76.0094 Y69.4706 
G01 X75.9986 Y69.4443 
G01 X75.9841 Y69.4194 
G01 X75.9767 Y69.3917 
G01 X75.9656 Y69.3650 
G01 X75.9619 Y69.3365 
G01 X75.9545 Y69.3090 
G01 X75.9545 Y69.2871 
G01 X75.9396 Y69.3232 
G01 X75.9032 Y69.3596 
G01 X75.8557 Y69.3793 
G01 X74.0042 Y69.3793 
G01 X73.9567 Y69.3596 
G01 X73.9203 Y69.3232 
G01 X73.9006 Y69.2757 
G01 X73.9006 Y67.6242 
G01 X73.9203 Y67.5767 
G01 X73.9567 Y67.5403 
G01 X74.0042 Y67.5206 
G00 Z0.5080 
G00 X74.0042 Y70.3206 
G01 Z-0.2540 F254.00 
G01 X75.8557 Y70.3206 
G01 X75.9032 Y70.3403 
G01 X75.9396 Y70.3767 
G01 X75.9593 Y70.4242 
G01 X75.9593 Y70.6858 
G01 X77.2901 Y70.6858 
G01 X78.4734 Y69.5025 
G01 X78.5723 Y69.4454 
G01 X78.6827 Y69.4158 
G01 X78.7972 Y69.4158 
G01 X82.6072 Y69.4158 
G01 X82.7176 Y69.4454 
G01 X82.8165 Y69.5025 
G01 X82.8974 Y69.5834 
G01 X84.1674 Y70.8534 
G01 X84.2245 Y70.9523 
G01 X84.2541 Y71.0627 
G01 X84.2541 Y71.1772 
G01 X84.2541 Y74.9872 
G01 X84.2245 Y75.0976 
G01 X84.1674 Y75.1965 
G01 X84.0865 Y75.2774 
G01 X83.0959 Y76.2680 
G01 X82.9970 Y76.3251 
G01 X82.8866 Y76.3547 
G01 X82.7721 Y76.3547 
G01 X82.1127 Y76.3547 
G01 X82.0231 Y76.4888 
G01 X81.8990 Y76.6129 
G01 X81.7530 Y76.7105 
G01 X81.5908 Y76.7776 
G01 X81.4186 Y76.8119 
G01 X79.7189 Y76.8119 
G01 X79.5467 Y76.7776 
G01 X79.3845 Y76.7105 
G01 X79.2385 Y76.6129 
G01 X79.1144 Y76.4888 
G01 X79.0248 Y76.3547 
G01 X68.2951 Y76.3547 
G01 X68.2055 Y76.4888 
G01 X68.0814 Y76.6129 
G01 X67.9354 Y76.7105 
G01 X67.7732 Y76.7776 
G01 X67.6010 Y76.8119 
G01 X65.9013 Y76.8119 
G01 X65.7291 Y76.7776 
G01 X65.5669 Y76.7105 
G01 X65.4209 Y76.6129 
G01 X65.2968 Y76.4888 
G01 X65.2072 Y76.3547 
G01 X61.7927 Y76.3547 
G01 X61.7031 Y76.4888 
G01 X61.5790 Y76.6129 
G01 X61.4330 Y76.7105 
G01 X61.2708 Y76.7776 
G01 X61.0986 Y76.8119 
G01 X59.3989 Y76.8119 
G01 X59.2267 Y76.7776 
G01 X59.0645 Y76.7105 
G01 X58.9185 Y76.6129 
G01 X58.7944 Y76.4888 
G01 X58.7048 Y76.3547 
G01 X47.9751 Y76.3547 
G01 X47.8855 Y76.4888 
G01 X47.7614 Y76.6129 
G01 X47.6154 Y76.7105 
G01 X47.4532 Y76.7776 
G01 X47.2810 Y76.8119 
G01 X45.5813 Y76.8119 
G01 X45.4091 Y76.7776 
G01 X45.2469 Y76.7105 
G01 X45.1009 Y76.6129 
G01 X44.9768 Y76.4888 
G01 X44.8872 Y76.3547 
G01 X41.4727 Y76.3547 
G01 X41.3831 Y76.4888 
G01 X41.2590 Y76.6129 
G01 X41.1130 Y76.7105 
G01 X40.9508 Y76.7776 
G01 X40.7786 Y76.8119 
G01 X39.0789 Y76.8119 
G01 X38.9067 Y76.7776 
G01 X38.7445 Y76.7105 
G01 X38.5985 Y76.6129 
G01 X38.4744 Y76.4888 
G01 X38.3848 Y76.3547 
G01 X31.1125 Y76.3547 
G01 X31.1125 Y76.7289 
G01 X31.0928 Y76.7764 
G01 X31.0564 Y76.8128 
G01 X31.0089 Y76.8325 
G01 X29.9510 Y76.8325 
G01 X29.9035 Y76.8128 
G01 X29.8671 Y76.7764 
G01 X29.8474 Y76.7289 
G01 X29.8474 Y76.3547 
G01 X27.6551 Y76.3547 
G01 X27.5655 Y76.4888 
G01 X27.4414 Y76.6129 
G01 X27.2954 Y76.7105 
G01 X27.1332 Y76.7776 
G01 X26.9610 Y76.8119 
G01 X25.2613 Y76.8119 
G01 X25.0891 Y76.7776 
G01 X24.9269 Y76.7105 
G01 X24.7809 Y76.6129 
G01 X24.6568 Y76.4888 
G01 X24.5672 Y76.3547 
G01 X21.1527 Y76.3547 
G01 X21.0631 Y76.4888 
G01 X20.9390 Y76.6129 
G01 X20.7930 Y76.7105 
G01 X20.6308 Y76.7776 
G01 X20.4586 Y76.8119 
G01 X18.7589 Y76.8119 
G01 X18.5867 Y76.7776 
G01 X18.4245 Y76.7105 
G01 X18.2785 Y76.6129 
G01 X18.1544 Y76.4888 
G01 X18.0648 Y76.3547 
G01 X13.7478 Y76.3547 
G01 X13.6333 Y76.3547 
G01 X13.5229 Y76.3251 
G01 X13.4240 Y76.2680 
G01 X12.4085 Y75.2524 
G01 X12.3815 Y75.2305 
G01 X12.3685 Y75.2124 
G01 X12.2225 Y75.0665 
G01 X12.1654 Y74.9676 
G01 X12.1358 Y74.8572 
G01 X12.1358 Y74.7427 
G01 X12.1358 Y74.6893 
G01 X11.7442 Y74.6893 
G01 X11.6967 Y74.6696 
G01 X11.6603 Y74.6332 
G01 X11.6406 Y74.5857 
G01 X11.6406 Y72.7342 
G01 X11.6603 Y72.6867 
G01 X11.6967 Y72.6503 
G01 X11.7442 Y72.6306 
G01 X12.2658 Y72.6306 
G01 X12.2658 Y72.0113 
G01 X11.8501 Y72.0113 
G01 X11.6779 Y71.9770 
G01 X11.5157 Y71.9099 
G01 X11.3697 Y71.8123 
G01 X11.2456 Y71.6882 
G01 X11.1480 Y71.5422 
G01 X11.0809 Y71.3800 
G01 X11.0466 Y71.2078 
G01 X11.0466 Y71.0321 
G01 X11.0809 Y70.8599 
G01 X11.1480 Y70.6977 
G01 X11.2456 Y70.5517 
G01 X11.3697 Y70.4276 
G01 X11.5157 Y70.3300 
G01 X11.6779 Y70.2629 
G01 X11.8501 Y70.2286 
G01 X13.5498 Y70.2286 
G01 X13.7220 Y70.2629 
G01 X13.8842 Y70.3300 
G01 X14.0302 Y70.4276 
G01 X14.1543 Y70.5517 
G01 X14.2519 Y70.6977 
G01 X14.3190 Y70.8599 
G01 X14.3533 Y71.0321 
G01 X14.3533 Y71.2078 
G01 X14.3190 Y71.3800 
G01 X14.2519 Y71.5422 
G01 X14.1543 Y71.6882 
G01 X14.0302 Y71.8123 
G01 X13.8842 Y71.9099 
G01 X13.7220 Y71.9770 
G01 X13.5498 Y72.0113 
G01 X13.1341 Y72.0113 
G01 X13.1341 Y72.6306 
G01 X13.3957 Y72.6306 
G01 X13.4432 Y72.6503 
G01 X13.4796 Y72.6867 
G01 X13.4993 Y72.7342 
G01 X13.4993 Y74.5857 
G01 X13.4796 Y74.6332 
G01 X13.4432 Y74.6696 
G01 X13.3957 Y74.6893 
G01 X13.1341 Y74.6893 
G01 X13.1341 Y74.7501 
G01 X13.8704 Y75.4864 
G01 X18.0648 Y75.4864 
G01 X18.1544 Y75.3523 
G01 X18.2785 Y75.2282 
G01 X18.4245 Y75.1306 
G01 X18.5867 Y75.0635 
G01 X18.7589 Y75.0292 
G01 X20.4586 Y75.0292 
G01 X20.6308 Y75.0635 
G01 X20.7930 Y75.1306 
G01 X20.9390 Y75.2282 
G01 X21.0631 Y75.3523 
G01 X21.1527 Y75.4864 
G01 X24.5672 Y75.4864 
G01 X24.6568 Y75.3523 
G01 X24.7809 Y75.2282 
G01 X24.9269 Y75.1306 
G01 X25.0891 Y75.0635 
G01 X25.2613 Y75.0292 
G01 X26.9610 Y75.0292 
G01 X27.1332 Y75.0635 
G01 X27.2954 Y75.1306 
G01 X27.4414 Y75.2282 
G01 X27.5655 Y75.3523 
G01 X27.6551 Y75.4864 
G01 X30.4227 Y75.4864 
G01 X30.5372 Y75.4864 
G01 X38.3848 Y75.4864 
G01 X38.4744 Y75.3523 
G01 X38.5985 Y75.2282 
G01 X38.7445 Y75.1306 
G01 X38.9067 Y75.0635 
G01 X39.0789 Y75.0292 
G01 X40.7786 Y75.0292 
G01 X40.9508 Y75.0635 
G01 X41.1130 Y75.1306 
G01 X41.2590 Y75.2282 
G01 X41.3831 Y75.3523 
G01 X41.4727 Y75.4864 
G01 X44.8872 Y75.4864 
G01 X44.9768 Y75.3523 
G01 X45.1009 Y75.2282 
G01 X45.2469 Y75.1306 
G01 X45.4091 Y75.0635 
G01 X45.5813 Y75.0292 
G01 X47.2810 Y75.0292 
G01 X47.4532 Y75.0635 
G01 X47.6154 Y75.1306 
G01 X47.7614 Y75.2282 
G01 X47.8855 Y75.3523 
G01 X47.9751 Y75.4864 
G01 X58.7048 Y75.4864 
G01 X58.7944 Y75.3523 
G01 X58.9185 Y75.2282 
G01 X59.0645 Y75.1306 
G01 X59.2267 Y75.0635 
G01 X59.3989 Y75.0292 
G01 X61.0986 Y75.0292 
G01 X61.2708 Y75.0635 
G01 X61.4330 Y75.1306 
G01 X61.5790 Y75.2282 
G01 X61.7031 Y75.3523 
G01 X61.7927 Y75.4864 
G01 X65.2072 Y75.4864 
G01 X65.2968 Y75.3523 
G01 X65.4209 Y75.2282 
G01 X65.5669 Y75.1306 
G01 X65.7291 Y75.0635 
G01 X65.9013 Y75.0292 
G01 X67.6010 Y75.0292 
G01 X67.7732 Y75.0635 
G01 X67.9354 Y75.1306 
G01 X68.0814 Y75.2282 
G01 X68.2055 Y75.3523 
G01 X68.2951 Y75.4864 
G01 X79.0248 Y75.4864 
G01 X79.1144 Y75.3523 
G01 X79.2385 Y75.2282 
G01 X79.3845 Y75.1306 
G01 X79.5467 Y75.0635 
G01 X79.7189 Y75.0292 
G01 X81.4186 Y75.0292 
G01 X81.5908 Y75.0635 
G01 X81.7530 Y75.1306 
G01 X81.8990 Y75.2282 
G01 X82.0231 Y75.3523 
G01 X82.1127 Y75.4864 
G01 X82.6495 Y75.4864 
G01 X83.3858 Y74.7501 
G01 X83.3858 Y71.2998 
G01 X82.3701 Y70.2841 
G01 X78.9198 Y70.2841 
G01 X77.8174 Y71.3865 
G01 X77.7365 Y71.4674 
G01 X77.6376 Y71.5245 
G01 X77.5272 Y71.5541 
G01 X75.9593 Y71.5541 
G01 X75.9593 Y72.0757 
G01 X75.9396 Y72.1232 
G01 X75.9032 Y72.1596 
G01 X75.8557 Y72.1793 
G01 X74.0042 Y72.1793 
G01 X73.9567 Y72.1596 
G01 X73.9203 Y72.1232 
G01 X73.9006 Y72.0757 
G01 X73.9006 Y71.5541 
G01 X72.3327 Y71.5541 
G01 X72.2223 Y71.5245 
G01 X72.1234 Y71.4674 
G01 X72.0425 Y71.3865 
G01 X70.7725 Y70.1165 
G01 X70.7154 Y70.0176 
G01 X70.6858 Y69.9072 
G01 X70.6858 Y69.7927 
G01 X70.6858 Y69.2125 
G01 X70.5910 Y69.2125 
G01 X70.5435 Y69.1928 
G01 X70.5071 Y69.1564 
G01 X70.4874 Y69.1089 
G01 X70.4874 Y69.0141 
G01 X69.7927 Y69.0141 
G01 X69.6823 Y68.9845 
G01 X69.5834 Y68.9274 
G01 X69.5025 Y68.8465 
G01 X67.1301 Y66.4741 
G01 X44.5072 Y66.4741 
G01 X44.3927 Y66.4741 
G01 X44.2823 Y66.4445 
G01 X44.1834 Y66.3874 
G01 X42.9134 Y65.1174 
G01 X42.8325 Y65.0365 
G01 X42.7754 Y64.9376 
G01 X42.7458 Y64.8272 
G01 X42.7458 Y62.5039 
G01 X42.6117 Y62.4143 
G01 X42.4876 Y62.2902 
G01 X42.3900 Y62.1442 
G01 X42.3229 Y61.9820 
G01 X42.2886 Y61.8098 
G01 X42.2886 Y60.1101 
G01 X42.3229 Y59.9379 
G01 X42.3900 Y59.7757 
G01 X42.4876 Y59.6297 
G01 X42.6117 Y59.5056 
G01 X42.7458 Y59.4160 
G01 X42.7458 Y58.6939 
G01 X42.6117 Y58.6043 
G01 X42.4876 Y58.4802 
G01 X42.3900 Y58.3342 
G01 X42.3229 Y58.1720 
G01 X42.2886 Y57.9998 
G01 X42.2886 Y56.3001 
G01 X42.3229 Y56.1279 
G01 X42.3900 Y55.9657 
G01 X42.4876 Y55.8197 
G01 X42.6117 Y55.6956 
G01 X42.7577 Y55.5980 
G01 X42.9199 Y55.5309 
G01 X43.0921 Y55.4966 
G01 X43.2678 Y55.4966 
G01 X43.4400 Y55.5309 
G01 X43.6022 Y55.5980 
G01 X43.7482 Y55.6956 
G01 X43.8723 Y55.8197 
G01 X43.9699 Y55.9657 
G01 X44.0370 Y56.1279 
G01 X44.0713 Y56.3001 
G01 X44.0713 Y57.9998 
G01 X44.0370 Y58.1720 
G01 X43.9699 Y58.3342 
G01 X43.8723 Y58.4802 
G01 X43.7482 Y58.6043 
G01 X43.6141 Y58.6939 
G01 X43.6141 Y59.4160 
G01 X43.7482 Y59.5056 
G01 X43.8723 Y59.6297 
G01 X43.9699 Y59.7757 
G01 X44.0370 Y59.9379 
G01 X44.0713 Y60.1101 
G01 X44.0713 Y61.8098 
G01 X44.0370 Y61.9820 
G01 X43.9699 Y62.1442 
G01 X43.8723 Y62.2902 
G01 X43.7482 Y62.4143 
G01 X43.6141 Y62.5039 
G01 X43.6141 Y64.5901 
G01 X44.6298 Y65.6058 
G01 X67.1301 Y65.6058 
G01 X67.6784 Y65.0575 
G01 X67.7773 Y65.0004 
G01 X67.8877 Y64.9708 
G01 X68.0022 Y64.9708 
G01 X70.7617 Y64.9708 
G01 X70.7673 Y64.9651 
G01 X70.8148 Y64.9454 
G01 X72.8983 Y64.9454 
G01 X72.9458 Y64.9651 
G01 X72.9822 Y65.0015 
G01 X73.0019 Y65.0490 
G01 X73.0019 Y65.7609 
G01 X72.9822 Y65.8084 
G01 X72.9458 Y65.8448 
G01 X72.8983 Y65.8645 
G01 X70.8148 Y65.8645 
G01 X70.7673 Y65.8448 
G01 X70.7617 Y65.8391 
G01 X68.1248 Y65.8391 
G01 X67.9239 Y66.0400 
G01 X70.0298 Y68.1458 
G01 X70.4874 Y68.1458 
G01 X70.4874 Y68.0510 
G01 X70.5071 Y68.0035 
G01 X70.5435 Y67.9671 
G01 X70.5910 Y67.9474 
G01 X71.6489 Y67.9474 
G01 X71.6964 Y67.9671 
G01 X71.7328 Y68.0035 
G01 X71.7525 Y68.0510 
G01 X71.7525 Y69.1089 
G01 X71.7328 Y69.1564 
G01 X71.6964 Y69.1928 
G01 X71.6489 Y69.2125 
G01 X71.5541 Y69.2125 
G01 X71.5541 Y69.6701 
G01 X72.5698 Y70.6858 
G01 X73.9006 Y70.6858 
G01 X73.9006 Y70.4242 
G01 X73.9203 Y70.3767 
G01 X73.9567 Y70.3403 
G01 X74.0042 Y70.3206 
G00 Z0.5080 
G00 X72.8983 Y67.1345 
G01 Z-0.2540 F254.00 
G01 X70.8148 Y67.1345 
G01 X70.7673 Y67.1148 
G01 X70.7309 Y67.0784 
G01 X70.7112 Y67.0309 
G01 X70.7112 Y66.3190 
G01 X70.7309 Y66.2715 
G01 X70.7673 Y66.2351 
G01 X70.8148 Y66.2154 
G01 X72.8983 Y66.2154 
G01 X72.9458 Y66.2351 
G01 X72.9822 Y66.2715 
G01 X73.0019 Y66.3190 
G01 X73.0019 Y67.0309 
G01 X72.9822 Y67.0784 
G01 X72.9458 Y67.1148 
G01 X72.8983 Y67.1345 
G00 Z0.5080 
G00 X72.8983 Y64.5945 
G01 Z-0.2540 F254.00 
G01 X70.8148 Y64.5945 
G01 X70.7673 Y64.5748 
G01 X70.7616 Y64.5691 
G01 X64.3148 Y64.5691 
G01 X63.8474 Y65.0365 
G01 X63.7665 Y65.1174 
G01 X63.6676 Y65.1745 
G01 X63.5572 Y65.2041 
G01 X47.0472 Y65.2041 
G01 X46.9327 Y65.2041 
G01 X46.8223 Y65.1745 
G01 X46.7234 Y65.1174 
G01 X45.7385 Y64.1325 
G01 X45.1910 Y64.1325 
G01 X45.1435 Y64.1128 
G01 X45.1071 Y64.0764 
G01 X45.0874 Y64.0289 
G01 X45.0874 Y62.9710 
G01 X45.1071 Y62.9235 
G01 X45.1435 Y62.8871 
G01 X45.1910 Y62.8674 
G01 X45.2858 Y62.8674 
G01 X45.2858 Y58.6939 
G01 X45.1517 Y58.6043 
G01 X45.0276 Y58.4802 
G01 X44.9300 Y58.3342 
G01 X44.8629 Y58.1720 
G01 X44.8286 Y57.9998 
G01 X44.8286 Y56.3001 
G01 X44.8629 Y56.1279 
G01 X44.9300 Y55.9657 
G01 X45.0276 Y55.8197 
G01 X45.1517 Y55.6956 
G01 X45.2977 Y55.5980 
G01 X45.4599 Y55.5309 
G01 X45.6321 Y55.4966 
G01 X45.8078 Y55.4966 
G01 X45.9800 Y55.5309 
G01 X46.1422 Y55.5980 
G01 X46.2882 Y55.6956 
G01 X46.4123 Y55.8197 
G01 X46.5099 Y55.9657 
G01 X46.5770 Y56.1279 
G01 X46.6113 Y56.3001 
G01 X46.6113 Y57.9998 
G01 X46.5770 Y58.1720 
G01 X46.5099 Y58.3342 
G01 X46.4123 Y58.4802 
G01 X46.2882 Y58.6043 
G01 X46.1541 Y58.6939 
G01 X46.1541 Y62.8674 
G01 X46.2489 Y62.8674 
G01 X46.2964 Y62.8871 
G01 X46.3328 Y62.9235 
G01 X46.3525 Y62.9710 
G01 X46.3525 Y63.5185 
G01 X47.1698 Y64.3358 
G01 X63.3201 Y64.3358 
G01 X63.8684 Y63.7875 
G01 X63.9673 Y63.7304 
G01 X64.0777 Y63.7008 
G01 X64.1922 Y63.7008 
G01 X70.7616 Y63.7008 
G01 X70.7673 Y63.6951 
G01 X70.8148 Y63.6754 
G01 X72.8983 Y63.6754 
G01 X72.9458 Y63.6951 
G01 X72.9822 Y63.7315 
G01 X73.0019 Y63.7790 
G01 X73.0019 Y64.4909 
G01 X72.9822 Y64.5384 
G01 X72.9458 Y64.5748 
G01 X72.8983 Y64.5945 
G00 Z0.5080 
G00 X79.0451 Y65.8645 
G01 Z-0.2540 F254.00 
G01 X76.9616 Y65.8645 
G01 X76.9141 Y65.8448 
G01 X76.8777 Y65.8084 
G01 X76.8580 Y65.7609 
G01 X76.8580 Y65.0490 
G01 X76.8777 Y65.0015 
G01 X76.9141 Y64.9651 
G01 X76.9616 Y64.9454 
G01 X79.0451 Y64.9454 
G01 X79.0926 Y64.9651 
G01 X79.0983 Y64.9708 
G01 X79.3177 Y64.9708 
G01 X79.4322 Y64.9708 
G01 X79.5426 Y65.0004 
G01 X79.6415 Y65.0575 
G01 X81.2613 Y66.6774 
G01 X81.8089 Y66.6774 
G01 X81.8564 Y66.6971 
G01 X81.8928 Y66.7335 
G01 X81.9125 Y66.7810 
G01 X81.9125 Y67.8389 
G01 X81.8928 Y67.8864 
G01 X81.8564 Y67.9228 
G01 X81.8089 Y67.9425 
G01 X80.7510 Y67.9425 
G01 X80.7035 Y67.9228 
G01 X80.6671 Y67.8864 
G01 X80.6474 Y67.8389 
G01 X80.6474 Y67.2913 
G01 X79.1951 Y65.8391 
G01 X79.0983 Y65.8391 
G01 X79.0926 Y65.8448 
G01 X79.0451 Y65.8645 
G00 Z0.5080 
G00 X79.0451 Y64.5945 
G01 Z-0.2540 F254.00 
G01 X76.9616 Y64.5945 
G01 X76.9141 Y64.5748 
G01 X76.8777 Y64.5384 
G01 X76.8580 Y64.4909 
G01 X76.8580 Y63.7790 
G01 X76.8777 Y63.7315 
G01 X76.9141 Y63.6951 
G01 X76.9616 Y63.6754 
G01 X79.0451 Y63.6754 
G01 X79.0926 Y63.6951 
G01 X79.0982 Y63.7008 
G01 X83.2422 Y63.7008 
G01 X83.3526 Y63.7304 
G01 X83.4515 Y63.7875 
G01 X83.5324 Y63.8684 
G01 X83.5325 Y63.8686 
G01 X93.9106 Y74.2467 
G01 X93.9197 Y74.2376 
G01 X94.0657 Y74.1400 
G01 X94.2279 Y74.0729 
G01 X94.4001 Y74.0386 
G01 X96.0998 Y74.0386 
G01 X96.2720 Y74.0729 
G01 X96.4342 Y74.1400 
G01 X96.5802 Y74.2376 
G01 X96.7043 Y74.3617 
G01 X96.8019 Y74.5077 
G01 X96.8690 Y74.6699 
G01 X96.9033 Y74.8421 
G01 X96.9033 Y75.0178 
G01 X96.8690 Y75.1900 
G01 X96.8019 Y75.3522 
G01 X96.7043 Y75.4982 
G01 X96.5802 Y75.6223 
G01 X96.4342 Y75.7199 
G01 X96.2720 Y75.7870 
G01 X96.0998 Y75.8213 
G01 X94.4001 Y75.8213 
G01 X94.2279 Y75.7870 
G01 X94.0657 Y75.7199 
G01 X93.9197 Y75.6223 
G01 X93.7956 Y75.4982 
G01 X93.6980 Y75.3522 
G01 X93.6344 Y75.1983 
G01 X93.6325 Y75.1965 
G01 X93.6325 Y75.1964 
G01 X83.0052 Y64.5691 
G01 X79.0982 Y64.5691 
G01 X79.0926 Y64.5748 
G01 X79.0451 Y64.5945 
G00 Z0.5080 
G00 X79.0451 Y62.0545 
G01 Z-0.2540 F254.00 
G01 X76.9616 Y62.0545 
G01 X76.9141 Y62.0348 
G01 X76.8777 Y61.9984 
G01 X76.8580 Y61.9509 
G01 X76.8580 Y61.2390 
G01 X76.8777 Y61.1915 
G01 X76.9141 Y61.1551 
G01 X76.9616 Y61.1354 
G01 X79.0451 Y61.1354 
G01 X79.0926 Y61.1551 
G01 X79.0982 Y61.1608 
G01 X85.6677 Y61.1608 
G01 X85.7822 Y61.1608 
G01 X85.8926 Y61.1904 
G01 X85.9915 Y61.2475 
G01 X93.9106 Y69.1667 
G01 X93.9197 Y69.1576 
G01 X94.0657 Y69.0600 
G01 X94.2279 Y68.9929 
G01 X94.4001 Y68.9586 
G01 X96.0998 Y68.9586 
G01 X96.2720 Y68.9929 
G01 X96.4342 Y69.0600 
G01 X96.5802 Y69.1576 
G01 X96.7043 Y69.2817 
G01 X96.8019 Y69.4277 
G01 X96.8690 Y69.5899 
G01 X96.9033 Y69.7621 
G01 X96.9033 Y69.9378 
G01 X96.8690 Y70.1100 
G01 X96.8019 Y70.2722 
G01 X96.7043 Y70.4182 
G01 X96.5802 Y70.5423 
G01 X96.4342 Y70.6399 
G01 X96.2720 Y70.7070 
G01 X96.0998 Y70.7413 
G01 X94.4001 Y70.7413 
G01 X94.2279 Y70.7070 
G01 X94.0657 Y70.6399 
G01 X93.9197 Y70.5423 
G01 X93.7956 Y70.4182 
G01 X93.6980 Y70.2722 
G01 X93.6344 Y70.1183 
G01 X93.6325 Y70.1165 
G01 X85.5451 Y62.0291 
G01 X79.0982 Y62.0291 
G01 X79.0926 Y62.0348 
G01 X79.0451 Y62.0545 
G00 Z0.5080 
G00 X72.8983 Y60.7845 
G01 Z-0.2540 F254.00 
G01 X70.8148 Y60.7845 
G01 X70.7673 Y60.7648 
G01 X70.7617 Y60.7591 
G01 X51.4922 Y60.7591 
G01 X51.3777 Y60.7591 
G01 X51.2673 Y60.7295 
G01 X51.1684 Y60.6724 
G01 X50.5334 Y60.0374 
G01 X50.4525 Y59.9565 
G01 X50.3954 Y59.8576 
G01 X50.3658 Y59.7472 
G01 X50.3658 Y58.6939 
G01 X50.2317 Y58.6043 
G01 X50.1076 Y58.4802 
G01 X50.0100 Y58.3342 
G01 X49.9429 Y58.1720 
G01 X49.9086 Y57.9998 
G01 X49.9086 Y56.3001 
G01 X49.9429 Y56.1279 
G01 X50.0100 Y55.9657 
G01 X50.1076 Y55.8197 
G01 X50.2317 Y55.6956 
G01 X50.3777 Y55.5980 
G01 X50.5399 Y55.5309 
G01 X50.7121 Y55.4966 
G01 X50.8878 Y55.4966 
G01 X51.0600 Y55.5309 
G01 X51.2222 Y55.5980 
G01 X51.3682 Y55.6956 
G01 X51.4923 Y55.8197 
G01 X51.5899 Y55.9657 
G01 X51.6570 Y56.1279 
G01 X51.6913 Y56.3001 
G01 X51.6913 Y57.9998 
G01 X51.6570 Y58.1720 
G01 X51.5899 Y58.3342 
G01 X51.4923 Y58.4802 
G01 X51.3682 Y58.6043 
G01 X51.2341 Y58.6939 
G01 X51.2341 Y59.5101 
G01 X51.6148 Y59.8908 
G01 X70.7617 Y59.8908 
G01 X70.7673 Y59.8851 
G01 X70.8148 Y59.8654 
G01 X72.8983 Y59.8654 
G01 X72.9458 Y59.8851 
G01 X72.9822 Y59.9215 
G01 X73.0019 Y59.9690 
G01 X73.0019 Y60.6809 
G01 X72.9822 Y60.7284 
G01 X72.9458 Y60.7648 
G01 X72.8983 Y60.7845 
G00 Z0.5080 
G00 X79.0451 Y59.5145 
G01 Z-0.2540 F254.00 
G01 X76.9616 Y59.5145 
G01 X76.9141 Y59.4948 
G01 X76.8777 Y59.4584 
G01 X76.8580 Y59.4109 
G01 X76.8580 Y58.6990 
G01 X76.8777 Y58.6515 
G01 X76.9141 Y58.6151 
G01 X76.9616 Y58.5954 
G01 X79.0451 Y58.5954 
G01 X79.0926 Y58.6151 
G01 X79.0983 Y58.6208 
G01 X88.2077 Y58.6208 
G01 X88.3222 Y58.6208 
G01 X88.4326 Y58.6504 
G01 X88.5315 Y58.7075 
G01 X93.9107 Y64.0867 
G01 X93.9197 Y64.0776 
G01 X94.0657 Y63.9800 
G01 X94.2279 Y63.9129 
G01 X94.4001 Y63.8786 
G01 X96.0998 Y63.8786 
G01 X96.2720 Y63.9129 
G01 X96.4342 Y63.9800 
G01 X96.5802 Y64.0776 
G01 X96.7043 Y64.2017 
G01 X96.8019 Y64.3477 
G01 X96.8690 Y64.5099 
G01 X96.9033 Y64.6821 
G01 X96.9033 Y64.8578 
G01 X96.8690 Y65.0300 
G01 X96.8019 Y65.1922 
G01 X96.7043 Y65.3382 
G01 X96.5802 Y65.4623 
G01 X96.4342 Y65.5599 
G01 X96.2720 Y65.6270 
G01 X96.0998 Y65.6613 
G01 X94.4001 Y65.6613 
G01 X94.2279 Y65.6270 
G01 X94.0657 Y65.5599 
G01 X93.9197 Y65.4623 
G01 X93.7956 Y65.3382 
G01 X93.6980 Y65.1922 
G01 X93.6344 Y65.0383 
G01 X93.6325 Y65.0365 
G01 X88.0851 Y59.4891 
G01 X79.0983 Y59.4891 
G01 X79.0926 Y59.4948 
G01 X79.0451 Y59.5145 
G00 Z0.5080 
G00 X72.8983 Y58.2445 
G01 Z-0.2540 F254.00 
G01 X70.8148 Y58.2445 
G01 X70.7673 Y58.2248 
G01 X70.7616 Y58.2191 
G01 X66.7322 Y58.2191 
G01 X66.6177 Y58.2191 
G01 X66.5073 Y58.1895 
G01 X66.4084 Y58.1324 
G01 X66.0585 Y57.7825 
G01 X65.5110 Y57.7825 
G01 X65.4635 Y57.7628 
G01 X65.4271 Y57.7264 
G01 X65.4074 Y57.6789 
G01 X65.4074 Y56.6210 
G01 X65.4271 Y56.5735 
G01 X65.4635 Y56.5371 
G01 X65.5110 Y56.5174 
G01 X66.5689 Y56.5174 
G01 X66.6164 Y56.5371 
G01 X66.6528 Y56.5735 
G01 X66.6725 Y56.6210 
G01 X66.6725 Y57.1685 
G01 X66.8548 Y57.3508 
G01 X70.7616 Y57.3508 
G01 X70.7673 Y57.3451 
G01 X70.8148 Y57.3254 
G01 X72.8983 Y57.3254 
G01 X72.9458 Y57.3451 
G01 X72.9822 Y57.3815 
G01 X73.0019 Y57.4290 
G01 X73.0019 Y58.1409 
G01 X72.9822 Y58.1884 
G01 X72.9458 Y58.2248 
G01 X72.8983 Y58.2445 
G00 Z0.5080 
G00 X79.0451 Y58.2445 
G01 Z-0.2540 F254.00 
G01 X76.9616 Y58.2445 
G01 X76.9141 Y58.2248 
G01 X76.8777 Y58.1884 
G01 X76.8580 Y58.1409 
G01 X76.8580 Y57.4290 
G01 X76.8777 Y57.3815 
G01 X76.9141 Y57.3451 
G01 X76.9616 Y57.3254 
G01 X79.0451 Y57.3254 
G01 X79.0926 Y57.3451 
G01 X79.0983 Y57.3508 
G01 X89.3551 Y57.3508 
G01 X91.0925 Y55.6134 
G01 X91.1734 Y55.5325 
G01 X91.2723 Y55.4754 
G01 X91.3827 Y55.4458 
G01 X93.7060 Y55.4458 
G01 X93.7956 Y55.3117 
G01 X93.9197 Y55.1876 
G01 X94.0657 Y55.0900 
G01 X94.2279 Y55.0229 
G01 X94.4001 Y54.9886 
G01 X96.0998 Y54.9886 
G01 X96.2720 Y55.0229 
G01 X96.4342 Y55.0900 
G01 X96.5802 Y55.1876 
G01 X96.7043 Y55.3117 
G01 X96.8019 Y55.4577 
G01 X96.8690 Y55.6199 
G01 X96.9033 Y55.7921 
G01 X96.9033 Y55.9678 
G01 X96.8690 Y56.1400 
G01 X96.8019 Y56.3022 
G01 X96.7043 Y56.4482 
G01 X96.5802 Y56.5723 
G01 X96.4342 Y56.6699 
G01 X96.2720 Y56.7370 
G01 X96.0998 Y56.7713 
G01 X94.4001 Y56.7713 
G01 X94.2279 Y56.7370 
G01 X94.0657 Y56.6699 
G01 X93.9197 Y56.5723 
G01 X93.7956 Y56.4482 
G01 X93.7060 Y56.3141 
G01 X91.6198 Y56.3141 
G01 X89.8015 Y58.1324 
G01 X89.7026 Y58.1895 
G01 X89.5922 Y58.2191 
G01 X89.4777 Y58.2191 
G01 X79.0983 Y58.2191 
G01 X79.0926 Y58.2248 
G01 X79.0451 Y58.2445 
G00 Z0.5080 
G00 X29.9716 Y57.3254 
G01 Z-0.2540 F254.00 
G01 X32.0551 Y57.3254 
G01 X32.1026 Y57.3451 
G01 X32.1083 Y57.3508 
G01 X36.0151 Y57.3508 
G01 X39.0225 Y54.3434 
G01 X39.1034 Y54.2625 
G01 X39.2023 Y54.2054 
G01 X39.3127 Y54.1758 
G01 X52.0127 Y54.1758 
G01 X52.1272 Y54.1758 
G01 X52.2376 Y54.2054 
G01 X52.3365 Y54.2625 
G01 X53.6065 Y55.5325 
G01 X53.6083 Y55.5344 
G01 X53.7622 Y55.5980 
G01 X53.9082 Y55.6956 
G01 X54.0323 Y55.8197 
G01 X54.1299 Y55.9657 
G01 X54.1970 Y56.1279 
G01 X54.2313 Y56.3001 
G01 X54.2313 Y57.9998 
G01 X54.1970 Y58.1720 
G01 X54.1299 Y58.3342 
G01 X54.0323 Y58.4802 
G01 X53.9082 Y58.6043 
G01 X53.7622 Y58.7019 
G01 X53.6000 Y58.7690 
G01 X53.4278 Y58.8033 
G01 X53.2521 Y58.8033 
G01 X53.0799 Y58.7690 
G01 X52.9177 Y58.7019 
G01 X52.7717 Y58.6043 
G01 X52.6476 Y58.4802 
G01 X52.5500 Y58.3342 
G01 X52.4829 Y58.1720 
G01 X52.4486 Y57.9998 
G01 X52.4486 Y56.3001 
G01 X52.4829 Y56.1279 
G01 X52.5500 Y55.9657 
G01 X52.6476 Y55.8197 
G01 X52.6567 Y55.8107 
G01 X51.8901 Y55.0441 
G01 X39.5498 Y55.0441 
G01 X36.4615 Y58.1324 
G01 X36.3626 Y58.1895 
G01 X36.2522 Y58.2191 
G01 X36.1377 Y58.2191 
G01 X32.1083 Y58.2191 
G01 X32.1026 Y58.2248 
G01 X32.0551 Y58.2445 
G01 X29.9716 Y58.2445 
G01 X29.9241 Y58.2248 
G01 X29.8877 Y58.1884 
G01 X29.8680 Y58.1409 
G01 X29.8680 Y57.4290 
G01 X29.8877 Y57.3815 
G01 X29.9241 Y57.3451 
G01 X29.9716 Y57.3254 
G00 Z0.5080 
G00 X23.8248 Y58.5954 
G01 Z-0.2540 F254.00 
G01 X25.9083 Y58.5954 
G01 X25.9558 Y58.6151 
G01 X25.9922 Y58.6515 
G01 X26.0119 Y58.6990 
G01 X26.0119 Y59.4109 
G01 X25.9922 Y59.4584 
G01 X25.9558 Y59.4948 
G01 X25.9083 Y59.5145 
G01 X23.8248 Y59.5145 
G01 X23.7773 Y59.4948 
G01 X23.7409 Y59.4584 
G01 X23.7212 Y59.4109 
G01 X23.7212 Y58.6990 
G01 X23.7409 Y58.6515 
G01 X23.7773 Y58.6151 
G01 X23.8248 Y58.5954 
G00 Z0.5080 
G00 X23.8248 Y59.8654 
G01 Z-0.2540 F254.00 
G01 X25.9083 Y59.8654 
G01 X25.9558 Y59.8851 
G01 X25.9922 Y59.9215 
G01 X26.0119 Y59.9690 
G01 X26.0119 Y60.6809 
G01 X25.9922 Y60.7284 
G01 X25.9558 Y60.7648 
G01 X25.9083 Y60.7845 
G01 X23.8248 Y60.7845 
G01 X23.7773 Y60.7648 
G01 X23.7409 Y60.7284 
G01 X23.7212 Y60.6809 
G01 X23.7212 Y59.9690 
G01 X23.7409 Y59.9215 
G01 X23.7773 Y59.8851 
G01 X23.8248 Y59.8654 
G00 Z0.5080 
G00 X29.9716 Y61.1354 
G01 Z-0.2540 F254.00 
G01 X32.0551 Y61.1354 
G01 X32.1026 Y61.1551 
G01 X32.1083 Y61.1608 
G01 X36.1377 Y61.1608 
G01 X36.2522 Y61.1608 
G01 X36.3626 Y61.1904 
G01 X36.4615 Y61.2475 
G01 X37.0965 Y61.8825 
G01 X37.1774 Y61.9634 
G01 X37.2345 Y62.0623 
G01 X37.2641 Y62.1727 
G01 X37.2641 Y65.8601 
G01 X39.5498 Y68.1458 
G01 X49.4727 Y68.1458 
G01 X49.5872 Y68.1458 
G01 X49.6976 Y68.1754 
G01 X49.7965 Y68.2325 
G01 X51.0665 Y69.5025 
G01 X51.1474 Y69.5834 
G01 X51.2045 Y69.6823 
G01 X51.2341 Y69.7927 
G01 X51.2341 Y70.0606 
G01 X51.8257 Y70.0606 
G01 X51.8732 Y70.0803 
G01 X51.9096 Y70.1167 
G01 X51.9293 Y70.1642 
G01 X51.9293 Y70.5558 
G01 X59.1941 Y70.5558 
G01 X59.2267 Y70.5423 
G01 X59.3989 Y70.5080 
G01 X61.0986 Y70.5080 
G01 X61.2708 Y70.5423 
G01 X61.4330 Y70.6094 
G01 X61.5790 Y70.7070 
G01 X61.7031 Y70.8311 
G01 X61.8007 Y70.9771 
G01 X61.8678 Y71.1393 
G01 X61.9021 Y71.3115 
G01 X61.9021 Y71.4872 
G01 X61.8678 Y71.6594 
G01 X61.8007 Y71.8216 
G01 X61.7031 Y71.9676 
G01 X61.5790 Y72.0917 
G01 X61.4330 Y72.1893 
G01 X61.2708 Y72.2564 
G01 X61.0986 Y72.2907 
G01 X59.3989 Y72.2907 
G01 X59.2267 Y72.2564 
G01 X59.0645 Y72.1893 
G01 X58.9185 Y72.0917 
G01 X58.7944 Y71.9676 
G01 X58.6968 Y71.8216 
G01 X58.6297 Y71.6594 
G01 X58.5954 Y71.4872 
G01 X58.5954 Y71.4241 
G01 X51.9293 Y71.4241 
G01 X51.9293 Y71.8157 
G01 X51.9096 Y71.8632 
G01 X51.8732 Y71.8996 
G01 X51.8257 Y71.9193 
G01 X49.7742 Y71.9193 
G01 X49.7267 Y71.8996 
G01 X49.6903 Y71.8632 
G01 X49.6706 Y71.8157 
G01 X49.6706 Y70.1642 
G01 X49.6903 Y70.1167 
G01 X49.7267 Y70.0803 
G01 X49.7742 Y70.0606 
G01 X50.3658 Y70.0606 
G01 X50.3658 Y70.0298 
G01 X49.3501 Y69.0141 
G01 X39.3127 Y69.0141 
G01 X39.2023 Y68.9845 
G01 X39.1034 Y68.9274 
G01 X39.0225 Y68.8465 
G01 X36.4825 Y66.3065 
G01 X36.4254 Y66.2076 
G01 X36.3958 Y66.0972 
G01 X36.3958 Y65.9827 
G01 X36.3958 Y62.4098 
G01 X36.0151 Y62.0291 
G01 X32.1083 Y62.0291 
G01 X32.1026 Y62.0348 
G01 X32.0551 Y62.0545 
G01 X29.9716 Y62.0545 
G01 X29.9241 Y62.0348 
G01 X29.8877 Y61.9984 
G01 X29.8680 Y61.9509 
G01 X29.8680 Y61.2390 
G01 X29.8877 Y61.1915 
G01 X29.9241 Y61.1551 
G01 X29.9716 Y61.1354 
G00 Z0.5080 
G00 X23.8248 Y61.1354 
G01 Z-0.2540 F254.00 
G01 X25.9083 Y61.1354 
G01 X25.9558 Y61.1551 
G01 X25.9922 Y61.1915 
G01 X26.0119 Y61.2390 
G01 X26.0119 Y61.9509 
G01 X25.9922 Y61.9984 
G01 X25.9558 Y62.0348 
G01 X25.9083 Y62.0545 
G01 X23.8248 Y62.0545 
G01 X23.7773 Y62.0348 
G01 X23.7409 Y61.9984 
G01 X23.7212 Y61.9509 
G01 X23.7212 Y61.2390 
G01 X23.7409 Y61.1915 
G01 X23.7773 Y61.1551 
G01 X23.8248 Y61.1354 
G00 Z0.5080 
G00 X23.8248 Y64.9454 
G01 Z-0.2540 F254.00 
G01 X25.9083 Y64.9454 
G01 X25.9558 Y64.9651 
G01 X25.9922 Y65.0015 
G01 X26.0119 Y65.0490 
G01 X26.0119 Y65.7609 
G01 X25.9922 Y65.8084 
G01 X25.9558 Y65.8448 
G01 X25.9083 Y65.8645 
G01 X23.8248 Y65.8645 
G01 X23.7773 Y65.8448 
G01 X23.7716 Y65.8391 
G01 X22.4048 Y65.8391 
G01 X22.2225 Y66.0213 
G01 X22.2225 Y66.5689 
G01 X22.2028 Y66.6164 
G01 X22.1664 Y66.6528 
G01 X22.1189 Y66.6725 
G01 X21.0610 Y66.6725 
G01 X21.0135 Y66.6528 
G01 X20.9771 Y66.6164 
G01 X20.9574 Y66.5689 
G01 X20.9574 Y65.5110 
G01 X20.9771 Y65.4635 
G01 X21.0135 Y65.4271 
G01 X21.0610 Y65.4074 
G01 X21.6086 Y65.4074 
G01 X21.9584 Y65.0575 
G01 X22.0573 Y65.0004 
G01 X22.1677 Y64.9708 
G01 X22.2822 Y64.9708 
G01 X23.7716 Y64.9708 
G01 X23.7773 Y64.9651 
G01 X23.8248 Y64.9454 
G00 Z0.5080 
G00 X29.9716 Y66.2154 
G01 Z-0.2540 F254.00 
G01 X32.0551 Y66.2154 
G01 X32.1026 Y66.2351 
G01 X32.1390 Y66.2715 
G01 X32.1587 Y66.3190 
G01 X32.1587 Y67.0309 
G01 X32.1390 Y67.0784 
G01 X32.1026 Y67.1148 
G01 X32.0551 Y67.1345 
G01 X31.4475 Y67.1345 
G01 X31.4475 Y67.9893 
G01 X31.4475 Y68.1038 
G01 X31.4179 Y68.2142 
G01 X31.3608 Y68.3131 
G01 X29.8425 Y69.8313 
G01 X29.8425 Y70.3789 
G01 X29.8228 Y70.4264 
G01 X29.7864 Y70.4628 
G01 X29.7389 Y70.4825 
G01 X28.6810 Y70.4825 
G01 X28.6335 Y70.4628 
G01 X28.5971 Y70.4264 
G01 X28.5774 Y70.3789 
G01 X28.5774 Y69.3210 
G01 X28.5971 Y69.2735 
G01 X28.6335 Y69.2371 
G01 X28.6810 Y69.2174 
G01 X29.2286 Y69.2174 
G01 X30.5792 Y67.8667 
G01 X30.5792 Y67.1345 
G01 X29.9716 Y67.1345 
G01 X29.9241 Y67.1148 
G01 X29.8877 Y67.0784 
G01 X29.8680 Y67.0309 
G01 X29.8680 Y66.3190 
G01 X29.8877 Y66.2715 
G01 X29.9241 Y66.2351 
G01 X29.9716 Y66.2154 
G00 Z0.5080 
G00 X18.7589 Y70.5080 
G01 Z-0.2540 F254.00 
G01 X20.4586 Y70.5080 
G01 X20.6308 Y70.5423 
G01 X20.7930 Y70.6094 
G01 X20.9390 Y70.7070 
G01 X21.0631 Y70.8311 
G01 X21.1607 Y70.9771 
G01 X21.2278 Y71.1393 
G01 X21.2621 Y71.3115 
G01 X21.2621 Y71.4872 
G01 X21.2278 Y71.6594 
G01 X21.1607 Y71.8216 
G01 X21.0631 Y71.9676 
G01 X20.9390 Y72.0917 
G01 X20.7930 Y72.1893 
G01 X20.6308 Y72.2564 
G01 X20.4586 Y72.2907 
G01 X18.7589 Y72.2907 
G01 X18.5867 Y72.2564 
G01 X18.4245 Y72.1893 
G01 X18.2785 Y72.0917 
G01 X18.1544 Y71.9676 
G01 X18.0568 Y71.8216 
G01 X17.9897 Y71.6594 
G01 X17.9554 Y71.4872 
G01 X17.9554 Y71.3115 
G01 X17.9897 Y71.1393 
G01 X18.0568 Y70.9771 
G01 X18.1544 Y70.8311 
G01 X18.2785 Y70.7070 
G01 X18.4245 Y70.6094 
G01 X18.5867 Y70.5423 
G01 X18.7589 Y70.5080 
G00 Z0.5080 
G00 X25.2613 Y70.5080 
G01 Z-0.2540 F254.00 
G01 X26.9610 Y70.5080 
G01 X27.1332 Y70.5423 
G01 X27.2954 Y70.6094 
G01 X27.4414 Y70.7070 
G01 X27.5655 Y70.8311 
G01 X27.6551 Y70.9652 
G01 X30.6206 Y70.9652 
G01 X30.6206 Y70.1642 
G01 X30.6403 Y70.1167 
G01 X30.6767 Y70.0803 
G01 X30.7242 Y70.0606 
G01 X31.3158 Y70.0606 
G01 X31.3158 Y69.9072 
G01 X31.3158 Y69.7927 
G01 X31.3454 Y69.6823 
G01 X31.4025 Y69.5834 
G01 X33.8558 Y67.1301 
G01 X33.8558 Y64.9497 
G01 X33.4751 Y64.5691 
G01 X32.1083 Y64.5691 
G01 X32.1026 Y64.5748 
G01 X32.0551 Y64.5945 
G01 X29.9716 Y64.5945 
G01 X29.9241 Y64.5748 
G01 X29.8877 Y64.5384 
G01 X29.8680 Y64.4909 
G01 X29.8680 Y63.7790 
G01 X29.8877 Y63.7315 
G01 X29.9241 Y63.6951 
G01 X29.9716 Y63.6754 
G01 X32.0551 Y63.6754 
G01 X32.1026 Y63.6951 
G01 X32.1083 Y63.7008 
G01 X33.5977 Y63.7008 
G01 X33.7122 Y63.7008 
G01 X33.8226 Y63.7304 
G01 X33.9215 Y63.7875 
G01 X34.5564 Y64.4225 
G01 X34.5565 Y64.4225 
G01 X34.6374 Y64.5034 
G01 X34.6945 Y64.6023 
G01 X34.7241 Y64.7127 
G01 X34.7241 Y67.2527 
G01 X34.7241 Y67.3672 
G01 X34.6945 Y67.4776 
G01 X34.6374 Y67.5765 
G01 X32.1841 Y70.0298 
G01 X32.1841 Y70.0606 
G01 X32.7757 Y70.0606 
G01 X32.8232 Y70.0803 
G01 X32.8596 Y70.1167 
G01 X32.8793 Y70.1642 
G01 X32.8793 Y71.8157 
G01 X32.8596 Y71.8632 
G01 X32.8232 Y71.8996 
G01 X32.7757 Y71.9193 
G01 X30.7242 Y71.9193 
G01 X30.6767 Y71.8996 
G01 X30.6403 Y71.8632 
G01 X30.6280 Y71.8335 
G01 X27.6551 Y71.8335 
G01 X27.5655 Y71.9676 
G01 X27.4414 Y72.0917 
G01 X27.2954 Y72.1893 
G01 X27.1332 Y72.2564 
G01 X26.9610 Y72.2907 
G01 X25.2613 Y72.2907 
G01 X25.0891 Y72.2564 
G01 X24.9269 Y72.1893 
G01 X24.7809 Y72.0917 
G01 X24.6568 Y71.9676 
G01 X24.5592 Y71.8216 
G01 X24.4921 Y71.6594 
G01 X24.4578 Y71.4872 
G01 X24.4578 Y71.3115 
G01 X24.4921 Y71.1393 
G01 X24.5592 Y70.9771 
G01 X24.6568 Y70.8311 
G01 X24.7809 Y70.7070 
G01 X24.9269 Y70.6094 
G01 X25.0891 Y70.5423 
G01 X25.2613 Y70.5080 
G00 Z0.5080 
G00 X39.0789 Y70.5080 
G01 Z-0.2540 F254.00 
G01 X40.7786 Y70.5080 
