%
(Header)
(Generated by gcodetools from Inkscape.)
(Using default header. To add your own header create file "header" in the output dir.)
M3
(Header end.)
G21 (All units in mm)
 
G00 Z5.000000
G00 X41.337687 Y72.982406

G01 Z-1.000000 F100.0
G01 X70.131526 Y72.982406 Z-1.000000 F400.000000
G00 Z5.000000

G00 Z5.000000
G00 X59.266667 Y56.847626

G01 Z-1.000000 F100.0
G03 X53.182737 Y57.395024 Z-1.000000 I-3.335076 J-2.984016 F400.000000
G03 X39.763096 Y45.004370 Z-1.000000 I66.764127 J-85.770952
G03 X32.362075 Y36.442677 Z-1.000000 I147.478004 J-134.964719
G03 X25.400000 Y27.415878 Z-1.000000 I160.412966 J-130.919498
G00 Z5.000000

G00 Z5.000000
G00 X11.973675 Y68.991180

G01 Z-1.000000 F100.0
G01 X29.078925 Y51.030670 Z-1.000000 F400.000000
G00 Z5.000000


(Footer)
M5
G00 X0.0000 Y0.0000
M2
(Using default footer. To add your own footer create file "footer" in the output dir.)
(end)
%