%
(Header)
(Generated by gcodetools from Inkscape.)
(Using default header. To add your own header create file "header" in the output dir.)
M3
(Header end.)
G21 (All units in mm)
 
G00 Z5.000000
G00 X218.673457 Y158.930637

G01 Z-1.000000 F25.0
G01 X218.704941 Y158.913856 Z-1.000000 F25.000000
G01 X218.718971 Y158.929419 Z-1.000000
G01 X218.711144 Y158.942906 Z-1.000000
G01 X218.673457 Y158.930637 Z-1.000000
G01 X218.673457 Y158.930637 Z-1.000000
G00 Z5.000000

G00 Z5.000000
G00 X218.258692 Y163.144650

G01 Z-1.000000 F25.0
G01 X218.327248 Y163.128484 Z-1.000000 F25.000000
G01 X218.338182 Y163.146322 Z-1.000000
G01 X218.319123 Y163.167002 Z-1.000000
G01 X218.258692 Y163.144650 Z-1.000000
G01 X218.258692 Y163.144650 Z-1.000000
G00 Z5.000000

G00 Z5.000000
G00 X218.043014 Y163.688822

G01 Z-1.000000 F25.0
G01 X217.987274 Y163.690183 Z-1.000000 F25.000000
G01 X217.978010 Y163.710426 Z-1.000000
G01 X217.990068 Y163.720328 Z-1.000000
G01 X218.043014 Y163.688822 Z-1.000000
G01 X218.043014 Y163.688822 Z-1.000000
G00 Z5.000000

G00 Z5.000000
G00 X214.675122 Y167.458207

G01 Z-1.000000 F25.0
G01 X214.637435 Y167.445938 Z-1.000000 F25.000000
G01 X214.629608 Y167.459425 Z-1.000000
G01 X214.643638 Y167.474988 Z-1.000000
G01 X214.675122 Y167.458207 Z-1.000000
G01 X214.675122 Y167.458207 Z-1.000000
G00 Z5.000000

G00 Z5.000000
G00 X211.174505 Y165.251657

G01 Z-1.000000 F25.0
G01 X211.202417 Y165.234909 Z-1.000000 F25.000000
G01 X211.216019 Y165.251158 Z-1.000000
G01 X211.207215 Y165.265597 Z-1.000000
G01 X211.174505 Y165.251657 Z-1.000000
G01 X211.174505 Y165.251657 Z-1.000000
G00 Z5.000000

G00 Z5.000000
G00 X210.776330 Y159.162905

G01 Z-1.000000 F25.0
G01 X210.807814 Y159.146125 Z-1.000000 F25.000000
G01 X210.821844 Y159.161687 Z-1.000000
G01 X210.814017 Y159.175174 Z-1.000000
G01 X210.776330 Y159.162905 Z-1.000000
G01 X210.776330 Y159.162905 Z-1.000000
G00 Z5.000000

G00 Z5.000000
G00 X211.383546 Y158.844366

G01 Z-1.000000 F25.0
G01 X211.440309 Y158.836166 Z-1.000000 F25.000000
G01 X211.443993 Y158.845402 Z-1.000000
G01 X211.420917 Y158.862022 Z-1.000000
G01 X211.383546 Y158.844366 Z-1.000000
G01 X211.383546 Y158.844366 Z-1.000000
G00 Z5.000000

G00 Z5.000000
G00 X212.966290 Y157.603389

G01 Z-1.000000 F25.0
G01 X212.997774 Y157.586608 Z-1.000000 F25.000000
G01 X213.011803 Y157.602171 Z-1.000000
G01 X213.003976 Y157.615658 Z-1.000000
G01 X212.966290 Y157.603389 Z-1.000000
G01 X212.966290 Y157.603389 Z-1.000000
G00 Z5.000000

G00 Z5.000000
G00 X213.646504 Y156.674315

G01 Z-1.000000 F25.0
G01 X213.677988 Y156.657534 Z-1.000000 F25.000000
G01 X213.692018 Y156.673097 Z-1.000000
G01 X213.684191 Y156.686584 Z-1.000000
G01 X213.646504 Y156.674315 Z-1.000000
G01 X213.646504 Y156.674315 Z-1.000000
G00 Z5.000000

G00 Z5.000000
G00 X214.923981 Y152.725752

G01 Z-1.000000 F25.0
G01 X214.873262 Y152.708426 Z-1.000000 F25.000000
G01 X214.860400 Y152.725752 Z-1.000000
G01 X214.873262 Y152.743077 Z-1.000000
G01 X214.923981 Y152.725752 Z-1.000000
G01 X214.923981 Y152.725752 Z-1.000000
G00 Z5.000000

G00 Z5.000000
G00 X216.649403 Y150.701698

G01 Z-1.000000 F25.0
G01 X216.598684 Y150.684372 Z-1.000000 F25.000000
G01 X216.585822 Y150.701698 Z-1.000000
G01 X216.598684 Y150.719024 Z-1.000000
G01 X216.649403 Y150.701698 Z-1.000000
G01 X216.649403 Y150.701698 Z-1.000000
G00 Z5.000000

G00 Z5.000000
G00 X212.077033 Y147.227626

G01 Z-1.000000 F25.0
G01 X212.019198 Y147.226659 Z-1.000000 F25.000000
G01 X212.017566 Y147.234277 Z-1.000000
G01 X212.046690 Y147.247796 Z-1.000000
G01 X212.077033 Y147.227626 Z-1.000000
G01 X212.077033 Y147.227626 Z-1.000000
G00 Z5.000000

G00 Z5.000000
G00 X208.802048 Y148.744007

G01 Z-1.000000 F25.0
G03 X208.619907 Y148.678848 Z-1.000000 I0.250326 J-0.986903 F25.000000
G01 X208.622207 Y148.671076 Z-1.000000
G03 X208.793629 Y148.702756 Z-1.000000 I-0.258108 J1.876259
G01 X208.802048 Y148.744007 Z-1.000000
G01 X208.802048 Y148.744007 Z-1.000000
G00 Z5.000000

G00 Z5.000000
G00 X207.043445 Y149.109000

G01 Z-1.000000 F25.0
G01 X207.005758 Y149.096731 Z-1.000000 F25.000000
G01 X206.997931 Y149.110218 Z-1.000000
G01 X207.011960 Y149.125781 Z-1.000000
G01 X207.043445 Y149.109000 Z-1.000000
G01 X207.043445 Y149.109000 Z-1.000000
G00 Z5.000000

G00 Z5.000000
G00 X206.051326 Y153.067518

G01 Z-1.000000 F25.0
G01 X206.033670 Y153.104889 Z-1.000000 F25.000000
G01 X206.050290 Y153.127965 Z-1.000000
G01 X206.059526 Y153.124281 Z-1.000000
G01 X206.051326 Y153.067518 Z-1.000000
G01 X206.051326 Y153.067518 Z-1.000000
G00 Z5.000000

G00 Z5.000000
G00 X207.096534 Y153.283196

G01 Z-1.000000 F25.0
G01 X207.018976 Y153.118648 Z-1.000000 F25.000000
G01 X207.080739 Y153.081374 Z-1.000000
G01 X207.176674 Y153.164335 Z-1.000000
G01 X207.096534 Y153.283196 Z-1.000000
G01 X207.096534 Y153.283196 Z-1.000000
G00 Z5.000000

G00 Z5.000000
G00 X207.534526 Y153.243378

G01 Z-1.000000 F25.0
G01 X207.655727 Y153.193429 Z-1.000000 F25.000000
G03 X207.762490 Y153.240331 Z-1.000000 I-0.073812 J0.312982
G01 X207.757982 Y153.259074 Z-1.000000
G03 X207.534526 Y153.243378 Z-1.000000 I-0.071860 J-0.575429
G01 X207.534526 Y153.243378 Z-1.000000
G00 Z5.000000

G00 Z5.000000
G00 X207.026854 Y154.119362

G01 Z-1.000000 F25.0
G01 X206.989167 Y154.107093 Z-1.000000 F25.000000
G01 X206.981340 Y154.120580 Z-1.000000
G01 X206.995370 Y154.136143 Z-1.000000
G01 X207.026854 Y154.119362 Z-1.000000
G01 X207.026854 Y154.119362 Z-1.000000
G00 Z5.000000

G00 Z5.000000
G00 X208.934773 Y155.479792

G01 Z-1.000000 F25.0
G01 X208.893911 Y155.458539 Z-1.000000 F25.000000
G01 X208.874549 Y155.478063 Z-1.000000
G01 X208.882814 Y155.493485 Z-1.000000
G01 X208.934773 Y155.479792 Z-1.000000
G01 X208.934773 Y155.479792 Z-1.000000
G00 Z5.000000

G00 Z5.000000
G00 X209.349538 Y155.658970

G01 Z-1.000000 F25.0
G01 X209.263431 Y155.658734 Z-1.000000 F25.000000
G01 X209.251095 Y155.678217 Z-1.000000
G01 X209.263668 Y155.690580 Z-1.000000
G01 X209.349538 Y155.658970 Z-1.000000
G01 X209.349538 Y155.658970 Z-1.000000
G00 Z5.000000

G00 Z5.000000
G00 X209.366129 Y155.831512

G01 Z-1.000000 F25.0
G03 X205.838332 Y154.420842 Z-1.000000 I-0.011022 J-5.088918 F25.000000
G03 X204.737351 Y150.751470 Z-1.000000 I2.681247 J-2.804357
G03 X205.315787 Y149.715793 Z-1.000000 I3.549940 J1.303307
G01 X205.351203 Y149.739443 Z-1.000000
G03 X207.016805 Y148.643952 Z-1.000000 I3.379194 J3.323830
G03 X208.559826 Y148.820324 Z-1.000000 I0.603644 J1.556788
G02 X205.897704 Y149.839670 Z-1.000000 I-0.322744 J3.142987
G02 X205.855557 Y152.413848 Z-1.000000 I1.444271 J1.311081
G03 X206.646968 Y153.645071 Z-1.000000 I-0.495391 J1.188394
G01 X206.638634 Y153.644871 Z-1.000000
G02 X208.227311 Y155.069703 Z-1.000000 I4.731879 J-3.677913
G02 X209.837302 Y155.814922 Z-1.000000 I3.932451 J-6.384030
G03 X209.572903 Y155.820320 Z-1.000000 I-0.136213 J-0.193875
G01 X209.366129 Y155.831512 Z-1.000000
G01 X209.366129 Y155.831512 Z-1.000000
G00 Z5.000000

G00 Z5.000000
G00 X201.837313 Y165.420881

G01 Z-1.000000 F25.0
G02 X203.441613 Y163.187952 Z-1.000000 I-19.187738 J-15.478669 F25.000000
G02 X204.700851 Y160.755603 Z-1.000000 I-12.920669 J-8.231220
G02 X202.550435 Y156.914938 Z-1.000000 I-22.862517 J10.278539
G02 X199.137193 Y154.126828 Z-1.000000 I-6.420577 J4.376835
G02 X196.312758 Y155.413735 Z-1.000000 I-0.455367 J2.743498
G02 X197.022721 Y156.667679 Z-1.000000 I0.701052 J0.431032
G02 X196.767521 Y157.578677 Z-1.000000 I0.330826 J0.583919
G02 X197.551068 Y158.505150 Z-1.000000 I2.762770 J-1.541990
G02 X198.535480 Y159.269827 Z-1.000000 I25.291853 J-31.543678
G01 X198.452830 Y159.478127 Z-1.000000
G03 X200.523024 Y162.305679 Z-1.000000 I-4.429301 J5.414536
G03 X201.774269 Y165.467334 Z-1.000000 I-804.797009 J320.332089
G01 X201.837313 Y165.420881 Z-1.000000
G01 X201.837313 Y165.420881 Z-1.000000
G00 Z5.000000

G00 Z5.000000
G00 X188.312654 Y164.173267

G01 Z-1.000000 F25.0
G01 X188.204193 Y164.129343 Z-1.000000 F25.000000
G02 X188.099931 Y164.171437 Z-1.000000 I0.079848 J0.347946
G01 X188.103386 Y164.187144 Z-1.000000
G02 X188.312654 Y164.173267 Z-1.000000 I0.065382 J-0.598870
G01 X188.312654 Y164.173267 Z-1.000000
G00 Z5.000000

G00 Z5.000000
G00 X188.153384 Y163.808274

G01 Z-1.000000 F25.0
G01 X188.168751 Y163.800923 Z-1.000000 F25.000000
G01 X188.174982 Y163.811229 Z-1.000000
G01 X188.168698 Y163.818778 Z-1.000000
G01 X188.153384 Y163.808274 Z-1.000000
G01 X188.153384 Y163.808274 Z-1.000000
G00 Z5.000000

G00 Z5.000000
G00 X188.017341 Y162.932290

G01 Z-1.000000 F25.0
G01 X188.033309 Y162.908606 Z-1.000000 F25.000000
G01 X188.040205 Y162.912124 Z-1.000000
G01 X188.036226 Y162.932615 Z-1.000000
G01 X188.017341 Y162.932290 Z-1.000000
G01 X188.017341 Y162.932290 Z-1.000000
G00 Z5.000000

G00 Z5.000000
G00 X187.980842 Y162.812838

G01 Z-1.000000 F25.0
G01 X188.012326 Y162.796057 Z-1.000000 F25.000000
G01 X188.026356 Y162.811620 Z-1.000000
G01 X188.018529 Y162.825107 Z-1.000000
G01 X187.980842 Y162.812838 Z-1.000000
G01 X187.980842 Y162.812838 Z-1.000000
G00 Z5.000000

G00 Z5.000000
G00 X187.559441 Y161.926900

G01 Z-1.000000 F25.0
G01 X187.504737 Y161.860085 Z-1.000000 F25.000000
G01 X187.496715 Y161.865541 Z-1.000000
G02 X187.526995 Y161.933465 Z-1.000000 I0.241349 J-0.066884
G01 X187.559441 Y161.926900 Z-1.000000
G01 X187.559441 Y161.926900 Z-1.000000
G00 Z5.000000

G00 Z5.000000
G00 X186.885862 Y160.755603

G01 Z-1.000000 F25.0
G01 X186.936581 Y160.738278 Z-1.000000 F25.000000
G01 X186.949443 Y160.755603 Z-1.000000
G01 X186.936581 Y160.772929 Z-1.000000
G01 X186.885862 Y160.755603 Z-1.000000
G01 X186.885862 Y160.755603 Z-1.000000
G00 Z5.000000

G00 Z5.000000
G00 X186.719956 Y160.672650

G01 Z-1.000000 F25.0
G02 X186.539443 Y160.524625 Z-1.000000 I-0.349005 J0.241526 F25.000000
G01 X186.509174 Y160.537588 Z-1.000000
G01 X186.519531 Y160.581631 Z-1.000000
G02 X186.719956 Y160.672650 Z-1.000000 I0.233380 J-0.247725
G01 X186.719956 Y160.672650 Z-1.000000
G00 Z5.000000

G00 Z5.000000
G00 X186.378190 Y160.566470

G01 Z-1.000000 F25.0
G01 X186.313558 Y160.629420 Z-1.000000 F25.000000
G01 X186.322543 Y160.644861 Z-1.000000
G01 X186.365272 Y160.633001 Z-1.000000
G01 X186.378190 Y160.566470 Z-1.000000
G01 X186.378190 Y160.566470 Z-1.000000
G00 Z5.000000

G00 Z5.000000
G00 X186.222238 Y160.261203

G01 Z-1.000000 F25.0
G01 X186.275184 Y160.229697 Z-1.000000 F25.000000
G01 X186.287243 Y160.239599 Z-1.000000
G01 X186.277979 Y160.259842 Z-1.000000
G01 X186.222238 Y160.261203 Z-1.000000
G01 X186.222238 Y160.261203 Z-1.000000
G00 Z5.000000

G00 Z5.000000
G00 X186.056332 Y160.277794

G01 Z-1.000000 F25.0
G01 X186.109278 Y160.246288 Z-1.000000 F25.000000
G01 X186.121337 Y160.256189 Z-1.000000
G01 X186.112073 Y160.276432 Z-1.000000
G01 X186.056332 Y160.277794 Z-1.000000
G01 X186.056332 Y160.277794 Z-1.000000
G00 Z5.000000

G00 Z5.000000
G00 X185.060896 Y162.713294

G01 Z-1.000000 F25.0
G01 X185.010177 Y162.695969 Z-1.000000 F25.000000
G01 X184.997315 Y162.713294 Z-1.000000
G01 X185.010177 Y162.730620 Z-1.000000
G01 X185.060896 Y162.713294 Z-1.000000
G01 X185.060896 Y162.713294 Z-1.000000
G00 Z5.000000

G00 Z5.000000
G00 X186.172466 Y167.159576

G01 Z-1.000000 F25.0
G01 X186.203950 Y167.142795 Z-1.000000 F25.000000
G01 X186.217980 Y167.158358 Z-1.000000
G01 X186.210153 Y167.171845 Z-1.000000
G01 X186.172466 Y167.159576 Z-1.000000
G01 X186.172466 Y167.159576 Z-1.000000
G00 Z5.000000

G00 Z5.000000
G00 X187.234265 Y168.121831

G01 Z-1.000000 F25.0
G02 X186.610522 Y167.806910 Z-1.000000 I-0.856513 J0.921276 F25.000000
G01 X186.613776 Y167.717020 Z-1.000000
G02 X186.250112 Y167.154884 Z-1.000000 I-0.813157 J0.127357
G03 X185.966743 Y166.485997 Z-1.000000 I0.355282 J-0.544980
G03 X185.320628 Y165.116377 Z-1.000000 I3.809916 J-2.634529
G03 X185.104032 Y162.925654 Z-1.000000 I5.978928 J-1.697206
G03 X185.009125 Y162.185533 Z-1.000000 I1.137045 J-0.521950
G02 X185.094077 Y161.203550 Z-1.000000 I-5.460884 J-0.967091
G03 X185.817452 Y160.491726 Z-1.000000 I1.067765 J0.361625
G03 X186.842727 Y160.662696 Z-1.000000 I0.346693 J1.080625
G03 X187.631782 Y162.181569 Z-1.000000 I-7.013489 J4.607905
G01 X187.712074 Y162.152532 Z-1.000000
G03 X188.450052 Y164.265878 Z-1.000000 I-16.087538 J6.803274
G01 X188.312654 Y164.322583 Z-1.000000
G03 X188.511374 Y165.982155 Z-1.000000 I-5.993473 J1.559350
G03 X188.252928 Y167.524569 Z-1.000000 I-5.237758 J-0.084774
G03 X187.839735 Y167.904759 Z-1.000000 I-1.114765 J-0.796908
G03 X187.234265 Y168.121831 Z-1.000000 I-0.857377 J-1.438509
G01 X187.234265 Y168.121831 Z-1.000000
G00 Z5.000000

G00 Z5.000000
G00 X188.179929 Y167.537842

G01 Z-1.000000 F25.0
G01 X188.114063 Y167.512740 Z-1.000000 F25.000000
G01 X188.087351 Y167.547056 Z-1.000000
G01 X188.102747 Y167.569008 Z-1.000000
G01 X188.179929 Y167.537842 Z-1.000000
G01 X188.179929 Y167.537842 Z-1.000000
G00 Z5.000000

G00 Z5.000000
G00 X178.905783 Y164.007361

G01 Z-1.000000 F25.0
G01 X178.868096 Y163.995092 Z-1.000000 F25.000000
G01 X178.860269 Y164.008580 Z-1.000000
G01 X178.874298 Y164.024142 Z-1.000000
G01 X178.905783 Y164.007361 Z-1.000000
G01 X178.905783 Y164.007361 Z-1.000000
G00 Z5.000000

G00 Z5.000000
G00 X178.169160 Y173.427506

G01 Z-1.000000 F25.0
G02 X184.270265 Y170.511290 Z-1.000000 I-47.416876 J-107.042598 F25.000000
G03 X190.356616 Y167.524569 Z-1.000000 I83.484362 J162.429980
G03 X195.271641 Y165.884302 Z-1.000000 I14.391263 J34.939099
G03 X200.424209 Y165.342075 Z-1.000000 I4.386808 J16.933583
G02 X199.155579 Y162.004038 Z-1.000000 I-12.706759 J2.919144
G02 X196.299370 Y159.726986 Z-1.000000 I-4.142323 J2.266041
G03 X195.109398 Y157.601567 Z-1.000000 I1.002060 J-1.956858
G03 X196.591365 Y155.655652 Z-1.000000 I2.245240 J0.172652
G03 X197.896463 Y153.236577 Z-1.000000 I2.407285 J-0.262852
G03 X200.616245 Y153.618326 Z-1.000000 I1.087945 J2.128361
G03 X203.114598 Y155.920255 Z-1.000000 I-3.498662 J6.303938
G02 X205.168706 Y158.562326 Z-1.000000 I19.246074 J-12.843550
G02 X209.817795 Y159.572091 Z-1.000000 I3.469124 J-4.764909
G02 X213.580142 Y156.866766 Z-1.000000 I-1.132913 J-5.544410
G02 X214.836183 Y152.916522 Z-1.000000 I-5.246594 J-3.843046
G02 X213.610005 Y148.986230 Z-1.000000 I-7.297620 J0.120303
G02 X211.167902 Y146.699872 Z-1.000000 I-4.557417 J2.420459
G02 X208.374011 Y145.787562 Z-1.000000 I-5.654012 J12.580828
G02 X204.657792 Y145.823816 Z-1.000000 I-1.786815 J7.326162
G03 X201.326323 Y146.454504 Z-1.000000 I-6.060161 J-22.897236
G02 X197.603877 Y142.830861 Z-1.000000 I-18.003132 J14.770215
G02 X192.841889 Y140.037259 Z-1.000000 I-13.095766 J16.867654
G02 X187.467480 Y138.720072 Z-1.000000 I-6.284693 J14.019947
G02 X181.915318 Y139.868035 Z-1.000000 I-0.645627 J10.878000
G02 X178.667191 Y142.034664 Z-1.000000 I6.575147 J13.375254
G02 X176.377375 Y145.120619 Z-1.000000 I5.996044 J6.841650
G02 X178.975070 Y143.339484 Z-1.000000 I-0.294436 J-3.214290
G01 X179.098234 Y143.395197 Z-1.000000
G03 X181.997525 Y140.709406 Z-1.000000 I12.287934 J10.356960
G03 X185.989970 Y140.166665 Z-1.000000 I2.506461 J3.481989
G03 X187.852106 Y144.018526 Z-1.000000 I-2.438148 J3.554738
G02 X187.921116 Y148.209790 Z-1.000000 I24.500088 J1.692802
G02 X189.945374 Y151.427602 Z-1.000000 I3.000800 J0.357875
G02 X190.223892 Y150.900785 Z-1.000000 I0.097484 J-0.285494
G03 X192.054045 Y154.510708 Z-1.000000 I-3.993290 J4.293399
G03 X190.668935 Y158.314711 Z-1.000000 I-4.474016 J0.525099
G03 X188.029703 Y157.259913 Z-1.000000 I0.622549 J-5.386927
G02 X185.392708 Y156.010691 Z-1.000000 I-4.353610 J5.782241
G02 X180.126283 Y153.912149 Z-1.000000 I-10.609333 J18.967310
G02 X179.814948 Y154.650262 Z-1.000000 I-0.099601 J0.392705
G02 X174.572383 Y152.566021 Z-1.000000 I-6.356053 J8.352078
G02 X168.885059 Y153.289832 Z-1.000000 I-1.317803 J12.351292
G02 X165.121230 Y156.937903 Z-1.000000 I2.490073 J6.334751
G02 X165.168764 Y162.232167 Z-1.000000 I6.036189 J2.593150
G02 X169.675948 Y166.337223 Z-1.000000 I5.851344 J-1.897657
G02 X175.567753 Y165.789192 Z-1.000000 I2.099348 J-9.375213
G02 X177.699201 Y164.527833 Z-1.000000 I-2.638442 J-6.889988
G03 X179.572725 Y162.955517 Z-1.000000 I164.903519 J194.591643
G03 X178.563855 Y164.432283 Z-1.000000 I-3.315000 J-1.181687
G02 X178.265385 Y166.197321 Z-1.000000 I0.922819 J1.063804
G02 X178.795696 Y168.734353 Z-1.000000 I190.695605 J-38.536763
G03 X177.993299 Y171.177820 Z-1.000000 I-2.486306 J0.537017
G03 X175.925731 Y169.673119 Z-1.000000 I-0.187104 J-1.915751
G02 X175.146352 Y167.265756 Z-1.000000 I-12.646144 J2.764319
G02 X174.510843 Y168.649770 Z-1.000000 I0.183757 J0.922291
G03 X175.109853 Y170.165793 Z-1.000000 I-5.202060 J2.931786
G02 X176.255962 Y172.192873 Z-1.000000 I14.645300 J-6.942896
G02 X178.169160 Y173.427506 Z-1.000000 I2.372171 J-1.576266
G01 X178.169160 Y173.427506 Z-1.000000
G00 Z5.000000

G00 Z5.000000
G00 X180.694249 Y180.521647

G01 Z-1.000000 F25.0
G01 X180.759226 Y180.487267 Z-1.000000 F25.000000
G01 X180.767806 Y180.497671 Z-1.000000
G01 X180.743041 Y180.531759 Z-1.000000
G01 X180.694249 Y180.521647 Z-1.000000
G01 X180.694249 Y180.521647 Z-1.000000
G00 Z5.000000

G00 Z5.000000
G00 X181.211876 Y181.128863

G01 Z-1.000000 F25.0
G01 X181.161157 Y181.111538 Z-1.000000 F25.000000
G01 X181.148295 Y181.128863 Z-1.000000
G01 X181.161157 Y181.146189 Z-1.000000
G01 X181.211876 Y181.128863 Z-1.000000
G01 X181.211876 Y181.128863 Z-1.000000
G00 Z5.000000

G00 Z5.000000
G00 X182.953890 Y183.584272

G01 Z-1.000000 F25.0
G01 X182.916203 Y183.572004 Z-1.000000 F25.000000
G01 X182.908376 Y183.585491 Z-1.000000
G01 X182.922406 Y183.601053 Z-1.000000
G01 X182.953890 Y183.584272 Z-1.000000
G01 X182.953890 Y183.584272 Z-1.000000
G00 Z5.000000

G00 Z5.000000
G00 X184.032279 Y185.223424

G01 Z-1.000000 F25.0
G03 X182.327066 Y182.825051 Z-1.000000 I848.787630 J-605.282543 F25.000000
G03 X180.817020 Y180.684235 Z-1.000000 I457.426054 J-324.253084
G03 X181.355292 Y179.659739 Z-1.000000 I1.323730 J0.041838
G03 X182.207312 Y179.264080 Z-1.000000 I1.401332 J1.902443
G03 X182.921942 Y180.447315 Z-1.000000 I-2.019703 J2.027248
G02 X183.723694 Y181.965030 Z-1.000000 I4.420175 J-1.364386
G02 X184.204766 Y180.632465 Z-1.000000 I-4.325113 J-2.314539
G03 X184.821991 Y179.575983 Z-1.000000 I1.865011 J0.381049
G03 X185.964619 Y180.443862 Z-1.000000 I-3.526669 J5.829243
G02 X186.776364 Y181.039274 Z-1.000000 I2.829445 J-3.006429
G03 X187.128475 Y179.077701 Z-1.000000 I16.274068 J1.908874
G03 X188.402243 Y178.169100 Z-1.000000 I1.162526 J0.282597
G03 X188.565978 Y183.221654 Z-1.000000 I-8.293413 J2.797690
G01 X188.292745 Y183.169507 Z-1.000000
G03 X187.271336 Y183.550677 Z-1.000000 I-0.566754 J0.040392
G02 X186.056332 Y182.658517 Z-1.000000 I-2.079593 J1.558713
G02 X185.431431 Y182.579705 Z-1.000000 I-0.347896 J0.241641
G02 X184.857377 Y183.329254 Z-1.000000 I1.520794 J1.759324
G02 X184.506165 Y184.323020 Z-1.000000 I4.345950 J2.094869
G01 X184.596359 Y184.360713 Z-1.000000
G02 X184.438858 Y184.917300 Z-1.000000 I0.971618 J0.575524
G03 X184.032279 Y185.223424 Z-1.000000 I-0.322607 J-0.005410
G01 X184.032279 Y185.223424 Z-1.000000
G00 Z5.000000

G00 Z5.000000
G00 X185.512160 Y186.417947

G01 Z-1.000000 F25.0
G02 X188.306642 Y185.602955 Z-1.000000 I-0.372114 J-6.474340 F25.000000
G02 X190.356616 Y183.408412 Z-1.000000 I-2.408612 J-4.304678
G02 X191.273261 Y179.693671 Z-1.000000 I-4.523207 J-3.086606
G02 X189.291500 Y176.407178 Z-1.000000 I-4.596103 J0.530708
G03 X184.498943 Y178.314895 Z-1.000000 I-19.843508 J-42.876987
G03 X179.595952 Y179.804933 Z-1.000000 I-27.976043 J-83.243831
G02 X180.971301 Y184.646998 Z-1.000000 I5.220244 J1.133593
G02 X185.512160 Y186.417947 Z-1.000000 I4.193045 J-4.044270
G01 X185.512160 Y186.417947 Z-1.000000
G00 Z5.000000

G00 Z5.000000
G00 X186.729911 Y189.454028

G01 Z-1.000000 F25.0
G02 X194.394720 Y187.619748 Z-1.000000 I-0.601634 J-19.445426 F25.000000
G02 X200.762242 Y183.026828 Z-1.000000 I-9.018568 J-19.213500
G02 X204.427168 Y178.751529 Z-1.000000 I-21.829395 J-22.421366
G02 X207.474800 Y174.041358 Z-1.000000 I-51.609610 J-36.734118
G03 X208.194981 Y172.417890 Z-1.000000 I12.152643 J4.419520
G02 X208.987863 Y170.504241 Z-1.000000 I-9.812392 J-5.186649
G02 X210.079701 Y167.516043 Z-1.000000 I-27.660908 J-11.800402
G02 X210.886658 Y164.502176 Z-1.000000 I-41.693479 J-12.778309
G03 X212.209524 Y165.217390 Z-1.000000 I0.182699 J1.243079
G03 X211.509635 Y166.602132 Z-1.000000 I-0.897607 J0.415566
G02 X215.346735 Y163.942654 Z-1.000000 I-2.446748 J-7.628000
G02 X216.496770 Y159.325493 Z-1.000000 I-4.526940 J-3.579368
G02 X216.125114 Y157.616568 Z-1.000000 I-12.930754 J1.917298
G02 X215.083251 Y156.704178 Z-1.000000 I-1.231931 J0.355699
G03 X211.914556 Y159.828639 Z-1.000000 I-7.520314 J-4.457773
G03 X207.541163 Y160.456972 Z-1.000000 I-2.977100 J-5.187280
G02 X206.034708 Y161.307941 Z-1.000000 I-0.374250 J1.096382
G03 X205.191933 Y162.945563 Z-1.000000 I-3.476847 J-0.753630
G03 X198.873417 Y170.612576 Z-1.000000 I-28.267386 J-16.858529
G03 X190.555704 Y176.072048 Z-1.000000 I-22.321920 J-24.942387
G02 X191.597320 Y178.558063 Z-1.000000 I8.423689 J-2.068224
G03 X191.872998 Y180.787097 Z-1.000000 I-2.294068 J1.415285
G03 X187.255914 Y186.932592 Z-1.000000 I-6.520504 J-0.091681
G03 X180.047216 Y184.413803 Z-1.000000 I-1.885538 J-6.178578
G03 X178.977443 Y182.291440 Z-1.000000 I3.703839 J-3.197702
G03 X178.639089 Y179.994896 Z-1.000000 I15.053439 J-3.391052
G02 X177.974425 Y180.848462 Z-1.000000 I0.167054 J0.815650
G02 X178.301895 Y182.976723 Z-1.000000 I10.060313 J-0.458631
G02 X178.895276 Y184.693301 Z-1.000000 I12.027626 J-3.196823
G01 X178.942282 Y184.675934 Z-1.000000
G02 X182.117509 Y188.222329 Z-1.000000 I7.863940 J-3.846245
G02 X186.729911 Y189.454028 Z-1.000000 I4.267406 J-6.728371
G01 X186.729911 Y189.454028 Z-1.000000
G00 Z5.000000

G00 Z5.000000
G00 X186.189057 Y191.723622

G01 Z-1.000000 F25.0
G03 X182.543569 Y190.987178 Z-1.000000 I1.300643 J-15.829361 F25.000000
G03 X179.240913 Y189.009399 Z-1.000000 I2.711692 J-8.274619
G03 X177.042197 Y186.071689 Z-1.000000 I6.877985 J-7.439461
G03 X175.725779 Y182.600864 Z-1.000000 I17.011879 J-8.437342
G02 X174.267881 Y183.503440 Z-1.000000 I0.573482 J2.555056
G03 X172.276178 Y184.407166 Z-1.000000 I-1.903477 J-1.548435
G03 X170.104864 Y186.522903 Z-1.000000 I-6.355290 J-4.350189
G03 X167.448312 Y187.207660 Z-1.000000 I-2.354387 J-3.638475
G03 X164.835445 Y186.769085 Z-1.000000 I-0.435846 J-5.405928
G03 X162.729945 Y185.236696 Z-1.000000 I2.437612 J-5.561948
G03 X159.742870 Y184.548687 Z-1.000000 I0.854008 J-10.536162
G03 X157.099094 Y183.298914 Z-1.000000 I7.628195 J-19.557928
G03 X154.974245 Y181.362101 Z-1.000000 I18.878167 J-22.844935
G03 X153.492297 Y178.507548 Z-1.000000 I3.803994 J-3.786807
G03 X154.011148 Y172.156503 Z-1.000000 I9.847176 J-2.392249
G03 X157.458696 Y166.923989 Z-1.000000 I16.000965 J6.790560
G03 X158.550285 Y163.568645 Z-1.000000 I5.750691 J0.015629
G03 X161.502240 Y161.681359 Z-1.000000 I3.868960 J2.799286
G02 X162.311185 Y157.998743 Z-1.000000 I-5.718582 J-3.186333
G03 X163.360388 Y154.335040 Z-1.000000 I5.469228 J-0.415821
G03 X165.188257 Y152.006631 Z-1.000000 I6.986032 J3.602570
G02 X166.827824 Y149.507175 Z-1.000000 I-3.619447 J-4.161727
G03 X170.708390 Y143.482737 Z-1.000000 I36.926987 J19.524030
G03 X175.206078 Y138.129339 Z-1.000000 I68.102321 J52.650481
G02 X172.302665 Y136.685210 Z-1.000000 I-3.013538 J2.417986
G03 X172.242997 Y136.108604 Z-1.000000 I0.008333 J-0.292252
G03 X171.098674 Y135.325459 Z-1.000000 I0.307766 J-1.677312
G02 X170.106127 Y134.545769 Z-1.000000 I-1.554426 J0.957185
G03 X165.899940 Y138.370813 Z-1.000000 I-6.874531 J-3.334362
G03 X160.174992 Y138.656921 Z-1.000000 I-3.313994 J-8.891739
G03 X156.768381 Y137.233054 Z-1.000000 I1.043731 J-7.284238
G03 X154.172512 Y134.675176 Z-1.000000 I8.596987 J-11.320823
G03 X152.051514 Y133.370244 Z-1.000000 I3.724471 J-8.429814
G03 X150.615487 Y131.025243 Z-1.000000 I2.658221 J-3.240033
G03 X150.466135 Y126.465825 Z-1.000000 I10.087470 J-2.612589
G03 X151.972598 Y121.824095 Z-1.000000 I19.091664 J3.630835
G03 X153.414633 Y119.355361 Z-1.000000 I12.664844 J5.742251
G03 X155.230993 Y117.201953 Z-1.000000 I16.475416 J12.053969
G03 X156.563827 Y113.166884 Z-1.000000 I143.446221 J45.144452
G03 X159.133102 Y109.732864 Z-1.000000 I6.660010 J2.304752
G03 X162.123961 Y109.529623 Z-1.000000 I1.676009 J2.555743
G02 X164.767271 Y110.316853 Z-1.000000 I3.836233 J-8.049666
G03 X169.646637 Y110.652400 Z-1.000000 I1.996224 J6.616339
G03 X173.377794 Y113.641610 Z-1.000000 I-4.109921 J8.953274
G03 X183.507000 Y107.674005 Z-1.000000 I14.385500 J12.837163
G03 X195.280707 Y107.370362 Z-1.000000 I6.648292 J29.372877
G02 X196.104833 Y106.818726 Z-1.000000 I-0.083615 J-1.016345
G02 X196.742707 Y105.165789 Z-1.000000 I-7.533897 J-3.856904
G02 X196.900596 Y103.867528 Z-1.000000 I-4.448194 J-1.199700
G01 X196.657727 Y103.790110 Z-1.000000
G03 X197.483974 Y102.332385 Z-1.000000 I2.760330 J0.601547
G03 X198.784643 Y101.288247 Z-1.000000 I7.361740 J7.838245
G03 X199.286614 Y98.323002 Z-1.000000 I29.069901 J3.395985
G03 X200.191526 Y96.098707 Z-1.000000 I7.038537 J1.567273
G03 X206.185516 Y92.579499 Z-1.000000 I6.807174 J4.729975
G03 X212.923154 Y94.094562 Z-1.000000 I1.078649 J10.942149
G02 X214.478643 Y95.320259 Z-1.000000 I7.555201 J-7.988184
G02 X216.261183 Y96.224795 Z-1.000000 I5.078012 J-7.798408
G03 X218.346261 Y97.971139 Z-1.000000 I-1.638934 J4.074764
G03 X219.210992 Y100.797165 Z-1.000000 I-4.840343 J3.026401
G03 X218.973852 Y106.731750 Z-1.000000 I-17.335631 J2.279315
G03 X217.512115 Y112.244681 Z-1.000000 I-57.431797 J-12.277618
G03 X223.951265 Y115.741418 Z-1.000000 I-5.036499 J16.951712
G03 X227.429977 Y122.318495 Z-1.000000 I-6.539360 J7.667273
G03 X226.693172 Y128.503607 Z-1.000000 I-12.441418 J1.654352
G03 X222.525795 Y133.235112 Z-1.000000 I-8.509570 J-3.293985
G03 X220.891220 Y136.441784 Z-1.000000 I-6.363557 J-1.223830
G03 X217.528705 Y138.255428 Z-1.000000 I-4.387492 J-4.110566
G02 X215.054838 Y139.254826 Z-1.000000 I-0.063461 J3.404461
G03 X212.807020 Y140.714155 Z-1.000000 I-4.535875 J-4.525820
G03 X210.538939 Y141.800022 Z-1.000000 I-6.967341 J-11.641249
G02 X208.301012 Y142.758118 Z-1.000000 I8.302282 J22.485263
G02 X210.262557 Y143.507319 Z-1.000000 I126.878677 J-329.249000
G03 X211.957581 Y144.347497 Z-1.000000 I-3.411783 J9.013033
G03 X215.764850 Y148.281358 Z-1.000000 I-4.959427 J8.609139
G03 X216.778810 Y153.688007 Z-1.000000 I-8.093475 J4.316249
G02 X217.539083 Y155.866669 Z-1.000000 I2.858155 J0.224594
G03 X218.504233 Y158.114379 Z-1.000000 I-2.651234 J2.469488
G03 X218.739735 Y161.516421 Z-1.000000 I-7.100252 J2.200679
G03 X217.784201 Y164.272811 Z-1.000000 I-8.441084 J-1.382380
G02 X217.340897 Y164.912720 Z-1.000000 I3.790461 J3.099386
G03 X216.861763 Y165.533697 Z-1.000000 I-2.597975 J-1.509215
G03 X214.603957 Y167.569658 Z-1.000000 I-5.717832 J-4.070975
G03 X211.871310 Y168.898271 Z-1.000000 I-11.908441 J-21.018363
G03 X210.181693 Y173.769427 Z-1.000000 I-26.225769 J-6.368101
G03 X207.683842 Y178.384778 Z-1.000000 I-35.888234 J-16.439297
G03 X206.984197 Y179.442471 Z-1.000000 I-11.270800 J-6.695181
G02 X206.233823 Y180.481830 Z-1.000000 I69.100336 J50.678115
G03 X204.697974 Y182.484810 Z-1.000000 I-40.331936 J-29.335483
G03 X202.846022 Y184.480165 Z-1.000000 I-15.429889 J-12.463860
G03 X199.754823 Y187.075534 Z-1.000000 I-14.075673 J-13.626184
G03 X196.233008 Y189.195214 Z-1.000000 I-21.577001 J-31.864291
G03 X193.483440 Y190.409980 Z-1.000000 I-14.286808 J-28.618408
G03 X190.731564 Y191.265721 Z-1.000000 I-7.702958 J-19.918427
G02 X188.841868 Y191.391288 Z-1.000000 I-0.352234 J8.981246
G01 X188.860144 Y191.584261 Z-1.000000
G03 X187.554531 Y191.656123 Z-1.000000 I-0.885797 J-4.197126
G02 X186.189057 Y191.723622 Z-1.000000 I-0.455460 J4.631444
G01 X186.189057 Y191.723622 Z-1.000000
G00 Z5.000000

G00 Z5.000000
G00 X181.045970 Y190.353238

G01 Z-1.000000 F25.0
G01 X181.077454 Y190.336458 Z-1.000000 F25.000000
G01 X181.091484 Y190.352020 Z-1.000000
G01 X181.083657 Y190.365507 Z-1.000000
G01 X181.045970 Y190.353238 Z-1.000000
G01 X181.045970 Y190.353238 Z-1.000000
G00 Z5.000000

G00 Z5.000000
G00 X180.382346 Y189.835612

G01 Z-1.000000 F25.0
G01 X180.326606 Y189.836973 Z-1.000000 F25.000000
G01 X180.317342 Y189.857216 Z-1.000000
G01 X180.329401 Y189.867117 Z-1.000000
G01 X180.382346 Y189.835612 Z-1.000000
G01 X180.382346 Y189.835612 Z-1.000000
G00 Z5.000000

G00 Z5.000000
G00 X186.660230 Y182.831059

G01 Z-1.000000 F25.0
G01 X186.602395 Y182.830092 Z-1.000000 F25.000000
G01 X186.600763 Y182.837710 Z-1.000000
G01 X186.629887 Y182.851229 Z-1.000000
G01 X186.660230 Y182.831059 Z-1.000000
G01 X186.660230 Y182.831059 Z-1.000000
G00 Z5.000000

G00 Z5.000000
G00 X187.489760 Y183.594227

G01 Z-1.000000 F25.0
G01 X187.431925 Y183.593260 Z-1.000000 F25.000000
G01 X187.430293 Y183.600878 Z-1.000000
G01 X187.459417 Y183.614397 Z-1.000000
G01 X187.489760 Y183.594227 Z-1.000000
G01 X187.489760 Y183.594227 Z-1.000000
G00 Z5.000000

G00 Z5.000000
G00 X188.106931 Y183.952584

G01 Z-1.000000 F25.0
G01 X188.043321 Y183.944085 Z-1.000000 F25.000000
G01 X188.027175 Y183.974434 Z-1.000000
G01 X188.042892 Y183.989828 Z-1.000000
G01 X188.106931 Y183.952584 Z-1.000000
G01 X188.106931 Y183.952584 Z-1.000000
G00 Z5.000000

G00 Z5.000000
G00 X188.302700 Y182.811150

G01 Z-1.000000 F25.0
G01 X188.281139 Y182.862844 Z-1.000000 F25.000000
G01 X188.301429 Y182.908898 Z-1.000000
G01 X188.309506 Y182.906953 Z-1.000000
G02 X188.302700 Y182.811150 Z-1.000000 I-0.245682 J-0.030690
G01 X188.302700 Y182.811150 Z-1.000000
G00 Z5.000000

G00 Z5.000000
G00 X186.885862 Y181.029320

G01 Z-1.000000 F25.0
G01 X186.835143 Y181.011994 Z-1.000000 F25.000000
G01 X186.822281 Y181.029320 Z-1.000000
G01 X186.835143 Y181.046645 Z-1.000000
G01 X186.885862 Y181.029320 Z-1.000000
G01 X186.885862 Y181.029320 Z-1.000000
G00 Z5.000000

G00 Z5.000000
G00 X184.695903 Y179.668890

G01 Z-1.000000 F25.0
G01 X184.645184 Y179.651565 Z-1.000000 F25.000000
G01 X184.632322 Y179.668890 Z-1.000000
G01 X184.645184 Y179.686216 Z-1.000000
G01 X184.695903 Y179.668890 Z-1.000000
G01 X184.695903 Y179.668890 Z-1.000000
G00 Z5.000000

G00 Z5.000000
G00 X188.607967 Y179.021857

G01 Z-1.000000 F25.0
G01 X188.537787 Y179.083878 Z-1.000000 F25.000000
G01 X188.553694 Y179.143772 Z-1.000000
G01 X188.578259 Y179.143671 Z-1.000000
G01 X188.607967 Y179.021857 Z-1.000000
G01 X188.607967 Y179.021857 Z-1.000000
G00 Z5.000000

G00 Z5.000000
G00 X191.879634 Y190.950500

G01 Z-1.000000 F25.0
G01 X191.911118 Y190.933719 Z-1.000000 F25.000000
G01 X191.925148 Y190.949282 Z-1.000000
G01 X191.917320 Y190.962769 Z-1.000000
G01 X191.879634 Y190.950500 Z-1.000000
G01 X191.879634 Y190.950500 Z-1.000000
G00 Z5.000000

G00 Z5.000000
G00 X204.292723 Y182.864240

G01 Z-1.000000 F25.0
G01 X204.275066 Y182.901611 Z-1.000000 F25.000000
G01 X204.291686 Y182.924687 Z-1.000000
G01 X204.300922 Y182.921003 Z-1.000000
G01 X204.292723 Y182.864240 Z-1.000000
G01 X204.292723 Y182.864240 Z-1.000000
G00 Z5.000000

G00 Z5.000000
G00 X205.052572 Y181.991575

G01 Z-1.000000 F25.0
G01 X205.014886 Y181.979306 Z-1.000000 F25.000000
G01 X205.007058 Y181.992793 Z-1.000000
G01 X205.021088 Y182.008355 Z-1.000000
G01 X205.052572 Y181.991575 Z-1.000000
G01 X205.052572 Y181.991575 Z-1.000000
G00 Z5.000000

G00 Z5.000000
G00 X189.692992 Y155.980828

G01 Z-1.000000 F25.0
G02 X189.840264 Y153.079103 Z-1.000000 I-3.023064 J-1.608030 F25.000000
G02 X187.941025 Y151.232597 Z-1.000000 I-3.062054 J1.249509
G02 X187.686629 Y150.336955 Z-1.000000 I-2.181604 J0.135707
G02 X186.637003 Y150.456157 Z-1.000000 I-0.501125 J0.268178
G02 X186.340118 Y148.404064 Z-1.000000 I-4.104514 J-0.453705
G02 X184.410544 Y146.885859 Z-1.000000 I-2.332438 J0.979124
G03 X178.880922 Y145.581293 Z-1.000000 I4.027438 J-29.442364
G02 X178.268703 Y146.663545 Z-1.000000 I-0.203508 J0.599167
G03 X172.567712 Y148.110371 Z-1.000000 I-7.367660 J-17.075771
G01 X172.564854 Y148.080383 Z-1.000000
G02 X171.425430 Y149.165158 Z-1.000000 I1.349867 J2.558672
G02 X171.340468 Y150.137618 Z-1.000000 I0.970706 J0.574750
G02 X171.662092 Y150.812726 Z-1.000000 I1.859401 J-0.471660
G01 X171.655689 Y150.817832 Z-1.000000
G02 X173.838338 Y150.881448 Z-1.000000 I1.953511 J-29.549666
G03 X175.786749 Y151.239234 Z-1.000000 I0.040719 J5.262430
G03 X176.832653 Y151.649285 Z-1.000000 I-9.583227 J25.982515
G01 X176.908274 Y151.531228 Z-1.000000
G02 X178.274652 Y151.587215 Z-1.000000 I0.999445 J-7.690332
G03 X178.557380 Y152.045537 Z-1.000000 I0.014560 J0.307383
G02 X179.060768 Y152.681332 Z-1.000000 I0.385701 J0.211798
G01 X179.055098 Y152.659389 Z-1.000000
G03 X179.322196 Y153.064954 Z-1.000000 I-0.287162 J0.479856
G02 X180.229713 Y153.571872 Z-1.000000 I0.643515 J-0.086255
G02 X182.580103 Y153.724075 Z-1.000000 I2.987124 J-27.904674
G03 X184.749408 Y153.948479 Z-1.000000 I-0.308095 J13.575821
G03 X187.162550 Y154.902845 Z-1.000000 I-69.037693 J178.091963
G03 X189.500127 Y156.039310 Z-1.000000 I-7.038844 J17.450375
G01 X189.692992 Y155.980828 Z-1.000000
G01 X189.692992 Y155.980828 Z-1.000000
G00 Z5.000000

G00 Z5.000000
G00 X190.220573 Y154.484355

G01 Z-1.000000 F25.0
G01 X190.182887 Y154.472087 Z-1.000000 F25.000000
G01 X190.175060 Y154.485574 Z-1.000000
G01 X190.189089 Y154.501136 Z-1.000000
G01 X190.220573 Y154.484355 Z-1.000000
G01 X190.220573 Y154.484355 Z-1.000000
G00 Z5.000000

G00 Z5.000000
G00 X189.473996 Y152.473574

G01 Z-1.000000 F25.0
G01 X189.422637 Y152.459926 Z-1.000000 F25.000000
G01 X189.393676 Y152.487941 Z-1.000000
G01 X189.399688 Y152.498057 Z-1.000000
G01 X189.473996 Y152.473574 Z-1.000000
G01 X189.473996 Y152.473574 Z-1.000000
G00 Z5.000000

G00 Z5.000000
G00 X188.445379 Y151.431685

G01 Z-1.000000 F25.0
G01 X188.340967 Y151.394462 Z-1.000000 F25.000000
G01 X188.334298 Y151.406303 Z-1.000000
G01 X188.384512 Y151.451066 Z-1.000000
G01 X188.445379 Y151.431685 Z-1.000000
G01 X188.445379 Y151.431685 Z-1.000000
G00 Z5.000000

G00 Z5.000000
G00 X186.786319 Y150.701698

G01 Z-1.000000 F25.0
G01 X186.735600 Y150.684372 Z-1.000000 F25.000000
G01 X186.722738 Y150.701698 Z-1.000000
G01 X186.735600 Y150.719024 Z-1.000000
G01 X186.786319 Y150.701698 Z-1.000000
G01 X186.786319 Y150.701698 Z-1.000000
G00 Z5.000000

G00 Z5.000000
G00 X186.550732 Y154.729896

G01 Z-1.000000 F25.0
G01 X186.514761 Y154.794713 Z-1.000000 F25.000000
G01 X186.542606 Y154.829721 Z-1.000000
G01 X186.563759 Y154.820863 Z-1.000000
G01 X186.550732 Y154.729896 Z-1.000000
G01 X186.550732 Y154.729896 Z-1.000000
G00 Z5.000000

G00 Z5.000000
G00 X186.935634 Y154.816168

G01 Z-1.000000 F25.0
G02 X186.758428 Y154.792762 Z-1.000000 I-0.125464 J0.267376 F25.000000
G01 X186.738819 Y154.816168 Z-1.000000
G01 X186.758428 Y154.839573 Z-1.000000
G02 X186.935634 Y154.816168 Z-1.000000 I0.051742 J-0.290782
G01 X186.935634 Y154.816168 Z-1.000000
G00 Z5.000000

G00 Z5.000000
G00 X188.063795 Y155.446610

G01 Z-1.000000 F25.0
G01 X187.982489 Y155.426074 Z-1.000000 F25.000000
G01 X187.966660 Y155.446610 Z-1.000000
G01 X187.982489 Y155.467147 Z-1.000000
G01 X188.063795 Y155.446610 Z-1.000000
G01 X188.063795 Y155.446610 Z-1.000000
G00 Z5.000000

G00 Z5.000000
G00 X180.007399 Y153.565236

G01 Z-1.000000 F25.0
G01 X180.014518 Y153.532328 Z-1.000000 F25.000000
G01 X180.066247 Y153.536141 Z-1.000000
G01 X180.068442 Y153.549194 Z-1.000000
G01 X180.007399 Y153.565236 Z-1.000000
G01 X180.007399 Y153.565236 Z-1.000000
G00 Z5.000000

G00 Z5.000000
G00 X178.557380 Y151.929403

G01 Z-1.000000 F25.0
G01 X178.608099 Y151.912077 Z-1.000000 F25.000000
G01 X178.620961 Y151.929403 Z-1.000000
G01 X178.608099 Y151.946728 Z-1.000000
G01 X178.557380 Y151.929403 Z-1.000000
G01 X178.557380 Y151.929403 Z-1.000000
G00 Z5.000000

G00 Z5.000000
G00 X178.391474 Y151.929403

G01 Z-1.000000 F25.0
G01 X178.372735 Y151.910236 Z-1.000000 F25.000000
G01 X178.375436 Y151.907430 Z-1.000000
G01 X178.396265 Y151.921880 Z-1.000000
G01 X178.391474 Y151.929403 Z-1.000000
G01 X178.391474 Y151.929403 Z-1.000000
G00 Z5.000000

G00 Z5.000000
G00 X176.828639 Y151.298960

G01 Z-1.000000 F25.0
G01 X176.826962 Y151.184567 Z-1.000000 F25.000000
G01 X176.846287 Y151.176347 Z-1.000000
G01 X176.865660 Y151.203389 Z-1.000000
G01 X176.828639 Y151.298960 Z-1.000000
G01 X176.828639 Y151.298960 Z-1.000000
G00 Z5.000000

G00 Z5.000000
G00 X176.616279 Y152.891658

G01 Z-1.000000 F25.0
G01 X176.578593 Y152.879389 Z-1.000000 F25.000000
G01 X176.570766 Y152.892876 Z-1.000000
G01 X176.584795 Y152.908438 Z-1.000000
G01 X176.616279 Y152.891658 Z-1.000000
G01 X176.616279 Y152.891658 Z-1.000000
G00 Z5.000000

G00 Z5.000000
G00 X174.376548 Y150.917376

G01 Z-1.000000 F25.0
G01 X174.404460 Y150.900628 Z-1.000000 F25.000000
G01 X174.418063 Y150.916877 Z-1.000000
G01 X174.409259 Y150.931316 Z-1.000000
G01 X174.376548 Y150.917376 Z-1.000000
G01 X174.376548 Y150.917376 Z-1.000000
G00 Z5.000000

G00 Z5.000000
G00 X174.194051 Y150.867604

G01 Z-1.000000 F25.0
G01 X174.301088 Y150.860307 Z-1.000000 F25.000000
G01 X174.304306 Y150.872987 Z-1.000000
G01 X174.249149 Y150.900517 Z-1.000000
G01 X174.194051 Y150.867604 Z-1.000000
G01 X174.194051 Y150.867604 Z-1.000000
G00 Z5.000000

G00 Z5.000000
G00 X171.257515 Y150.436248

G01 Z-1.000000 F25.0
G01 X171.137261 Y150.409085 Z-1.000000 F25.000000
G01 X171.108949 Y150.435187 Z-1.000000
G01 X171.121011 Y150.455639 Z-1.000000
G01 X171.257515 Y150.436248 Z-1.000000
G01 X171.257515 Y150.436248 Z-1.000000
G00 Z5.000000

G00 Z5.000000
G00 X171.552827 Y149.012775

G01 Z-1.000000 F25.0
G01 X171.543714 Y148.973618 Z-1.000000 F25.000000
G01 X171.515953 Y148.973398 Z-1.000000
G01 X171.510682 Y148.989554 Z-1.000000
G01 X171.552827 Y149.012775 Z-1.000000
G01 X171.552827 Y149.012775 Z-1.000000
G00 Z5.000000

G00 Z5.000000
G00 X171.605917 Y148.744007

G01 Z-1.000000 F25.0
G01 X171.540402 Y148.710402 Z-1.000000 F25.000000
G01 X171.530431 Y148.721505 Z-1.000000
G01 X171.549499 Y148.750447 Z-1.000000
G01 X171.605917 Y148.744007 Z-1.000000
G01 X171.605917 Y148.744007 Z-1.000000
G00 Z5.000000

G00 Z5.000000
G00 X171.987501 Y148.475239

G01 Z-1.000000 F25.0
G01 X171.939363 Y148.465771 Z-1.000000 F25.000000
G01 X171.926992 Y148.494781 Z-1.000000
G01 X171.944021 Y148.509704 Z-1.000000
G01 X171.987501 Y148.475239 Z-1.000000
G01 X171.987501 Y148.475239 Z-1.000000
G00 Z5.000000

G00 Z5.000000
G00 X172.402266 Y146.281962

G01 Z-1.000000 F25.0
G02 X175.901246 Y144.460119 Z-1.000000 I0.925630 J-2.493204 F25.000000
G02 X175.352075 Y144.231363 Z-1.000000 I-0.290644 J-0.075826
G03 X176.917450 Y142.141965 Z-1.000000 I17.342246 J11.361698
G03 X178.690105 Y140.216437 Z-1.000000 I26.148334 J22.293631
G02 X177.213161 Y140.174699 Z-1.000000 I-0.752251 J0.466694
G03 X176.118561 Y141.241736 Z-1.000000 I-3.376910 J-2.369180
G03 X173.853173 Y143.685265 Z-1.000000 I-120.832385 J-109.751480
G02 X171.821595 Y146.285280 Z-1.000000 I12.697911 J12.015504
G01 X172.120226 Y146.315143 Z-1.000000
G01 X172.402266 Y146.281962 Z-1.000000
G01 X172.402266 Y146.281962 Z-1.000000
G00 Z5.000000

G00 Z5.000000
G00 X167.431722 Y137.508851

G01 Z-1.000000 F25.0
G01 X167.366107 Y137.557716 Z-1.000000 F25.000000
G01 X167.372047 Y137.571183 Z-1.000000
G01 X167.414299 Y137.564112 Z-1.000000
G01 X167.431722 Y137.508851 Z-1.000000
G01 X167.431722 Y137.508851 Z-1.000000
G00 Z5.000000

G00 Z5.000000
G00 X163.260844 Y135.896244

G01 Z-1.000000 F25.0
G02 X167.586865 Y133.007420 Z-1.000000 I-0.469998 J-5.387348 F25.000000
G02 X168.374068 Y127.962618 Z-1.000000 I-7.080599 J-3.688693
G03 X168.531759 Y125.367388 Z-1.000000 I6.196145 J-0.925916
G03 X169.618363 Y123.111526 Z-1.000000 I6.770981 J1.871818
G03 X170.208752 Y119.890611 Z-1.000000 I21.358910 J2.250488
G03 X171.390240 Y116.767280 Z-1.000000 I15.545709 J4.095470
G02 X169.668110 Y114.594797 Z-1.000000 I-3.394228 J0.921799
G02 X167.050138 Y113.571929 Z-1.000000 I-5.447418 J10.080656
G02 X163.530875 Y113.992602 Z-1.000000 I-1.234652 J4.602215
G02 X161.319744 Y116.690963 Z-1.000000 I2.230863 J4.083166
G03 X160.079399 Y119.395018 Z-1.000000 I-48.907060 J-20.797079
G03 X158.788018 Y121.990001 Z-1.000000 I-350.783980 J-172.947125
G02 X157.216643 Y126.164742 Z-1.000000 I214.557962 J83.142871
G02 X156.249656 Y130.477754 Z-1.000000 I16.043574 J5.861912
G02 X158.584892 Y134.710571 Z-1.000000 I5.136259 J-0.073082
G02 X163.260844 Y135.896244 Z-1.000000 I4.077847 J-6.268710
G01 X163.260844 Y135.896244 Z-1.000000
G00 Z5.000000

G00 Z5.000000
G00 X154.799637 Y131.197786

G01 Z-1.000000 F25.0
G03 X156.005716 Y126.442784 Z-1.000000 I20.770680 J2.737904 F25.000000
G03 X157.892125 Y122.053046 Z-1.000000 I55.620434 J21.301670
G02 X159.133460 Y119.500921 Z-1.000000 I-510.476484 J-249.870007
G02 X160.238036 Y116.710871 Z-1.000000 I-18.460848 J-8.922296
G03 X161.174184 Y115.044068 Z-1.000000 I23.457082 J12.078204
G03 X162.384860 Y113.395654 Z-1.000000 I10.221695 J6.238519
G02 X161.145007 Y112.527671 Z-1.000000 I-1.047910 J0.177352
G02 X160.397306 Y113.439205 Z-1.000000 I0.164820 J0.897621
G02 X158.890155 Y116.183495 Z-1.000000 I4.548657 J4.284107
G03 X157.752764 Y119.046828 Z-1.000000 I-11.595039 J-2.948283
G03 X156.957370 Y119.984026 Z-1.000000 I-11.952371 J-9.337778
G02 X156.276201 Y120.851886 Z-1.000000 I5.153915 J4.746479
G03 X155.464234 Y122.201579 Z-1.000000 I-12.734071 J-6.741653
G02 X155.051814 Y123.227660 Z-1.000000 I2.153311 J1.461419
G02 X153.753977 Y126.579432 Z-1.000000 I17.877756 J8.849583
G02 X153.591841 Y130.311847 Z-1.000000 I7.685860 J2.203604
G02 X154.018926 Y131.253067 Z-1.000000 I2.101030 J-0.385851
G02 X154.799637 Y131.197786 Z-1.000000 I0.371460 J-0.294486
G01 X154.799637 Y131.197786 Z-1.000000
G00 Z5.000000

G00 Z5.000000
G00 X173.925284 Y133.032706

G01 Z-1.000000 F25.0
G02 X174.159755 Y129.997478 Z-1.000000 I-3.454553 J-1.793535 F25.000000
G02 X173.042664 Y127.076680 Z-1.000000 I-36.495010 J12.283901
G02 X172.466500 Y126.896675 Z-1.000000 I-0.347852 J0.101311
G02 X171.931445 Y127.536615 Z-1.000000 I1.372651 J1.691326
G03 X171.416555 Y128.083542 Z-1.000000 I-1.321629 J-0.728384
G03 X170.819523 Y127.849802 Z-1.000000 I-0.212658 J-0.336174
G02 X171.587884 Y130.565123 Z-1.000000 I29.178028 J-6.790211
G02 X173.148843 Y132.860164 Z-1.000000 I4.856977 J-1.625086
G02 X173.525302 Y133.010310 Z-1.000000 I2.731224 J-6.300923
G02 X173.925284 Y133.032706 Z-1.000000 I0.236967 J-0.649191
G01 X173.925284 Y133.032706 Z-1.000000
G00 Z5.000000

G00 Z5.000000
G00 X175.770159 Y134.406408

G01 Z-1.000000 F25.0
G01 X175.714418 Y134.407770 Z-1.000000 F25.000000
G01 X175.705154 Y134.428013 Z-1.000000
G01 X175.717213 Y134.437914 Z-1.000000
G01 X175.770159 Y134.406408 Z-1.000000
G01 X175.770159 Y134.406408 Z-1.000000
G00 Z5.000000

G00 Z5.000000
G00 X180.631205 Y138.952233

G01 Z-1.000000 F25.0
G02 X179.291583 Y135.949455 Z-1.000000 I-2.768192 J-0.565244 F25.000000
G02 X178.929009 Y136.400599 Z-1.000000 I-0.147918 J0.252389
G03 X179.866738 Y134.259534 Z-1.000000 I0.851806 J-0.902814
G02 X179.931082 Y133.746102 Z-1.000000 I0.017937 J-0.258500
G02 X182.304941 Y133.345106 Z-1.000000 I-3.722349 J-29.262982
G03 X184.656085 Y133.082478 Z-1.000000 I2.526219 J11.960169
G03 X185.845016 Y134.555808 Z-1.000000 I-2.565270 J3.286473
G02 X187.045132 Y136.158376 Z-1.000000 I4.703342 J-2.271544
G02 X189.128108 Y137.520671 Z-1.000000 I2.204449 J-1.097042
G03 X191.421733 Y138.026478 Z-1.000000 I-0.347087 J7.027127
G02 X192.174965 Y137.419822 Z-1.000000 I0.216593 J-0.502014
G03 X192.742345 Y137.196948 Z-1.000000 I0.304166 J-0.059311
G03 X192.859852 Y129.489813 Z-1.000000 I9.527188 J-3.709207
G03 X198.943912 Y124.724133 Z-1.000000 I7.356968 J3.125784
G03 X202.448534 Y124.894831 Z-1.000000 I1.368537 J7.964611
G03 X205.574761 Y126.312268 Z-1.000000 I-2.879998 J10.508224
G02 X205.745064 Y125.212606 Z-1.000000 I-0.700006 J-0.671427
G02 X204.254435 Y122.296127 Z-1.000000 I-96.514608 J47.489981
G02 X203.599512 Y121.072438 Z-1.000000 I-165.928698 J88.018607
G03 X203.462480 Y120.743428 Z-1.000000 I1.563467 J-0.844220
G01 X203.512379 Y120.712858 Z-1.000000
G03 X204.309313 Y121.571918 Z-1.000000 I-7.096352 J7.382333
G03 X201.406354 Y120.478605 Z-1.000000 I1.339755 J-7.957929
G03 X199.285679 Y118.283661 Z-1.000000 I3.255425 J-5.267205
G03 X195.966472 Y116.366468 Z-1.000000 I0.006620 J-3.843304
G03 X195.576020 Y112.483586 Z-1.000000 I4.097685 J-2.373124
G02 X194.083301 Y110.279356 Z-1.000000 I-1.604992 J-0.520644
G01 X194.086184 Y109.988359 Z-1.000000
G02 X187.803919 Y109.919217 Z-1.000000 I-3.400331 J23.516106
G02 X181.666459 Y111.591012 Z-1.000000 I2.681743 J21.946926
G02 X177.700448 Y113.800449 Z-1.000000 I5.654915 J14.815031
G02 X174.595544 Y117.288224 Z-1.000000 I7.442627 J9.751529
G02 X172.814321 Y120.634633 Z-1.000000 I12.005635 J8.537605
G02 X172.276178 Y124.389002 Z-1.000000 I8.215260 J3.093311
G03 X174.611601 Y127.553786 Z-1.000000 I-3.277989 J4.863056
G03 X175.603008 Y131.343368 Z-1.000000 I-49.468540 J14.966128
G02 X176.856656 Y135.994498 Z-1.000000 I4.057470 J1.400882
G01 X176.964682 Y135.876336 Z-1.000000
G03 X178.657774 Y137.688715 Z-1.000000 I-9.757875 J10.812651
G02 X180.631205 Y138.952233 Z-1.000000 I2.800552 J-2.201188
G01 X180.631205 Y138.952233 Z-1.000000
G00 Z5.000000

G00 Z5.000000
G00 X182.429627 Y138.112749

G01 Z-1.000000 F25.0
G03 X186.345821 Y137.160433 Z-1.000000 I4.653894 J10.609731 F25.000000
G01 X186.358281 Y137.289855 Z-1.000000
G02 X185.349219 Y135.680825 Z-1.000000 I-5.466256 J2.307105
G03 X184.155049 Y134.227230 Z-1.000000 I21.326053 J-18.737278
G03 X181.813380 Y134.530282 Z-1.000000 I-8.301253 J-54.944780
G02 X179.506362 Y135.013624 Z-1.000000 I1.277957 J11.847193
G02 X180.701146 Y136.910901 Z-1.000000 I8.275184 J-3.886343
G02 X182.429627 Y138.112749 Z-1.000000 I2.967572 J-2.424059
G01 X182.429627 Y138.112749 Z-1.000000
G00 Z5.000000

G00 Z5.000000
G00 X185.558614 Y132.455353

G01 Z-1.000000 F25.0
G03 X183.519211 Y131.976075 Z-1.000000 I0.023803 J-4.679916 F25.000000
G03 X181.815774 Y130.733249 Z-1.000000 I2.688456 J-5.473629
G03 X180.441574 Y127.426712 Z-1.000000 I4.513062 J-3.814462
G03 X181.610051 Y123.927784 Z-1.000000 I4.627421 J-0.399232
G03 X184.256239 Y121.904053 Z-1.000000 I3.663789 J2.048779
G03 X187.785073 Y122.524219 Z-1.000000 I1.067855 J4.273627
G03 X189.026939 Y123.422999 Z-1.000000 I-1.443021 J3.301203
G03 X190.014850 Y124.843585 Z-1.000000 I-5.285671 J4.729590
G03 X190.451812 Y128.585511 Z-1.000000 I-5.167984 J2.499965
G03 X188.279473 Y131.655686 Z-1.000000 I-4.740166 J-1.050341
G03 X187.081227 Y132.256402 Z-1.000000 I-2.099050 J-2.691541
G03 X185.558614 Y132.455353 Z-1.000000 I-1.482069 J-5.416666
G01 X185.558614 Y132.455353 Z-1.000000
G00 Z5.000000

G00 Z5.000000
G00 X185.143849 Y131.755230

G01 Z-1.000000 F25.0
G02 X187.428612 Y131.265015 Z-1.000000 I0.495188 J-3.261506 F25.000000
G02 X188.544923 Y130.079579 Z-1.000000 I-1.842725 J-2.853599
G02 X189.284007 Y128.670013 Z-1.000000 I-2.879394 J-2.408313
G02 X189.490587 Y126.887547 Z-1.000000 I-5.640890 J-1.556959
G02 X188.923165 Y125.023916 Z-1.000000 I-5.605322 J0.688461
G02 X187.848117 Y123.758559 Z-1.000000 I-3.175768 J1.608776
G02 X187.104210 Y123.274617 Z-1.000000 I-1.101999 J0.880241
G03 X185.966743 Y122.955574 Z-1.000000 I8.951705 J-34.102293
G02 X182.473316 Y124.197088 Z-1.000000 I-0.431915 J4.320398
G02 X181.377782 Y128.121888 Z-1.000000 I2.911455 J2.927976
G02 X182.689919 Y130.483953 Z-1.000000 I5.574027 J-1.550912
G02 X185.143849 Y131.755230 Z-1.000000 I2.967954 J-2.724973
G01 X185.143849 Y131.755230 Z-1.000000
G00 Z5.000000

G00 Z5.000000
G00 X184.629540 Y131.722049

G01 Z-1.000000 F25.0
G01 X184.569109 Y131.699697 Z-1.000000 F25.000000
G01 X184.550050 Y131.720376 Z-1.000000
G01 X184.560984 Y131.738215 Z-1.000000
G01 X184.629540 Y131.722049 Z-1.000000
G01 X184.629540 Y131.722049 Z-1.000000
G00 Z5.000000

G00 Z5.000000
G00 X187.436670 Y131.964272

G01 Z-1.000000 F25.0
G01 X187.366163 Y131.990400 Z-1.000000 F25.000000
G01 X187.355442 Y132.047957 Z-1.000000
G01 X187.370704 Y132.054704 Z-1.000000
G01 X187.436670 Y131.964272 Z-1.000000
G01 X187.436670 Y131.964272 Z-1.000000
G00 Z5.000000

G00 Z5.000000
G00 X188.345835 Y130.245485

G01 Z-1.000000 F25.0
G01 X188.392847 Y130.225213 Z-1.000000 F25.000000
G01 X188.407535 Y130.245485 Z-1.000000
G01 X188.392847 Y130.265757 Z-1.000000
G01 X188.345835 Y130.245485 Z-1.000000
G01 X188.345835 Y130.245485 Z-1.000000
G00 Z5.000000

G00 Z5.000000
G00 X189.606721 Y126.957228

G01 Z-1.000000 F25.0
G01 X189.550981 Y126.958589 Z-1.000000 F25.000000
G01 X189.541717 Y126.978832 Z-1.000000
G01 X189.553776 Y126.988734 Z-1.000000
G01 X189.606721 Y126.957228 Z-1.000000
G01 X189.606721 Y126.957228 Z-1.000000
G00 Z5.000000

G00 Z5.000000
G00 X186.338372 Y123.061754

G01 Z-1.000000 F25.0
G01 X186.369857 Y123.044973 Z-1.000000 F25.000000
G01 X186.383886 Y123.060536 Z-1.000000
G01 X186.376059 Y123.074023 Z-1.000000
G01 X186.338372 Y123.061754 Z-1.000000
G01 X186.338372 Y123.061754 Z-1.000000
G00 Z5.000000

G00 Z5.000000
G00 X185.674748 Y122.995392

G01 Z-1.000000 F25.0
G01 X185.706232 Y122.978611 Z-1.000000 F25.000000
G01 X185.720262 Y122.994174 Z-1.000000
G01 X185.712435 Y123.007661 Z-1.000000
G01 X185.674748 Y122.995392 Z-1.000000
G01 X185.674748 Y122.995392 Z-1.000000
G00 Z5.000000

G00 Z5.000000
G00 X183.169567 Y123.824922

G01 Z-1.000000 F25.0
G01 X183.250873 Y123.804385 Z-1.000000 F25.000000
G01 X183.266702 Y123.824922 Z-1.000000
G01 X183.250873 Y123.845458 Z-1.000000
G01 X183.169567 Y123.824922 Z-1.000000
G01 X183.169567 Y123.824922 Z-1.000000
G00 Z5.000000

G00 Z5.000000
G00 X181.321374 Y126.711687

G01 Z-1.000000 F25.0
G01 X181.297960 Y126.682746 Z-1.000000 F25.000000
G01 X181.286130 Y126.690734 Z-1.000000
G01 X181.293748 Y126.716813 Z-1.000000
G01 X181.321374 Y126.711687 Z-1.000000
G01 X181.321374 Y126.711687 Z-1.000000
G00 Z5.000000

G00 Z5.000000
G00 X195.639064 Y139.562767

G01 Z-1.000000 F25.0
G03 X197.425868 Y136.898024 Z-1.000000 I2.888421 J0.005358 F25.000000
G02 X200.191526 Y135.431707 Z-1.000000 I-6.214430 J-15.062546
G03 X202.216709 Y134.277614 Z-1.000000 I15.013779 J23.991999
G02 X203.745233 Y132.461990 Z-1.000000 I-1.417755 J-2.744792
G03 X204.859552 Y130.058296 Z-1.000000 I20.138568 J7.875827
G02 X205.467337 Y127.690532 Z-1.000000 I-4.448812 J-2.403861
G02 X199.878867 Y125.643098 Z-1.000000 I-5.123261 J5.333359
G02 X194.683446 Y128.934827 Z-1.000000 I0.402170 J6.380656
G02 X193.239952 Y134.366595 Z-1.000000 I7.408429 J4.876481
G02 X195.313888 Y139.532904 Z-1.000000 I8.855602 J-0.555518
G03 X195.458259 Y139.608121 Z-1.000000 I-0.025658 J0.225409
G01 X195.639064 Y139.562767 Z-1.000000
G01 X195.639064 Y139.562767 Z-1.000000
G00 Z5.000000

G00 Z5.000000
G00 X196.939768 Y142.406397

G01 Z-1.000000 F25.0
G01 X196.990487 Y142.389071 Z-1.000000 F25.000000
G01 X197.003349 Y142.406397 Z-1.000000
G01 X196.990487 Y142.423722 Z-1.000000
G01 X196.939768 Y142.406397 Z-1.000000
G01 X196.939768 Y142.406397 Z-1.000000
G00 Z5.000000

G00 Z5.000000
G00 X202.447848 Y145.107347

G01 Z-1.000000 F25.0
G02 X202.961924 Y144.433114 Z-1.000000 I-1.170818 J-1.425801 F25.000000
G03 X204.315949 Y143.859734 Z-1.000000 I0.984351 J0.439082
G02 X203.447460 Y144.408464 Z-1.000000 I-0.183485 J0.671248
G03 X202.049673 Y144.974622 Z-1.000000 I-0.877091 J-0.156873
G01 X202.142581 Y145.084120 Z-1.000000
G01 X202.447848 Y145.107347 Z-1.000000
G01 X202.447848 Y145.107347 Z-1.000000
G00 Z5.000000

G00 Z5.000000
G00 X203.161244 Y141.274918

G01 Z-1.000000 F25.0
G02 X208.931815 Y139.987792 Z-1.000000 I-0.836738 J-17.330520 F25.000000
G02 X213.868818 Y136.858499 Z-1.000000 I-6.419084 J-15.586357
G03 X210.206014 Y135.091734 Z-1.000000 I105.971052 J-224.376171
G03 X206.724905 Y132.817028 Z-1.000000 I7.600150 J-15.431956
G03 X203.332099 Y135.147305 Z-1.000000 I-16.004622 J-19.667159
G03 X199.736943 Y137.153812 Z-1.000000 I-88.822960 J-154.924335
G02 X198.074077 Y138.433926 Z-1.000000 I1.306082 J3.416686
G02 X198.459467 Y140.515068 Z-1.000000 I1.189466 J0.855987
G02 X200.771691 Y141.182645 Z-1.000000 I2.772081 J-5.263292
G02 X203.161244 Y141.274918 Z-1.000000 I2.383710 J-30.743240
G01 X203.161244 Y141.274918 Z-1.000000
G00 Z5.000000

G00 Z5.000000
G00 X216.964625 Y135.637431

G01 Z-1.000000 F25.0
G02 X218.909604 Y134.813152 Z-1.000000 I-0.337394 J-3.502955 F25.000000
G02 X219.410080 Y132.896663 Z-1.000000 I-1.121752 J-1.316529
G03 X219.281228 Y127.336590 Z-1.000000 I0.178162 J-2.785658
G03 X220.720737 Y131.831547 Z-1.000000 I0.264826 J2.393169
G02 X223.920482 Y128.979371 Z-1.000000 I-2.994332 J-6.580147
G02 X225.279835 Y125.012809 Z-1.000000 I-8.551579 J-5.146860
G02 X224.453603 Y119.950666 Z-1.000000 I-6.843450 J-1.481527
G02 X220.893280 Y116.329288 Z-1.000000 I-9.175554 J5.460021
G02 X217.335444 Y114.697929 Z-1.000000 I-8.841746 J14.587671
G02 X213.228421 Y114.690136 Z-1.000000 I-2.065550 J6.340231
G02 X211.545633 Y115.573546 Z-1.000000 I1.697527 J5.278040
G02 X210.403456 Y117.081257 Z-1.000000 I2.187039 J2.843294
G02 X212.919647 Y117.848343 Z-1.000000 I1.897648 J-1.714315
G02 X213.135514 Y116.989594 Z-1.000000 I-0.121401 J-0.487023
G03 X212.533663 Y119.492595 Z-1.000000 I-3.794357 J0.411500
G03 X210.892464 Y121.399376 Z-1.000000 I-8.072886 J-5.288778
G03 X209.688272 Y119.456517 Z-1.000000 I0.202372 J-1.470042
G03 X210.978735 Y119.010329 Z-1.000000 I0.817368 J0.274759
G02 X207.872202 Y119.267846 Z-1.000000 I-1.312315 J3.035458
G02 X206.379820 Y122.066318 Z-1.000000 I1.770628 J2.741416
G02 X206.949849 Y126.171761 Z-1.000000 I6.738339 J1.156697
G02 X209.392674 Y129.442500 Z-1.000000 I9.476833 J-4.530377
G03 X208.338507 Y129.068128 Z-1.000000 I-0.377112 J-0.609480
G02 X207.249168 Y129.084143 Z-1.000000 I-0.542020 J0.188217
G02 X208.613278 Y132.754527 Z-1.000000 I3.207286 J0.896681
G02 X211.818220 Y134.658585 Z-1.000000 I20.459748 J-30.788839
G02 X214.315711 Y135.512296 Z-1.000000 I4.959911 J-10.429984
G02 X216.964625 Y135.637431 Z-1.000000 I1.694146 J-7.763187
G01 X216.964625 Y135.637431 Z-1.000000
G00 Z5.000000

G00 Z5.000000
G00 X219.944297 Y128.612970

G01 Z-1.000000 F25.0
G01 X219.943520 Y128.465393 Z-1.000000 F25.000000
G01 X219.970534 Y128.461723 Z-1.000000
G01 X220.011317 Y128.564524 Z-1.000000
G01 X219.944297 Y128.612970 Z-1.000000
G01 X219.944297 Y128.612970 Z-1.000000
G00 Z5.000000

G00 Z5.000000
G00 X220.133430 Y128.536653

G01 Z-1.000000 F25.0
G01 X220.184149 Y128.519327 Z-1.000000 F25.000000
G01 X220.197011 Y128.536653 Z-1.000000
G01 X220.184149 Y128.553979 Z-1.000000
G01 X220.133430 Y128.536653 Z-1.000000
G01 X220.133430 Y128.536653 Z-1.000000
G00 Z5.000000

G00 Z5.000000
G00 X220.086976 Y128.420519

G01 Z-1.000000 F25.0
G03 X219.656278 Y126.159764 Z-1.000000 I1.289374 J-1.417043 F25.000000
G03 X220.189838 Y126.290285 Z-1.000000 I0.252452 J0.123830
G03 X221.041394 Y124.241685 Z-1.000000 I3.577127 J0.285643
G01 X221.072458 Y124.266232 Z-1.000000
G03 X222.186007 Y124.270660 Z-1.000000 I0.555102 J0.422871
G03 X222.157483 Y125.719569 Z-1.000000 I-0.942457 J0.706182
G03 X221.338920 Y126.955207 Z-1.000000 I-11.208352 J-6.536154
G02 X220.551513 Y128.055526 Z-1.000000 I25.672036 J19.203253
G03 X221.324640 Y128.030746 Z-1.000000 I0.387600 J0.019951
G03 X220.086976 Y128.420519 Z-1.000000 I-0.656228 J0.076140
G01 X220.086976 Y128.420519 Z-1.000000
G00 Z5.000000

G00 Z5.000000
G00 X220.266155 Y128.204841

G01 Z-1.000000 F25.0
G01 X220.206944 Y128.171923 Z-1.000000 F25.000000
G01 X220.155527 Y128.199218 Z-1.000000
G01 X220.159214 Y128.212616 Z-1.000000
G01 X220.266155 Y128.204841 Z-1.000000
G01 X220.266155 Y128.204841 Z-1.000000
G00 Z5.000000

G00 Z5.000000
G00 X219.980796 Y127.989163

G01 Z-1.000000 F25.0
G01 X219.919226 Y127.981313 Z-1.000000 F25.000000
G01 X219.903478 Y128.016406 Z-1.000000
G01 X219.921304 Y128.032039 Z-1.000000
G01 X219.980796 Y127.989163 Z-1.000000
G01 X219.980796 Y127.989163 Z-1.000000
G00 Z5.000000

G00 Z5.000000
G00 X220.680920 Y127.909528

G01 Z-1.000000 F25.0
G01 X220.697660 Y127.866144 Z-1.000000 F25.000000
G01 X220.716863 Y127.867720 Z-1.000000
G01 X220.721146 Y127.887079 Z-1.000000
G01 X220.680920 Y127.909528 Z-1.000000
G01 X220.680920 Y127.909528 Z-1.000000
G00 Z5.000000

G00 Z5.000000
G00 X221.646493 Y125.361212

G01 Z-1.000000 F25.0
G01 X221.628836 Y125.398582 Z-1.000000 F25.000000
G01 X221.645456 Y125.421658 Z-1.000000
G01 X221.654693 Y125.417974 Z-1.000000
G01 X221.646493 Y125.361212 Z-1.000000
G01 X221.646493 Y125.361212 Z-1.000000
G00 Z5.000000

G00 Z5.000000
G00 X218.003197 Y122.258769

G01 Z-1.000000 F25.0
G01 X218.070995 Y122.256942 Z-1.000000 F25.000000
G01 X218.075292 Y122.272846 Z-1.000000
G01 X218.045264 Y122.290818 Z-1.000000
G01 X218.003197 Y122.258769 Z-1.000000
G01 X218.003197 Y122.258769 Z-1.000000
G00 Z5.000000

G00 Z5.000000
G00 X217.439116 Y122.009910

G01 Z-1.000000 F25.0
G03 X217.586820 Y122.004101 Z-1.000000 I0.103162 J0.742298 F25.000000
G01 X217.587668 Y122.010180 Z-1.000000
G03 X217.516049 Y122.028070 Z-1.000000 I-0.133115 J-0.380582
G01 X217.439116 Y122.009910 Z-1.000000
G01 X217.439116 Y122.009910 Z-1.000000
G00 Z5.000000

G00 Z5.000000
G00 X216.503406 Y126.121061

G01 Z-1.000000 F25.0
G01 X216.417706 Y126.202214 Z-1.000000 F25.000000
G01 X216.426112 Y126.240735 Z-1.000000
G01 X216.452508 Y126.241119 Z-1.000000
G01 X216.503406 Y126.121061 Z-1.000000
G01 X216.503406 Y126.121061 Z-1.000000
G00 Z5.000000

G00 Z5.000000
G00 X215.945962 Y126.821185

G01 Z-1.000000 F25.0
G03 X215.730230 Y125.370348 Z-1.000000 I0.859694 J-0.869289 F25.000000
G02 X216.184867 Y123.811649 Z-1.000000 I-3.395066 J-1.835915
G03 X216.574593 Y122.777275 Z-1.000000 I3.126752 J0.587475
G03 X217.190257 Y122.129362 Z-1.000000 I1.723573 J1.021319
G03 X218.481826 Y122.811669 Z-1.000000 I0.371417 J0.860516
G03 X218.043014 Y123.957647 Z-1.000000 I-1.139464 J0.220684
G03 X216.979514 Y125.601116 Z-1.000000 I-5.025987 J-2.086515
G02 X216.068732 Y126.724959 Z-1.000000 I7.111769 J6.694480
G01 X216.015265 Y126.764272 Z-1.000000
G01 X215.945962 Y126.821185 Z-1.000000
G01 X215.945962 Y126.821185 Z-1.000000
G00 Z5.000000

G00 Z5.000000
G00 X217.379390 Y114.769771

G01 Z-1.000000 F25.0
G01 X217.432336 Y114.738265 Z-1.000000 F25.000000
G01 X217.444394 Y114.748166 Z-1.000000
G01 X217.435130 Y114.768409 Z-1.000000
G01 X217.379390 Y114.769771 Z-1.000000
G01 X217.379390 Y114.769771 Z-1.000000
G00 Z5.000000

G00 Z5.000000
G00 X213.364464 Y112.941487

G01 Z-1.000000 F25.0
G02 X214.572600 Y111.977702 Z-1.000000 I0.138982 J-1.064893 F25.000000
G03 X215.222612 Y110.535849 Z-1.000000 I2.434945 J0.230270
G02 X215.872245 Y108.843773 Z-1.000000 I-46.395795 J-18.783334
G02 X216.340818 Y107.045186 Z-1.000000 I-9.344495 J-3.394786
G02 X216.964129 Y103.404722 Z-1.000000 I-19.583638 J-5.226652
G02 X216.616222 Y100.033998 Z-1.000000 I-9.373747 J-0.735813
G02 X215.312933 Y98.375327 Z-1.000000 I-1.717795 J0.008385
G01 X215.312201 Y98.378256 Z-1.000000
G02 X213.609220 Y105.076634 Z-1.000000 I19.025708 J8.402724
G02 X214.568942 Y105.269992 Z-1.000000 I0.491202 J0.040387
G03 X213.818565 Y109.101979 Z-1.000000 I-24.419293 J-2.792307
G02 X212.972926 Y112.921578 Z-1.000000 I34.258900 J9.588147
G01 X213.364464 Y112.941487 Z-1.000000
G01 X213.364464 Y112.941487 Z-1.000000
G00 Z5.000000

G00 Z5.000000
G00 X205.245023 Y119.192826

G01 Z-1.000000 F25.0
G03 X206.539256 Y117.867369 Z-1.000000 I4.270097 J2.874906 F25.000000
G03 X208.204787 Y117.122318 Z-1.000000 I2.711390 J3.827062
G03 X209.803837 Y114.896094 Z-1.000000 I7.925818 J4.005554
G03 X211.960899 Y113.253390 Z-1.000000 I6.819204 J6.716823
G02 X213.479049 Y106.130881 Z-1.000000 I-93.862158 J-23.729603
G02 X213.464008 Y98.872656 Z-1.000000 I-20.598177 J-3.586441
G02 X210.294392 Y95.833253 Z-1.000000 I-5.103666 J2.149910
G02 X205.918602 Y95.504763 Z-1.000000 I-2.755179 J7.392510
G02 X204.308173 Y96.114987 Z-1.000000 I3.113304 J10.646387
G02 X202.812841 Y97.588543 Z-1.000000 I1.347476 J2.862883
G02 X201.640548 Y100.780474 Z-1.000000 I4.112106 J3.321482
G03 X201.412594 Y103.710475 Z-1.000000 I-27.660513 J-0.678117
G02 X199.388117 Y105.482688 Z-1.000000 I-0.123349 J1.901524
G03 X198.957185 Y108.047259 Z-1.000000 I-13.182950 J-0.896680
G03 X198.503064 Y111.509503 Z-1.000000 I-42.237032 J-3.779059
G02 X198.469421 Y114.965540 Z-1.000000 I10.565193 J1.831030
G02 X200.175534 Y115.697048 Z-1.000000 I1.373466 J-0.848009
G02 X201.419230 Y114.255462 Z-1.000000 I-0.323574 J-1.536435
G02 X202.173374 Y110.463268 Z-1.000000 I-24.963177 J-6.935449
G02 X202.517528 Y106.862690 Z-1.000000 I-68.194964 J-8.335010
G03 X203.068678 Y110.333047 Z-1.000000 I-4.634884 J2.515041
G03 X202.384803 Y113.883833 Z-1.000000 I-219.485808 J-40.431331
G03 X202.724649 Y117.016470 Z-1.000000 I-24.567851 J4.250012
G03 X201.591773 Y117.510539 Z-1.000000 I-0.661238 J0.029664
G02 X203.231941 Y118.706301 Z-1.000000 I7.928812 J-9.152812
G02 X205.245023 Y119.192826 Z-1.000000 I1.768806 J-2.910743
G01 X205.245023 Y119.192826 Z-1.000000
G00 Z5.000000

G00 Z5.000000
G00 X197.006130 Y103.219393

G01 Z-1.000000 F25.0
G01 X196.955411 Y103.202068 Z-1.000000 F25.000000
G01 X196.942549 Y103.219393 Z-1.000000
G01 X196.955411 Y103.236719 Z-1.000000
G01 X197.006130 Y103.219393 Z-1.000000
G01 X197.006130 Y103.219393 Z-1.000000
G00 Z5.000000

G00 Z5.000000
G00 X215.886236 Y98.826202

G01 Z-1.000000 F25.0
G01 X215.960544 Y98.801719 Z-1.000000 F25.000000
G01 X215.966556 Y98.811835 Z-1.000000
G01 X215.937595 Y98.839850 Z-1.000000
G01 X215.886236 Y98.826202 Z-1.000000
G01 X215.886236 Y98.826202 Z-1.000000
G00 Z5.000000

G00 Z5.000000
G00 X186.729911 Y145.747744

G01 Z-1.000000 F25.0
G02 X186.672102 Y143.106712 Z-1.000000 I-78.996150 J0.407965 F25.000000
G02 X184.722448 Y141.049285 Z-1.000000 I-2.147956 J0.082965
G02 X181.756352 Y142.287382 Z-1.000000 I0.220679 J4.700649
G02 X179.688859 Y144.702536 Z-1.000000 I9.078623 J9.864273
G02 X182.129052 Y145.363584 Z-1.000000 I1.523651 J-0.790020
G01 X182.160859 Y145.412614 Z-1.000000
G03 X184.468438 Y145.364823 Z-1.000000 I1.265815 J5.385229
G03 X186.607140 Y146.126010 Z-1.000000 I-1.407243 J7.339065
G01 X186.729911 Y145.747744 Z-1.000000
G01 X186.729911 Y145.747744 Z-1.000000
G00 Z5.000000

G00 Z5.000000
G00 X165.434213 Y168.818636

G01 Z-1.000000 F25.0
G01 X165.494644 Y168.796284 Z-1.000000 F25.000000
G01 X165.513703 Y168.816964 Z-1.000000
G01 X165.502769 Y168.834802 Z-1.000000
G01 X165.434213 Y168.818636 Z-1.000000
G01 X165.434213 Y168.818636 Z-1.000000
G00 Z5.000000

G00 Z5.000000
G00 X165.188672 Y168.719093

G01 Z-1.000000 F25.0
G01 X165.219598 Y168.660191 Z-1.000000 F25.000000
G03 X165.353302 Y168.701633 Z-1.000000 I-0.052733 J0.406541
G01 X165.350933 Y168.722924 Z-1.000000
G03 X165.188672 Y168.719093 Z-1.000000 I-0.074319 J-0.290368
G01 X165.188672 Y168.719093 Z-1.000000
G00 Z5.000000

G00 Z5.000000
G00 X164.830315 Y168.579731

G01 Z-1.000000 F25.0
G03 X165.050656 Y168.548564 Z-1.000000 I0.158301 J0.324678 F25.000000
G01 X165.076588 Y168.578208 Z-1.000000
G01 X165.053130 Y168.607504 Z-1.000000
G03 X164.830315 Y168.579731 Z-1.000000 I-0.067335 J-0.367480
G01 X164.830315 Y168.579731 Z-1.000000
G00 Z5.000000

G00 Z5.000000
G00 X173.427566 Y179.416713

G01 Z-1.000000 F25.0
G02 X180.575596 Y178.599416 Z-1.000000 I0.196606 J-29.947260 F25.000000
G02 X187.426716 Y176.284407 Z-1.000000 I-9.175156 J-38.448516
G02 X194.497939 Y172.533930 Z-1.000000 I-18.619354 J-43.646643
G02 X200.646108 Y167.458207 Z-1.000000 I-18.326598 J-28.460279
G02 X200.731016 Y166.730576 Z-1.000000 I-0.260812 J-0.399204
G02 X199.970282 Y166.299179 Z-1.000000 I-1.089746 J1.035235
G02 X198.705871 Y166.160731 Z-1.000000 I-1.249816 J5.571276
G01 X198.681781 Y166.296865 Z-1.000000
G02 X189.468331 Y169.001584 Z-1.000000 I2.219416 J24.605159
G03 X180.903291 Y173.231736 Z-1.000000 I-98.782527 J-189.224703
G03 X173.649766 Y176.119608 Z-1.000000 I-20.385516 J-40.649358
G03 X165.965112 Y177.329615 Z-1.000000 I-8.238118 J-27.312295
G02 X165.830321 Y177.854533 Z-1.000000 I0.049620 J0.292507
G02 X167.016418 Y178.530951 Z-1.000000 I2.794186 J-3.521477
G02 X168.556676 Y179.043282 Z-1.000000 I6.495494 J-16.956406
G01 X168.563201 Y179.021857 Z-1.000000
G02 X170.992234 Y179.314348 Z-1.000000 I4.316820 J-25.617241
G02 X173.427566 Y179.416713 Z-1.000000 I2.883068 J-39.569894
G01 X173.427566 Y179.416713 Z-1.000000
G00 Z5.000000

G00 Z5.000000
G00 X170.504301 Y182.555655

G01 Z-1.000000 F25.0
G02 X171.815688 Y181.243148 Z-1.000000 I0.039974 J-1.271447 F25.000000
G03 X172.863485 Y180.826914 Z-1.000000 I0.598889 J-0.019341
G03 X169.069952 Y180.585686 Z-1.000000 I-0.957709 J-14.888151
G03 X165.424259 Y179.861341 Z-1.000000 I72.317953 J-373.519456
G02 X167.546815 Y182.325113 Z-1.000000 I2.548728 J-0.049563
G02 X170.504301 Y182.555655 Z-1.000000 I2.753622 J-16.239366
G01 X170.504301 Y182.555655 Z-1.000000
G00 Z5.000000

G00 Z5.000000
G00 X170.461166 Y186.238769

G01 Z-1.000000 F25.0
G01 X170.521597 Y186.216417 Z-1.000000 F25.000000
G01 X170.540656 Y186.237097 Z-1.000000
G01 X170.529722 Y186.254935 Z-1.000000
G01 X170.461166 Y186.238769 Z-1.000000
G01 X170.461166 Y186.238769 Z-1.000000
G00 Z5.000000

G00 Z5.000000
G00 X166.758143 Y184.752251

G01 Z-1.000000 F25.0
G02 X167.194892 Y184.512739 Z-1.000000 I0.155883 J-0.233709 F25.000000
G03 X168.284479 Y183.504638 Z-1.000000 I0.992183 J-0.020499
G03 X165.412708 Y182.277581 Z-1.000000 I2.123956 J-8.944888
G03 X164.120237 Y179.157900 Z-1.000000 I1.616476 J-2.497272
G03 X162.798398 Y175.586583 Z-1.000000 I1.725122 J-2.668796
G01 X163.221027 Y175.667237 Z-1.000000
G02 X160.862298 Y174.882653 Z-1.000000 I-2.544227 J3.710952
G02 X158.472796 Y174.963795 Z-1.000000 I-0.656143 J15.901590
G03 X161.191995 Y173.902425 Z-1.000000 I2.619606 J2.697413
G03 X164.000785 Y174.648574 Z-1.000000 I-0.166574 J6.286804
G02 X165.738374 Y173.800450 Z-1.000000 I-0.503533 J-3.235608
G03 X167.547856 Y172.753927 Z-1.000000 I3.145227 J3.350634
G03 X170.347755 Y171.687751 Z-1.000000 I5.476152 J10.171483
G02 X173.138889 Y170.766373 Z-1.000000 I-4.008025 J-16.829806
G02 X169.236992 Y167.135344 Z-1.000000 I-3.168717 J-0.506903
G02 X169.200280 Y167.929380 Z-1.000000 I0.094397 J0.402231
G03 X166.354231 Y166.762381 Z-1.000000 I1.562385 J-7.864248
G03 X164.166691 Y164.621214 Z-1.000000 I4.397784 J-6.681069
G02 X161.193196 Y165.173191 Z-1.000000 I-0.796632 J3.993632
G02 X160.251309 Y167.806609 Z-1.000000 I1.214004 J1.919360
G03 X162.680717 Y167.515895 Z-1.000000 I1.808151 J4.813890
G03 X164.621274 Y168.287737 Z-1.000000 I-0.495475 J4.071101
G01 X164.602040 Y168.248639 Z-1.000000
G03 X162.554137 Y168.410745 Z-1.000000 I-27.597287 J-335.622916
G03 X160.794883 Y168.531088 Z-1.000000 I-8.752473 J-115.030139
G01 X160.782208 Y168.470233 Z-1.000000
G02 X157.651431 Y171.387720 Z-1.000000 I2.248382 J5.551329
G02 X156.126885 Y175.222609 Z-1.000000 I24.111572 J11.805951
G02 X156.333486 Y178.710186 Z-1.000000 I5.683122 J1.413246
G02 X158.509296 Y181.404267 Z-1.000000 I5.189740 J-1.965708
G02 X161.075569 Y182.569347 Z-1.000000 I6.892266 J-11.772461
G02 X163.715427 Y183.123054 Z-1.000000 I3.697195 J-11.057027
G02 X165.063701 Y184.249804 Z-1.000000 I5.318738 J-4.994371
G02 X166.758143 Y184.752251 Z-1.000000 I1.697900 J-2.617592
G01 X166.758143 Y184.752251 Z-1.000000
G00 Z5.000000


(Footer)
M5
G00 X0.0000 Y0.0000
M2
(Using default footer. To add your own footer create file "footer" in the output dir.)
(end)
%